!!!!SEGMENT: pl-cz--iii-749_zebrowski-marcin-jozef--rorate-caeli.krn
!!!COM: Żebrowski, Marcin Józef
!!!COM-rismID: pe30020322
!!!cenid: 17xx:2366
!!!CDT: 1702-1770/06/29
!!!CNT: Polish
!!!OTL: Rorate caeli
!!!PDT: 1752
!!!AGN:
!!!SMS-siglum: PL-CZ
!!!SMS-shelfmark: III-749
!!!SMS-variant:
!!!SMS-altvar:
!!!SMS-shelfwork: W
!!!NIFC-rismSourceID: 300033502
!!!NIFC-rismChildID: 300033502
!!!NIFC-islandoraID: pl-cz:25354
!!!URL-pdf-islandora: https://repozytorium.nifc.pl/islandora/object/pl-cz%3A25354/datastream/PDF/view
!!!URL-scan: https://polish.musicsources.pl/pl/lokalizacje/galeria/rekopisy/1479 @EN{Scan on Polish Music Sources Website} @PL{Skany w portalu Dziedzictwo Muzyki Polskiej w otwartym dostępie}
!!!IIIF:
!!!ONB-nifc:
!!!AIN: 1 alto 1 bass 2 clrno 2 oboe 1 organ 1 soprn 1 tenor 2 violn
!!!key: D
**kern	**fba	**kern	**kern	**dynam	**kern	**text	**kern	**text	**kern	**text	**kern	**text	**kern	**kern	**kern	**kern
*group4	*	*group4	*group4	*	*group3	*	*group3	*	*group3	*	*group3	*	*group2	*group2	*group1	*group1
*part11	*part11	*part10	*part9	*part9	*part8	*part8	*part7	*part7	*part6	*part6	*part5	*part5	*part4	*part3	*part2	*part1
*staff11	*	*staff10	*staff9	*	*staff8	*staff8	*staff7	*staff7	*staff6	*staff6	*staff5	*staff5	*staff4	*staff3	*staff2	*staff1
*I"Baſso pro Organo.	*	*I"Violino Secondo.	*I"Violino Primo	*	*I"Baſso.	*	*I"Tenore.	*	*I"Alto.	*	*I"Canto.	*	*I"Clarino Secondo.	*I"Clarino Primo.	*I"Oboe Secondo.	*I"Oboe Primo.
*I'cb et org	*	*I'vl 2	*I'vl 1	*	*I'B	*	*I'T	*	*I'A	*	*I'S	*	*I'clno 2	*I'clno 1	*I'ob 2	*I'ob 1
*Iorgan	*	*Ivioln	*Ivioln	*	*Ibass	*	*Itenor	*	*Ialto	*	*Isoprn	*	*Iclrno	*Iclrno	*Ioboe	*Ioboe
*ICklav	*	*ICstr	*ICstr	*	*ICvox	*	*ICvox	*	*ICvox	*	*ICvox	*	*ICbras	*ICbras	*ICww	*ICww
*	*	*	*	*	*	*	*	*	*	*	*	*	*ITrd-1c-2	*ITrd-1c-2	*	*
*clefF4	*	*clefG2	*clefG2	*	*clefF4	*	*clefC4	*	*clefC3	*	*clefC1	*	*clefG2	*clefG2	*clefG2	*clefG2
*D:	*	*D:	*D:	*	*D:	*	*D:	*	*D:	*	*D:	*	*D:	*D:	*D:	*D:
=1	=1	=1	=1	=1	=1	=1	=1	=1	=1	=1	=1	=1	=1	=1	=1	=1
!LO:TX:b:i:t=Intonatio	!	!LO:TX:a:i:t=Intonatio\nTacet.	!LO:TX:a:i:t=Intonatio\nTacet	!	!LO:TX:a:i:t=Intonatio.	!	!LO:TX:a:i:t=Intonatio.	!	!LO:TX:a:i:t=Intonatio\nTacet	!	!LO:TX:a:i:t=Intonatio\nTacet.	!	!LO:TX:a:i:t=Intonatio\nTacet	!LO:TX:a:i:t=Intonatio.\nTacet	!LO:TX:a:i:t=Intonatio\nTacet	!LO:TX:a:i:t=Intonatio\nTacet
C	.	.	.	.	C	Ro-	C	Ro-	.	.	.	.	.	.	.	.
.	.	.	.	.	D	.	D	.	.	.	.	.	.	.	.	.
.	.	.	.	.	D	-ra-	D	-ra-	.	.	.	.	.	.	.	.
.	.	.	.	.	A	.	A	.	.	.	.	.	.	.	.	.
.	.	.	.	.	c	.	c	.	.	.	.	.	.	.	.	.
!LO:N:vis=1	!	!	!	!	!	!	!	!	!	!	!	!	!	!	!	!
r;	.	.	.	.	A;	-te.	A;	-te	.	.	.	.	.	.	.	.
=2||	=2||	=2||	=2||	=2||	=2||	=2||	=2||	=2||	=2||	=2||	=2||	=2||	=2||	=2||	=2||	=2||
*M2/4	*	*M2/4	*M2/4	*	*M2/4	*	*M2/4	*	*M2/4	*	*M2/4	*	*M2/4	*M2/4	*M2/4	*M2/4
*k[f#c#]	*	*k[f#c#]	*k[f#c#]	*	*k[f#c#]	*	*k[c#f#]	*	*k[f#c#]	*	*k[c#f#]	*	*k[f#c#]	*k[f#c#]	*k[f#c#]	*k[f#c#]
!LO:TX:b:i:t=Tutti	!	!LO:TX:b:i:t=Benedixisti	!	!	!	!	!	!	!	!	!	!	!	!LO:TX:b:i:t=Benedixisti	!LO:TX:b:i:t=Benedixisti	!LO:TX:b:i:t=Benedixisti.
!LO:TX:a:Bi:t=Allegro poco.	!	!LO:TX:a:Bi:t=Allo poco.	!	!	!	!	!	!	!LO:TX:a:Bi:t=Allo poco.	!	!LO:TX:a:Bi:t=Allo poco	!	!LO:TX:b:i:t=Benedixisti	!LO:TX:a:Bi:t=Allo poco.	!LO:TX:a:Bi:t=Allo poco.	!LO:TX:a:Bi:t=Allo poco.
16d\LL	.	8dd 8f# 8A/	8ff# 8a 8d/	.	4D/	Be-	4d\	Be-	4a\	Be-	4ff#\	Be-	4ff#\	4aa\	(32dd\LLL	(32ff#\LLL
.	.	.	.	.	.	.	.	.	.	.	.	.	.	.	32ee\JJ)	32gg\JJ)
16c#\	.	.	.	.	.	.	.	.	.	.	.	.	.	.	8.dd\J	8.ff#\J
16d\	.	(32f#/LLL	(32a/LLL	.	.	.	.	.	.	.	.	.	.	.	.	.
.	.	32e/	32g/	.	.	.	.	.	.	.	.	.	.	.	.	.
16D\JJ	.	32d/	32f#/	.	.	.	.	.	.	.	.	.	.	.	.	.
.	.	32c#/JJJ)	32e/JJJ)	.	.	.	.	.	.	.	.	.	.	.	.	.
16d\LL	.	8dd 8f# 8A/	8ff# 8a 8d/	.	8D/	-ne-	8d\	-ne-	8a\	-ne-	8ff#\	-ne-	4ff#\	4aa\	(32dd\LLL	(32ff#\LLL
.	.	.	.	.	.	.	.	.	.	.	.	.	.	.	32ee\JJ)	32gg\JJ)
16c#\	.	.	.	.	.	.	.	.	.	.	.	.	.	.	8.dd\J	8.ff#\J
16d\	.	(32a/LLL	(32f#/LLL	.	8D/	-di-	8d\	-di-	8a\	-di-	8ff#\	-di-	.	.	.	.
.	.	32g/	32e/	.	.	.	.	.	.	.	.	.	.	.	.	.
16D\JJ	.	32f#/	32d/	.	.	.	.	.	.	.	.	.	.	.	.	.
.	.	32e/JJJ)	32c#/JJJ)	.	.	.	.	.	.	.	.	.	.	.	.	.
=3	=3	=3	=3	=3	=3	=3	=3	=3	=3	=3	=3	=3	=3	=3	=3	=3
*	*	*	*	*	*	*	*	*	*	*	*	*	*	*	*2\right	*2\right
16d\LL	.	8dd 8f# 8A/	8ff# 8a 8d/	.	4D/	-xi-	4d\	-xi-	4a\	-xi-	4ff#\	-xi-	16ff#\LL	16aa\LL	2ddT\	2ff#t\
16c#\	.	.	.	.	.	.	.	.	.	.	.	.	16dd\J	16ff#\J	.	.
16d\	.	(32f#/LLL	(32a/LLL	.	.	.	.	.	.	.	.	.	8ff#\J	8aa\J	.	.
.	.	32e/	32g/	.	.	.	.	.	.	.	.	.	.	.	.	.
16D\JJ	.	32d/	32f#/	.	.	.	.	.	.	.	.	.	.	.	.	.
.	.	32c#/JJJ)	32e/JJJ)	.	.	.	.	.	.	.	.	.	.	.	.	.
16d\LL	.	8dd 8f# 8A/	8ff# 8a 8d/	.	4D/	-sti	4d\	-sti	4a\	-sti	4ff#\	-sti	16ff#\LL	16aa\LL	.	.
16c#\	.	.	.	.	.	.	.	.	.	.	.	.	16dd\J	16ff#\J	.	.
16d\	.	(32a/LLL	(32f#/LLL	.	.	.	.	.	.	.	.	.	8ff#\J	8aa\J	.	.
.	.	32g/	32e/	.	.	.	.	.	.	.	.	.	.	.	.	.
16D\JJ	.	32f#/	32d/	.	.	.	.	.	.	.	.	.	.	.	.	.
.	.	32e/JJJ)	32c#/JJJ)	.	.	.	.	.	.	.	.	.	.	.	.	.
=4	=4	=4	=4	=4	=4	=4	=4	=4	=4	=4	=4	=4	=4	=4	=4	=4
!	!	!	!	!	!	!	!	!	!	!	!	!	!LO:TX:t=P:problem=mixed beam	!LO:TX:t=P:problem=mixed beam	!	!
8D\L	.	16dd 16f# 16A/	16ff# 16a 16d/	.	(8D\L	Do-	8.d\	Do-	8.a\	Do-	8.ff#\	Do-	8dd\L	8ff#\L	8r	8r
.	.	16ff#\LL	16aa\LL	.	.	.	.	.	.	.	.	.	.	.	.	.
8d\	.	16ff#\	16aa\	.	8d\J)	.	.	.	.	.	.	.	16d/L	16d/L	8a/	8ff#\
.	.	16ff#\JJ	16aa\JJ	.	.	.	16d\	-mi-	16a\	-mi-	16ff#\	-mi-	16d/JJ	16d/JJ	.	.
.	.	.	.	.	.	.	.	.	.	.	.	.	.	.	.	8qqff#/
8B\	6	16gg\LL	16bb\LL	.	16B\	.	4d\	-ne	4b\	-ne	4gg\	-ne	8d/L	8d/L	4b/	4gg\
.	.	16gg\	16bb\	.	16B\	-mi-	.	.	.	.	.	.	.	.	.	.
8G\J	.	16bb\	16ddd\	.	8G\	-ne	.	.	.	.	.	.	8d/J	8d/J	.	.
.	.	16bb\JJ	16ddd\JJ	.	.	.	.	.	.	.	.	.	.	.	.	.
!	!	!	!LO:LB:g=original	!	!	!	!	!	!	!	!	!	!	!	!	!
=5	=5	=5	=5	=5	=5	=5	=5	=5	=5	=5	=5	=5	=5	=5	=5	=5
8D\L	.	16dd\LL	16ff#\LL	.	(8D\L	ter-	4d\	ter-	4a\	ter-	4ff#\	ter-	8d/L	8d/L	8r	8r
.	.	16ff#\	16aa\	.	.	.	.	.	.	.	.	.	.	.	.	.
8d\	.	16ff#\	16aa\	.	8d\J)	.	.	.	.	.	.	.	16d/L	16d/L	8a/	8ff#\
.	.	16ff#\JJ	16aa\JJ	.	.	.	.	.	.	.	.	.	16d/JJ	16d/JJ	.	.
.	.	.	.	.	.	.	.	.	.	.	.	.	.	.	8qqa/	8qqff#/
!	!	!LO:LB:g=original	!	!	!	!	!	!	!	!	!	!	!	!	!	!
8B\	6	16gg\LL	16bb\LL	.	8B\	.	4d\	-ram	4b\	-ram	4gg\	-ram	8d/L	8d/L	4b/	4gg\
.	.	16gg\	16bb\	.	.	.	.	.	.	.	.	.	.	.	.	.
8G\J	.	16bb\	16ddd\	.	8G\	-ram	.	.	.	.	.	.	8d/J	8d/J	.	.
.	.	16bb\JJ	16ddd\JJ	.	.	.	.	.	.	.	.	.	.	.	.	.
!	!	!	!	!	!	!	!	!LO:LB:g=original	!	!	!	!	!	!	!	!
=6	=6	=6	=6	=6	=6	=6	=6	=6	=6	=6	=6	=6	=6	=6	=6	=6
.	.	.	.	.	.	.	.	.	8qqa/	.	8qqff#/	.	.	.	.	.
*	*	*	*	*	*2\right	*	*2\right	*	*2\right	*	*2\right	*	*	*	*	*
!LO:TX:t=P:problem=mixed beam	!	!	!	!	!	!	!	!	!	!	!	!	!	!	!	!
8A\L	7	16ee\LL	16gg\LL	.	2A\	tu-	2c#\	tu-	2g\	tu-	2ee\	tu-	8a/L	8a/L	2cc#\	2eeT\
.	.	16dd\	16ff#\	.	.	.	.	.	.	.	.	.	.	.	.	.
8A\	.	16cc#\	16ee\	.	.	.	.	.	.	.	.	.	16a/L	16a/L	.	.
.	.	16b\JJ	16dd\JJ	.	.	.	.	.	.	.	.	.	16a/JJ	16a/JJ	.	.
8AA/	.	16a\LL	16cc#\LL	.	.	.	.	.	.	.	.	.	8a/L	8a/L	.	.
.	.	16gg\	16bb\	.	.	.	.	.	.	.	.	.	.	.	.	.
8AA/J	.	16ff#\	16aa\	.	.	.	.	.	.	.	.	.	8a/J	8a/J	.	.
.	.	16ee\JJ	16gg\JJ	.	.	.	.	.	.	.	.	.	.	.	.	.
!LO:LB:g=original	!	!	!	!	!	!	!	!	!	!	!	!	!	!	!	!
=7	=7	=7	=7	=7	=7	=7	=7	=7	=7	=7	=7	=7	=7	=7	=7	=7
16D\LL	.	8dd|\L	8ff#|\L	.	4D/	-am,	4A/	-am	4f#\	-am	4dd\	-am	4f#/	4a/	4dd\	4ff#\
16d\	.	.	.	.	.	.	.	.	.	.	.	.	.	.	.	.
16c#\	.	8a|\J	8a|\J	.	.	.	.	.	.	.	.	.	.	.	.	.
16d\JJ	.	.	.	.	.	.	.	.	.	.	.	.	.	.	.	.
16D\LL	.	4ff# 4a 4d/	4ff# 4a 4d/	.	4r	.	4r	.	4r	.	4r	.	4r	4r	4r	4r
16E\	.	.	.	.	.	.	.	.	.	.	.	.	.	.	.	.
16F#\	.	.	.	.	.	.	.	.	.	.	.	.	.	.	.	.
16G#X\JJ	.	.	.	.	.	.	.	.	.	.	.	.	.	.	.	.
*	*	*	*	*	*	*	*	*	*	*	*custos:a	*	*	*	*	*
!	!	!	!	!	!LO:LB:g=original	!	!	!	!LO:LB:g=original	!	!LO:LB:g=original	!	!	!	!	!
=8	=8	=8	=8	=8	=8	=8	=8	=8	=8	=8	=8	=8	=8	=8	=8	=8
!LO:TX:t=P:problem=mixed beam	!	!	!	!	!	!	!	!	!	!	!	!	!	!	!	!
16A\LL	.	8cc# 8e 8A/	8aa 8cc# 8e/	.	4A\	Be-	4c#\	Be-	4e\	Be-	4a\	Be-	16ee\LL	16ccc#\LL	4cc#\	4ee\
16G#X\	.	.	.	.	.	.	.	.	.	.	.	.	16ff#\J	16ddd\J	.	.
16A\	.	(32cc#\LLL	(32ee\LLL	.	.	.	.	.	.	.	.	.	8ee\J	8ccc#\J	.	.
.	.	32b\	32dd\	.	.	.	.	.	.	.	.	.	.	.	.	.
16AA/JJ	.	32a\	32cc#\	.	.	.	.	.	.	.	.	.	.	.	.	.
.	.	32g#X\JJJ)	32b\JJJ)	.	.	.	.	.	.	.	.	.	.	.	.	.
!LO:TX:t=P:problem=mixed beam	!	!	!	!	!	!	!	!	!	!	!	!	!LO:LB:g=original	!	!	!
16A\LL	.	8cc# 8e 8A/	8aa 8cc# 8e/	.	8A\	-ne-	8c#\	-ne-	8e\	-ne-	8a\	-ne-	16ee\LL	16ccc#\LL	4cc#\	4ee\
16G#\	.	.	.	.	.	.	.	.	.	.	.	.	16ff#\J	16ddd\J	.	.
16A\	.	(32ee\LLL	(32cc#\LLL	.	8A\	-di-	8c#\	-di-	8e\	-di-	8a\	-di-	8ee\J	8ccc#\J	.	.
.	.	32dd\	32b\	.	.	.	.	.	.	.	.	.	.	.	.	.
16AA/JJ	.	32cc#\	32a\	.	.	.	.	.	.	.	.	.	.	.	.	.
.	.	32b\JJJ)	32g#X\JJJ)	.	.	.	.	.	.	.	.	.	.	.	.	.
=9	=9	=9	=9	=9	=9	=9	=9	=9	=9	=9	=9	=9	=9	=9	=9	=9
*	*	*	*	*	*	*	*	*	*	*	*	*	*2\right	*2\right	*	*
!LO:TX:t=P:problem=mixed beam	!	!	!	!	!	!	!	!	!	!	!	!	!	!	!	!
16A\LL	.	8cc# 8e 8A/	8aa 8cc# 8e/	.	4A\	-xi-	4c#\	-xi-	4e\	-xi-	4a\	-xi-	2ee\	2ccc#t\	16cc#\LL	16ee\LL
16G#X\	.	.	.	.	.	.	.	.	.	.	.	.	.	.	16b\	16dd\
16A\	.	(32cc#\LLL	(32ee\LLL	.	.	.	.	.	.	.	.	.	.	.	16a\	16cc#\
.	.	32b\	32dd\	.	.	.	.	.	.	.	.	.	.	.	.	.
16AA/JJ	.	32a\	32cc#\	.	.	.	.	.	.	.	.	.	.	.	16b\JJ	16dd\JJ
.	.	32g#X\JJJ)	32b\JJJ)	.	.	.	.	.	.	.	.	.	.	.	.	.
!LO:TX:t=P:problem=mixed beam	!	!	!	!	!	!	!	!	!	!	!	!	!	!	!	!
16A\LL	.	8cc# 8e 8A/	8aa 8cc# 8e/	.	4A\	-sti	4c#\	-sti	4e\	-sti	4a\	-sti	.	.	16cc#\LL	16ee\LL
16G#\	.	.	.	.	.	.	.	.	.	.	.	.	.	.	16b\	16dd\
16A\	.	(32ee\LLL	(32cc#\LLL	.	.	.	.	.	.	.	.	.	.	.	16a\	16cc#\
.	.	32dd\	32b\	.	.	.	.	.	.	.	.	.	.	.	.	.
16AA/JJ	.	32cc#\	32a\	.	.	.	.	.	.	.	.	.	.	.	16b\JJ	16dd\JJ
.	.	32b\JJJ)	32g#X\JJJ)	.	.	.	.	.	.	.	.	.	.	.	.	.
!	!	!	!LO:LB:g=original	!	!	!	!	!	!	!	!	!	!	!LO:LB:g=original	!	!
=10	=10	=10	=10	=10	=10	=10	=10	=10	=10	=10	=10	=10	=10	=10	=10	=10
!LO:TX:t=P:problem=mixed beam	!	!	!	!	!LO:TX:t=P:problem=mixed beam	!	!	!	!	!	!	!	!	!	!	!
8AA/L	.	16cc# 16e 16A/	16aa 16cc# 16e/	.	(8AA/L	Do-	8.c#\	Do-	8.e\	Do-	8.a\	Do-	8r	8r	4cc#\	4ee\
.	.	16cc#\LL	16ee\LL	.	.	.	.	.	.	.	.	.	.	.	.	.
8A\	.	16cc#\	16ee\	.	8A\J)	.	.	.	.	.	.	.	8a/L	8a/L	.	.
.	.	16cc#\JJ	16ee\JJ	.	.	.	16c#\	-mi-	16e\	-mi-	16a\	-mi-	.	.	.	.
8F#\	6	16dd\LL	16ff#\LL	.	16F#\	.	4d\	-ne	4f#\	-ne	4a\	-ne	8f#/	8f#/	8dd\L	8ff#\L
.	.	16dd\	16ff#\	.	16F#\	-mi-	.	.	.	.	.	.	.	.	.	.
8D\J	.	16ff#\	16aa\	.	8D/	-ne	.	.	.	.	.	.	8d/J	8d/J	8ee\J	8aa\J
.	.	16ff#\JJ	16aa\JJ	.	.	.	.	.	.	.	.	.	.	.	.	.
!	!	!	!	!	!	!	!	!	!	!	!	!	!	!	!LO:LB:g=original	!LO:LB:g=original
=11	=11	=11	=11	=11	=11	=11	=11	=11	=11	=11	=11	=11	=11	=11	=11	=11
!LO:TX:t=P:problem=mixed beam	!	!	!	!	!LO:TX:t=P:problem=mixed beam	!	!	!	!	!	!	!	!	!	!	!
8AA/L	.	16a\LL	16cc#\LL	.	(8AA/L	ter-	4c#\	ter-	4e\	ter-	4a\	ter-	8r	8r	8r	8r
.	.	16cc#\	16ee\	.	.	.	.	.	.	.	.	.	.	.	.	.
8A\	.	16cc#\	16ee\	.	8A\J)	.	.	.	.	.	.	.	8a/L	8a/L	8cc#\L	8ee\L
.	.	16cc#\JJ	16ee\JJ	.	.	.	.	.	.	.	.	.	.	.	.	.
!	!	!LO:LB:g=original	!	!	!	!	!	!	!	!	!	!	!	!	!	!
8F#\	6	16dd\LL	16ff#\LL	.	8F#\	.	4d\	-ram	4f#\	-ram	4a\	-ram	8f#/	8f#/	8dd\	8ff#\
.	.	16dd\	16ff#\	.	.	.	.	.	.	.	.	.	.	.	.	.
8D\J	.	16ff#\	16aa\	.	8D/	-ram	.	.	.	.	.	.	8d/J	8d/J	8ee\J	8aa\J
.	.	16ff#\JJ	16aa\JJ	.	.	.	.	.	.	.	.	.	.	.	.	.
=12	=12	=12	=12	=12	=12	=12	=12	=12	=12	=12	=12	=12	=12	=12	=12	=12
.	.	.	.	.	.	.	.	.	.	.	8qqa/	.	.	.	8qqcc#/	8qqee/
!LO:TX:t=P:problem=mixed beam	!	!	!	!	!	!	!	!	!	!	!	!	!	!	!	!
8E\L	7 #	16b/LL	16dd\LL	.	2E\	tu-	2B\	tu-	2d\	tu-	2g#X/	tu-	4.ee\	4.gg#X\	2bT/	2ddT\
.	.	16a/	16cc#\	.	.	.	.	.	.	.	.	.	.	.	.	.
8E\	.	16g#X/	16b\	.	.	.	.	.	.	.	.	.	.	.	.	.
.	.	16f#/JJ	16a\JJ	.	.	.	.	.	.	.	.	.	.	.	.	.
!	!	!LO:TX:t=P:problem=mixed beam	!LO:TX:t=P:problem=mixed beam	!	!	!	!	!	!	!	!	!	!	!	!	!
8EE/	.	16e/LL	16g#X/LL	.	.	.	.	.	.	.	.	.	.	.	.	.
.	.	16dd\	16ff#\	.	.	.	.	.	.	.	.	.	.	.	.	.
8EE/J	.	16cc#\	16ee\	.	.	.	.	.	.	.	.	.	8ee\	8gg#\	.	.
.	.	16b\JJ	16dd\JJ	.	.	.	.	.	.	.	.	.	.	.	.	.
=13	=13	=13	=13	=13	=13	=13	=13	=13	=13	=13	=13	=13	=13	=13	=13	=13
*	*	*	*Xtuplet	*	*	*	*	*	*	*	*	*	*	*	*	*
!LO:TX:t=P:problem=mixed beam	!	!	!	!	!	!	!	!	!	!	!	!	!	!	!	!
8AA/L	.	8a/L	24cc#\LL	.	4AA/	-am,	4A/	-am	4c#/	-am	4a\	-am	4ee\	4aa\	4a/	4cc#\
.	.	.	24ee\	.	.	.	.	.	.	.	.	.	.	.	.	.
.	.	.	24cc#\JJ	.	.	.	.	.	.	.	.	.	.	.	.	.
16A\L	.	16e/L	24a/LL	.	.	.	.	.	.	.	.	.	.	.	.	.
.	.	.	24e/	.	.	.	.	.	.	.	.	.	.	.	.	.
16G\JJ	.	16c#/JJ	.	.	.	.	.	.	.	.	.	.	.	.	.	.
.	.	.	24c#/JJ	.	.	.	.	.	.	.	.	.	.	.	.	.
16F#\LL	6	4A/	8A/L	.	8r	.	4r	.	4r	.	8r	.	4r	4r	4r	8r
16E\	.	.	.	.	.	.	.	.	.	.	.	.	.	.	.	.
16F#\	.	.	8a/J	.	8F#\	et	.	.	.	.	8a\	et	.	.	.	8a/
16D\JJ	.	.	.	.	.	.	.	.	.	.	.	.	.	.	.	.
!LO:LB:g=original	!	!	!	!	!	!	!	!	!	!	!	!	!	!	!	!
=14	=14	=14	=14	=14	=14	=14	=14	=14	=14	=14	=14	=14	=14	=14	=14	=14
8G\L	.	8r	8b\L	.	(16G\LL	a-	4r	.	8r	.	4b\	a-	4.gg\	4.bb\	8r	4b/
.	.	.	.	.	16F#\J)	.	.	.	.	.	.	.	.	.	.	.
8G\	7	8d/	(32cc#\LL	.	8G\J	.	.	.	8d\	e[t]	.	.	.	.	8d/	.
.	.	.	32dd\	.	.	.	.	.	.	.	.	.	.	.	.	.
.	.	.	32ee\	.	.	.	.	.	.	.	.	.	.	.	.	.
.	.	.	32ff#\JJJ)	.	.	.	.	.	.	.	.	.	.	.	.	.
!	!	!	!	!	!	!	!	!	!	!	!	!	!	!	!LO:TX:t=P:problem=mixed beam	!
8C#\	.	8e/L	8gg\L	.	(16C#/LL	.	8r	.	4e\	a-	[4gg\	.	.	.	8e/L	[4gg\
.	.	.	.	.	16BB/J)	.	.	.	.	.	.	.	.	.	.	.
8C#\J	.	(32f#/LL	[8gg\J	.	8C#/J	.	8B\	et	.	.	.	.	8gg\	8bb\	8ee\J	.
.	.	32g/	.	.	.	.	.	.	.	.	.	.	.	.	.	.
.	.	32a/	.	.	.	.	.	.	.	.	.	.	.	.	.	.
.	.	32b/JJJ)	.	.	.	.	.	.	.	.	.	.	.	.	.	.
!	!	!	!LO:LB:g=original	!	!LO:LB:g=original	!	!	!	!	!	!	!	!	!	!	!
=15	=15	=15	=15	=15	=15	=15	=15	=15	=15	=15	=15	=15	=15	=15	=15	=15
!	!	!	!LO:TX:a:t=P:problem=brak zakończenia ligatury	!	!	!	!	!	!	!	!	!	!	!	!	!
8F#\L	9 7	8cc#\L	8gg\L]	.	(16F#\LL	.	2A/	a-	4.cc#\	.	8gg\L]	.	2ff#\	2aa\	4cc#\	4gg\]
.	.	.	.	.	16E\J)	.	.	.	.	.	.	.	.	.	.	.
8F#\	.	[8cc#\J	(64a\LLL	.	8F#\J	.	.	.	.	.	8ee\J	.	.	.	.	.
.	.	.	64b\J	.	.	.	.	.	.	.	.	.	.	.	.	.
.	.	.	32cc#\	.	.	.	.	.	.	.	.	.	.	.	.	.
.	.	.	32dd\	.	.	.	.	.	.	.	.	.	.	.	.	.
.	.	.	32ee\JJJ)	.	.	.	.	.	.	.	.	.	.	.	.	.
8BB\	9 7	8cc#/L]	8ff#\L	.	(16BB/LL	.	.	.	.	.	[4ff#\	.	.	.	4dd\	[4ff#\
.	.	.	.	.	16AA/J)	.	.	.	.	.	.	.	.	.	.	.
8BB\J	.	(64d/LLL	[8ff#\J	.	8BB/J	.	.	.	8a\	.	.	.	.	.	.	.
.	.	64e/J	.	.	.	.	.	.	.	.	.	.	.	.	.	.
.	.	32f#/	.	.	.	.	.	.	.	.	.	.	.	.	.	.
.	.	32g/	.	.	.	.	.	.	.	.	.	.	.	.	.	.
.	.	32a/JJJ)	.	.	.	.	.	.	.	.	.	.	.	.	.	.
!	!	!	!	!	!	!	!LO:LB:g=original	!	!LO:LB:g=original	!	!	!	!	!	!	!
=16	=16	=16	=16	=16	=16	=16	=16	=16	=16	=16	=16	=16	=16	=16	=16	=16
!LO:TX:t=P:problem=mixed beam	!	!	!	!	!	!	!	!	!	!	!	!	!	!	!	!
8E\L	9 7	8b/L	8ff#\L]	.	(16E\LL	.	4.G/	.	4.b\	.	8ff#\L]	.	4.ee\	4.gg\	4b\	4ff#\]
.	.	.	.	.	16D\J)	.	.	.	.	.	.	.	.	.	.	.
8E\	.	[8b/J	(64g\LLL	.	8E\J	.	.	.	.	.	8dd\J	.	.	.	.	.
.	.	.	64a\J	.	.	.	.	.	.	.	.	.	.	.	.	.
.	.	.	32b\	.	.	.	.	.	.	.	.	.	.	.	.	.
.	.	.	32cc#\	.	.	.	.	.	.	.	.	.	.	.	.	.
.	.	.	32dd\JJJ)	.	.	.	.	.	.	.	.	.	.	.	.	.
8AA/	9 7	8b/L]	8ee\L	.	4AA/	-ver-	.	.	.	.	4ee\	-ver-	.	.	4cc#\	[4ee\
8AA/J	.	(64c#/LLL	[8ee\J	.	.	.	8G/	-ver-	8g\	-ver-	.	.	8ee\	8gg\	.	.
.	.	64d/J	.	.	.	.	.	.	.	.	.	.	.	.	.	.
.	.	32e/	.	.	.	.	.	.	.	.	.	.	.	.	.	.
.	.	32f#/	.	.	.	.	.	.	.	.	.	.	.	.	.	.
.	.	32g/JJJ)	.	.	.	.	.	.	.	.	.	.	.	.	.	.
!	!	!	!	!	!	!	!	!	!	!	!LO:LB:g=original	!	!	!	!	!
=17	=17	=17	=17	=17	=17	=17	=17	=17	=17	=17	=17	=17	=17	=17	=17	=17
8D\L	3 9	8a/L	8ee\L]	.	4D\	-tis-	4.F#/	-tis-	4.a\	-tis-	(8ee\L	-tis-	2dd\	2ff#\	2a/	4ee\]
8D\	.	[8a/J	(64f#\LLL	.	.	.	.	.	.	.	8cc#\J)	.	.	.	.	.
.	.	.	64g\J	.	.	.	.	.	.	.	.	.	.	.	.	.
.	.	.	32a\	.	.	.	.	.	.	.	.	.	.	.	.	.
.	.	.	32b\	.	.	.	.	.	.	.	.	.	.	.	.	.
.	.	.	32cc#\JJJ)	.	.	.	.	.	.	.	.	.	.	.	.	.
8F#\	6	8a/L]	8dd\L	.	4F#\	-ti	.	.	.	.	4dd\	-ti	.	.	.	4dd\
8F#\J	.	(64d/LLL	8dd\J	.	.	.	8A/	-ti	8f#\	-ti	.	.	.	.	.	.
.	.	64e/J	.	.	.	.	.	.	.	.	.	.	.	.	.	.
.	.	32f#/	.	.	.	.	.	.	.	.	.	.	.	.	.	.
.	.	32g/	.	.	.	.	.	.	.	.	.	.	.	.	.	.
.	.	32a/JJJ)	.	.	.	.	.	.	.	.	.	.	.	.	.	.
!	!	!LO:LB:g=original	!	!	!	!	!	!	!	!	!	!	!	!	!	!
=18	=18	=18	=18	=18	=18	=18	=18	=18	=18	=18	=18	=18	=18	=18	=18	=18
*	*	*	*	*	*	*	*	*	*	*	*	*	*	*^	*	*
8G#X\L	6 5	16b/LL	16dd/LL	.	(8G#X\L	cap-	(8B\L	cap-	4e\	cap-	(8dd\L	cap-	4ee\	4ee/	4ee\	8b\L	4ee\
.	.	16e/	16e/	.	.	.	.	.	.	.	.	.	.	.	.	.	.
8A\	5	16a/	16cc#/	.	8A\J)	.	8A\J)	.	.	.	8cc#\J)	.	.	.	.	8cc#\	.
.	.	16e/JJ	16e/JJ	.	.	.	.	.	.	.	.	.	.	.	.	.	.
8B\	6\	16g#X/LL	16b/LL	.	8B\	-ti-	8G#X/	-ti-	8e\	-ti-	8b\	-ti-	4r	4r	4rdyy	8dd\	4ee\
.	.	16e/	16e/	.	.	.	.	.	.	.	.	.	.	.	.	.	.
8A\J	5	16a/	16cc#/	.	8A\	-vi-	8A/	-vi-	8e\	-vi-	8cc#\	-vi-	.	.	.	8cc#\J	.
.	.	16e/JJ	16e/JJ	.	.	.	.	.	.	.	.	.	.	.	.	.	.
*	*	*	*	*	*	*	*	*	*	*	*	*	*	*v	*v	*	*
=19	=19	=19	=19	=19	=19	=19	=19	=19	=19	=19	=19	=19	=19	=19	=19	=19
8G#X\L	6 5	16b/LL	16dd/LL	.	(8G#X\L	-ta-	(8B\L	-ta-	4.e\	-ta-	(8dd\L	-ta-	4ee\	4ee\	8b\L	2eeT\
.	.	16e/	16e/	.	.	.	.	.	.	.	.	.	.	.	.	.
8A\	5	16a/	16cc#/	.	8A\J)	.	8A\J)	.	.	.	8cc#\J)	.	.	.	8cc#\	.
.	.	16e/JJ	16e/JJ	.	.	.	.	.	.	.	.	.	.	.	.	.
8B\	6\	16g#X/LL	16b/LL	.	8B\	.	8G#X/	.	.	.	(8b\L	-tem	4r	4r	8dd\	.
.	.	16e/	16e/	.	.	.	.	.	.	.	.	.	.	.	.	.
8A\J	5	16a/	16cc#/	.	8A\	-tem	8A/	-tem	8e\	-tem	8cc#\J)	.	.	.	8cc#\J	.
.	.	16e/JJ	16e/JJ	.	.	.	.	.	.	.	.	.	.	.	.	.
!	!	!	!LO:LB:g=original	!	!	!	!	!	!	!	!	!	!	!	!	!
=20	=20	=20	=20	=20	=20	=20	=20	=20	=20	=20	=20	=20	=20	=20	=20	=20
4D\	.	4a/	4ff# 4a 4d|>/	.	(4D/	Ja-	(4A/	Ja-	(4f#\	Ja-	(4dd\	Ja-	4ff#\	4aa\	4a/	4ff#\
4E\	7 #	4g#Xt/	4b 4eT/	.	4E\)	.	4E/)	.	4g#X\)	.	4bT\)	.	4ee\	4gg#X\	4g#Xt/	4bT/
=21	=21	=21	=21	=21	=21	=21	=21	=21	=21	=21	=21	=21	=21	=21	=21	=21
!	!	!	!	!	!	!	!	!	!	!	!	!	!LO:TX:t=P:problem=mixed beam	!LO:TX:t=P:problem=mixed beam	!	!
4AA/	.	16a\LL	16cc#\LL	.	4AA/	-cob,	4E/	-cob	4a\	-cob	4a\	-cob	8aa\L	8aa\L	4a/	4cc#\
.	.	16b\	16dd\	.	.	.	.	.	.	.	.	.	.	.	.	.
.	.	16cc#\	16ee\	.	.	.	.	.	.	.	.	.	16a/L	16a/L	.	.
.	.	16dd\JJ	16ff#\JJ	.	.	.	.	.	.	.	.	.	16a/JJ	16a/JJ	.	.
4r	.	16ee\LL	16gg#X\LL	.	4r	.	4r	.	4r	.	4r	.	8a/L	8a/L	4r	4r
.	.	16ff#\	16aa\	.	.	.	.	.	.	.	.	.	.	.	.	.
.	.	16gg#X\	16bb\	.	.	.	.	.	.	.	.	.	8a/J	8a/J	.	.
.	.	16aa\JJ	16ccc#\JJ	.	.	.	.	.	.	.	.	.	.	.	.	.
!	!	!	!	!	!	!	!	!	!	!	!	!	!LO:LB:g=original	!	!	!
=22	=22	=22	=22	=22	=22	=22	=22	=22	=22	=22	=22	=22	=22	=22	=22	=22
8G#X\L	6 5	16b/LL	16dd/LL	.	(8G#X\L	a-	(8d\L	a-	4e\	a-	(8b\L	a-	8ee\L	8ee\L	8b/L	8dd\L
.	.	16e/	16e/	.	.	.	.	.	.	.	.	.	.	.	.	.
8A\	5	16a/	16cc#/	.	8A\J)	.	8c#\J)	.	.	.	8a\J)	.	16ee\L	16ee\L	8a/	8cc#\
.	.	16e/JJ	16e/JJ	.	.	.	.	.	.	.	.	.	16ee\JJ	16ee\JJ	.	.
8B\	6\	16g#X/LL	16b/LL	.	(8B\L	-ver-	(8B\L	-ver-	4e\	-ver-	(8g#X\L	-ver-	8ee\L	8ee\L	8g#X/	8b\
.	.	16e/	16e/	.	.	.	.	.	.	.	.	.	.	.	.	.
8A\J	5	16a/	16cc#/	.	8A\J)	.	8c#\J)	.	.	.	8a\J)	.	8ee\J	8ee\J	8a/J	8cc#\J
.	.	16e/JJ	16e/JJ	.	.	.	.	.	.	.	.	.	.	.	.	.
*	*	*	*	*	*custos:G#	*	*	*	*	*	*	*	*	*	*	*
!	!	!	!	!	!LO:LB:g=original	!	!	!	!	!	!	!	!	!	!	!
=23	=23	=23	=23	=23	=23	=23	=23	=23	=23	=23	=23	=23	=23	=23	=23	=23
8G#X\L	6 5	16b/LL	16dd/LL	.	(8G#X\L	-tis-	(8d\L	-tis-	4e\	-tis-	(8b\L	-tis-	2ee\	2eeT\	8b/L	8dd\L
.	.	16e/	16e/	.	.	.	.	.	.	.	.	.	.	.	.	.
8A\	5	16a/	16cc#/	.	8A\J)	.	8c#\J)	.	.	.	8a\J)	.	.	.	8a/	8cc#\
.	.	16e/JJ	16e/JJ	.	.	.	.	.	.	.	.	.	.	.	.	.
8B\	6\	16g#X/LL	16b/LL	.	(8B\L	-ti	(8B\L	-ti	4e\	-ti	(8g#X\L	-ti	.	.	8g#X/	8b\
.	.	16e/	16e/	.	.	.	.	.	.	.	.	.	.	.	.	.
8A\J	5	16a/	16cc#/	.	8A\J)	.	8c#\J)	.	.	.	8a\J)	.	.	.	8a/J	8cc#\J
.	.	16e/JJ	16e/JJ	.	.	.	.	.	.	.	.	.	.	.	.	.
*	*	*	*	*	*	*	*	*	*	*	*custos:ff	*	*	*	*	*
!	!	!LO:LB:g=original	!	!	!	!	!LO:LB:g=original	!	!	!	!LO:LB:g=original	!	!	!LO:LB:g=original	!LO:LB:g=original	!LO:LB:g=original
=24	=24	=24	=24	=24	=24	=24	=24	=24	=24	=24	=24	=24	=24	=24	=24	=24
8D\L	.	8f#/L	16ff#\LL	.	(8D\L	cap-	4d\	cap-	4a\	cap-	4ff#\	cap-	4ff#\	4ff#\	4.ff#\	4.ddd\
.	.	.	16dd\	.	.	.	.	.	.	.	.	.	.	.	.	.
8E\	.	8g#X/	16gg#X\	.	8E\J)	.	.	.	.	.	.	.	.	.	.	.
.	.	.	16dd\JJ	.	.	.	.	.	.	.	.	.	.	.	.	.
8F#\	6	8a/	16aa\LL	.	8F#\	-ti-	8d\	-ti-	8a\	-ti-	8ff#\	-ti-	8r	8r	.	.
.	.	.	16dd\	.	.	.	.	.	.	.	.	.	.	.	.	.
8G#X\J	.	8b/J	16bb\	.	8G#X\	-vi-	8d\	-vi-	8b\	-vi-	8ff#\	-vi-	8ff#\	8ff#\	8ff#\	8ddd\
.	.	.	16dd\JJ	.	.	.	.	.	.	.	.	.	.	.	.	.
!LO:LB:g=original	!	!	!LO:LB:g=original	!	!	!	!	!	!LO:LB:g=original	!	!	!	!	!	!	!
=25	=25	=25	=25	=25	=25	=25	=25	=25	=25	=25	=25	=25	=25	=25	=25	=25
8AA/L	.	8cc#\L	16cc#\LL	.	4.A\	-ta-	4.c#\	-ta-	4e\	-ta-	4.ee\	-ta-	4a/	4ee\	4.ee\	4.ccc#\
.	.	.	16a\	.	.	.	.	.	.	.	.	.	.	.	.	.
8BB/	.	8dd\	16dd\	.	.	.	.	.	.	.	.	.	.	.	.	.
.	.	.	16a\JJ	.	.	.	.	.	.	.	.	.	.	.	.	.
8C#/	6	8ee\	16ee\LL	.	.	.	.	.	4a\	-tem	.	.	8r	[4aa\	.	.
.	.	.	16a\	.	.	.	.	.	.	.	.	.	.	.	.	.
8D/J	.	8ff#\J	16ff#\	.	8D/	-tem	8B\	-tem	.	.	8dd\	-tem	8ff#\	.	8dd\	8bb\
.	.	.	16a\JJ	.	.	.	.	.	.	.	.	.	.	.	.	.
=26	=26	=26	=26	=26	=26	=26	=26	=26	=26	=26	=26	=26	=26	=26	=26	=26
!LO:TX:t=P:problem=mixed beam	!	!	!	!	!	!	!	!	!	!	!	!	!	!	!	!
8E\L	6 4	4a/	8.cc#\L	.	2E\	Ja-	(4A/	Ja-	2e\	Ja-	(4cc#\	Ja-	4ee\	4aa\]	4cc#\	4aa\
8D\	.	.	.	.	.	.	.	.	.	.	.	.	.	.	.	.
.	.	.	16b\Jk	.	.	.	.	.	.	.	.	.	.	.	.	.
8E\	7 #	4g#Xt/	4bT\	.	.	.	4G#Xt/)	.	.	.	4bT\)	.	4ee\	4gg#X\	4bT\	4gg#Xt\
8EE/J	.	.	.	.	.	.	.	.	.	.	.	.	.	.	.	.
=27	=27	=27	=27	=27	=27	=27	=27	=27	=27	=27	=27	=27	=27	=27	=27	=27
!	!	!	!	!	!	!	!	!	!	!	!	!	!	!	!	!LO:TX:t=P:problem=mixed beam
4AA/	.	4a/	4a/	.	4AA/	-cob.	4A/	-cob	4e\	-cob,	4a\	-cob	4ee\	4aa\	8cc#\L	8aa\L
.	.	.	.	.	.	.	.	.	.	.	.	.	.	.	(32a\LL	(32a/LL
.	.	.	.	.	.	.	.	.	.	.	.	.	.	.	32g#X\	32b/
.	.	.	.	.	.	.	.	.	.	.	.	.	.	.	32a\	32cc#/
.	.	.	.	.	.	.	.	.	.	.	.	.	.	.	32b\JJJ)	32dd/JJJ)
4r	.	4r	4r	.	4r	.	4r	.	4r	.	4r	.	4r	4r	8cc#\L	8ee\L
.	.	.	.	.	.	.	.	.	.	.	.	.	.	.	8cc#\J	8ee\J
=28	=28	=28	=28	=28	=28	=28	=28	=28	=28	=28	=28	=28	=28	=28	=28	=28
!	!	!LO:TX:a:t=7.	!LO:TX:a:t=7.	!	!LO:TX:a:t=7.	!	!LO:TX:a:t=7.	!	!LO:TX:a:t=7	!	!LO:TX:a:t=7.	!	!	!	!	!
2r	.	0r	0r	.	0r	.	0r	.	0r	.	0r	.	8r	8r	[2cc#t\	[2eeT\
.	.	.	.	.	.	.	.	.	.	.	.	.	16a/LL	16a/LL	.	.
.	.	.	.	.	.	.	.	.	.	.	.	.	16a/JJ	16a/JJ	.	.
.	.	.	.	.	.	.	.	.	.	.	.	.	8a/L	8a/L	.	.
.	.	.	.	.	.	.	.	.	.	.	.	.	8a/J	8a/J	.	.
=29	=29	=29	=29	=29	=29	=29	=29	=29	=29	=29	=29	=29	=29	=29	=29	=29
4AA/	.	.	.	.	.	.	.	.	.	.	.	.	2r	2r	8cc#\L]	8ee\L]
.	.	.	.	.	.	.	.	.	.	.	.	.	.	.	32a\LL	(32cc#\LL
.	.	.	.	.	.	.	.	.	.	.	.	.	.	.	32b\	32dd\
.	.	.	.	.	.	.	.	.	.	.	.	.	.	.	32cc#\	32ee\
.	.	.	.	.	.	.	.	.	.	.	.	.	.	.	32dd\JJJ	32ff#\JJJ)
4r	.	.	.	.	.	.	.	.	.	.	.	.	.	.	8ee\L	8gg\L
.	.	.	.	.	.	.	.	.	.	.	.	.	.	.	8ee\J	8gg\J
=30	=30	=30	=30	=30	=30	=30	=30	=30	=30	=30	=30	=30	=30	=30	=30	=30
!LO:TX:a:t=2.	!	!	!	!	!	!	!	!	!	!	!	!	!	!	!	!
1r	.	.	.	.	.	.	.	.	.	.	.	.	8r	8r	2eeT\	2ggT\
.	.	.	.	.	.	.	.	.	.	.	.	.	16a/LL	16a/LL	.	.
.	.	.	.	.	.	.	.	.	.	.	.	.	16a/JJ	16a/JJ	.	.
.	.	.	.	.	.	.	.	.	.	.	.	.	8a/L	8a/L	.	.
.	.	.	.	.	.	.	.	.	.	.	.	.	8a/J	8a/J	.	.
=31	=31	=31	=31	=31	=31	=31	=31	=31	=31	=31	=31	=31	=31	=31	=31	=31
.	.	.	.	.	.	.	.	.	.	.	.	.	8d\L	8dd\L	4dd\	4ff#\
.	.	.	.	.	.	.	.	.	.	.	.	.	16dd\L	16ff#\L	.	.
.	.	.	.	.	.	.	.	.	.	.	.	.	16ee\JJ	16gg\JJ	.	.
.	.	.	.	.	.	.	.	.	.	.	.	.	8ff#\L	8aa\L	4r	4r
.	.	.	.	.	.	.	.	.	.	.	.	.	8ff#\J	8aa\J	.	.
=32	=32	=32	=32	=32	=32	=32	=32	=32	=32	=32	=32	=32	=32	=32	=32	=32
8r	.	1r	1r	.	1r	.	1r	.	1r	.	1r	.	[2ff#\	[2aa\	1r	1r
!LO:TX:b:i:t=Solo.	!	!	!	!	!	!	!	!	!	!	!	!	!	!	!	!
8d|\L	.	.	.	.	.	.	.	.	.	.	.	.	.	.	.	.
8A|\	.	.	.	.	.	.	.	.	.	.	.	.	.	.	.	.
8F#|\J	.	.	.	.	.	.	.	.	.	.	.	.	.	.	.	.
=33	=33	=33	=33	=33	=33	=33	=33	=33	=33	=33	=33	=33	=33	=33	=33	=33
4D/	.	.	.	.	.	.	.	.	.	.	.	.	8ff#\L]	8aa\L]	.	.
.	.	.	.	.	.	.	.	.	.	.	.	.	16ff#\L	16aa\L	.	.
.	.	.	.	.	.	.	.	.	.	.	.	.	16gg\JJ	16bb\JJ	.	.
!	!	!	!	!	!	!	!	!	!	!	!	!	!LO:LB:g=original	!	!	!
4r	.	.	.	.	.	.	.	.	.	.	.	.	8aa\L	8cccX\L	.	.
.	.	.	.	.	.	.	.	.	.	.	.	.	8aa\J	8ccc\J	.	.
=34	=34	=34	=34	=34	=34	=34	=34	=34	=34	=34	=34	=34	=34	=34	=34	=34
!	!	!	!	!	!	!	!	!	!	!	!	!	!	!LO:SIC:v:s=2cccn\	!	!
8r	.	2r	2r	.	2r	.	2r	.	2r	.	2r	.	2aa\	2ccc#\	2r	2r
8d|\L	.	.	.	.	.	.	.	.	.	.	.	.	.	.	.	.
8A|\	.	.	.	.	.	.	.	.	.	.	.	.	.	.	.	.
8F#|\J	.	.	.	.	.	.	.	.	.	.	.	.	.	.	.	.
=35	=35	=35	=35	=35	=35	=35	=35	=35	=35	=35	=35	=35	=35	=35	=35	=35
!LO:TX:a:i:t=Tutti	!	!	!	!	!	!	!	!	!	!	!	!	!	!	!	!
!LO:TX:t=P:problem=mixed beam	!	!	!	!	!	!	!	!	!	!	!	!	!	!	!	!
16G\LL	.	8b 8d 8G/	8gg 8b 8d 8G/	.	4G\	Be-	4B\	Be-	4g\	Be-	4dd\	Be-	8gg\L	8bb\L	(32b/LLL	(32gg\LLL
.	.	.	.	.	.	.	.	.	.	.	.	.	.	.	32ccn/JJ)	32aa\JJ)
16F#\	.	.	.	.	.	.	.	.	.	.	.	.	.	.	8.b/J	8.gg\J
16G\	.	(32b/LLL	(32dd\LLL	.	.	.	.	.	.	.	.	.	16dd\L	16dd\L	.	.
.	.	32a/	32ccn\	.	.	.	.	.	.	.	.	.	.	.	.	.
16GG/JJ	.	32g/	32b\	.	.	.	.	.	.	.	.	.	16dd\JJ	16dd\JJ	.	.
.	.	32f#/JJJ)	32a\JJJ)	.	.	.	.	.	.	.	.	.	.	.	.	.
*	*	*	*	*	*	*	*	*	*	*	*	*	*	*custos:cc	*	*
!LO:TX:t=P:problem=mixed beam	!	!	!	!	!	!	!	!	!	!	!	!	!	!LO:LB:g=original	!	!
16G\LL	.	8b 8d 8G/	8gg 8b 8d 8G/	.	8G\	-ne-	8B\	-ne-	8g\	-ne-	8dd\	-ne-	8dd\L	8dd\L	(32b/LLL	(32gg\LLL
.	.	.	.	.	.	.	.	.	.	.	.	.	.	.	32cc/JJ)	32aa\JJ)
16F#\	.	.	.	.	.	.	.	.	.	.	.	.	.	.	8.b/J	8.gg\J
16G\	.	(32dd\LLL	(32b/LLL	.	8G\	-di-	8B\	-di-	8g\	-di-	8dd\	-di-	8dd\J	8dd\J	.	.
.	.	32ccn\	32a/	.	.	.	.	.	.	.	.	.	.	.	.	.
16GG/JJ	.	32b\	32g/	.	.	.	.	.	.	.	.	.	.	.	.	.
.	.	32a\JJJ)	32f#/JJJ)	.	.	.	.	.	.	.	.	.	.	.	.	.
=36	=36	=36	=36	=36	=36	=36	=36	=36	=36	=36	=36	=36	=36	=36	=36	=36
!LO:TX:t=P:problem=mixed beam	!	!	!	!	!	!	!	!	!	!	!	!	!LO:TX:t=P:problem=mixed beam	!LO:TX:t=P:problem=mixed beam	!	!
16G\LL	.	8b 8d 8G/	8gg 8b 8d 8G/	.	4G\	-xi-	4B\	-xi-	4g\	-xi-	4dd\	-xi-	8dd\L	8dd\L	2bT/	2ggT\
16F#\	.	.	.	.	.	.	.	.	.	.	.	.	.	.	.	.
16G\	.	(32b/LLL	(32dd\LLL	.	.	.	.	.	.	.	.	.	16d/L	16d/L	.	.
.	.	32a/	32ccn\	.	.	.	.	.	.	.	.	.	.	.	.	.
16GG/JJ	.	32g/	32b\	.	.	.	.	.	.	.	.	.	16d/JJ	16d/JJ	.	.
.	.	32f#/JJJ)	32a\JJJ)	.	.	.	.	.	.	.	.	.	.	.	.	.
!LO:TX:t=P:problem=mixed beam	!	!	!LO:LB:g=original	!	!	!	!	!	!	!	!	!	!	!	!	!
16G\LL	.	8b 8d 8G/	8gg 8b 8d 8G/	.	4G\	-sti	4B\	-sti	4g\	-sti	4dd\	-sti	8d/L	8d/L	.	.
16F#\	.	.	.	.	.	.	.	.	.	.	.	.	.	.	.	.
16G\	.	(32dd\LLL	(32b/LLL	.	.	.	.	.	.	.	.	.	8d/J	8d/J	.	.
.	.	32ccn\	32a/	.	.	.	.	.	.	.	.	.	.	.	.	.
16GG/JJ	.	32b\	32g/	.	.	.	.	.	.	.	.	.	.	.	.	.
.	.	32a\JJJ)	32f#/JJJ)	.	.	.	.	.	.	.	.	.	.	.	.	.
!LO:LB:g=original	!	!	!	!	!	!	!	!	!	!	!	!	!	!	!LO:LB:g=original	!
=37	=37	=37	=37	=37	=37	=37	=37	=37	=37	=37	=37	=37	=37	=37	=37	=37
!LO:TX:t=P:problem=mixed beam	!	!	!	!	!LO:TX:t=P:problem=mixed beam	!	!	!	!	!	!	!	!	!	!	!
8GG/L	.	16b 16d 16G/	16gg 16b 16d 16G/	.	(8GG/L	Do-	8.B\	Do-	8.g\	Do-	8.dd\	Do-	1r	1r	8r	8r
.	.	16b/LL	16dd\LL	.	.	.	.	.	.	.	.	.	.	.	.	.
8G\	.	16b/	16dd\	.	8G\J)	.	.	.	.	.	.	.	.	.	8b/	8dd\
.	.	16b/JJ	16dd\JJ	.	.	.	16B\	-mi-	16g\	-mi-	16dd\	-mi-	.	.	.	.
.	.	.	.	.	.	.	.	.	.	.	.	.	.	.	8qqb/	8qqdd/
8E\	n6	16ccn\LL	16ee\LL	.	16E\	.	4cn\	-ne	4g\	-ne	4ee\	-ne	.	.	4ccn\	4ee\
.	.	16cc\	16ee\	.	16E\	-mi-	.	.	.	.	.	.	.	.	.	.
8Cn\J	.	16ee\	16gg\	.	8Cn/	-ne	.	.	.	.	.	.	.	.	.	.
.	.	16ee\JJ	16gg\JJ	.	.	.	.	.	.	.	.	.	.	.	.	.
!	!	!LO:LB:g=original	!	!	!LO:LB:g=original	!	!LO:LB:g=original	!	!	!	!	!	!	!	!	!LO:LB:g=original
=38	=38	=38	=38	=38	=38	=38	=38	=38	=38	=38	=38	=38	=38	=38	=38	=38
!LO:TX:t=P:problem=mixed beam	!	!	!	!	!LO:TX:t=P:problem=mixed beam	!	!	!	!	!	!	!	!	!	!	!
8GG/L	.	16g/LL	16b\LL	.	(8GG/L	ter-	4B\	ter-	4g\	ter-	4dd\	ter-	.	.	8r	8r
.	.	16b/	16dd\	.	.	.	.	.	.	.	.	.	.	.	.	.
8G\	.	16b/	16dd\	.	8G\J)	.	.	.	.	.	.	.	.	.	8b/	8dd\
.	.	16b/JJ	16dd\JJ	.	.	.	.	.	.	.	.	.	.	.	.	.
.	.	.	.	.	.	.	.	.	.	.	.	.	.	.	8qqb/	8qqdd/
8E\	n6	16ccn\LL	16ee\LL	.	8E\	.	4cn\	-ram	4g\	-ram	4ee\	-ra	.	.	4ccn\	4ee\
.	.	16cc\	16ee\	.	.	.	.	.	.	.	.	.	.	.	.	.
8Cn\J	.	16ee\	16gg\	.	8Cn/	-ram	.	.	.	.	.	.	.	.	.	.
.	.	16ee\JJ	16gg\JJ	.	.	.	.	.	.	.	.	.	.	.	.	.
!	!	!	!	!	!	!	!	!	!	!	!LO:LB:g=original	!	!	!	!	!
=39	=39	=39	=39	=39	=39	=39	=39	=39	=39	=39	=39	=39	=39	=39	=39	=39
.	.	.	.	.	.	.	8qqB/	.	.	.	8qqdd/	.	.	.	8qqb/	8qqdd/
8D/L	n7r	16a/LL	16ccn\LL	.	2D/	tu-	2A/	tu-	2f#\	tu-	2ccn\	tu-	8r	8r	4.a/	4.ccn\
.	.	16g/	16b\	.	.	.	.	.	.	.	.	.	.	.	.	.
8D/	.	16f#/	16a\	.	.	.	.	.	.	.	.	.	16d/LL	16d/LL	.	.
.	.	16e/JJ	16g\JJ	.	.	.	.	.	.	.	.	.	16d/JJ	16d/JJ	.	.
!	!	!LO:TX:t=P:problem=mixed beam	!LO:TX:t=P:problem=mixed beam	!	!	!	!	!	!	!	!	!	!	!	!	!
8DD/	.	16d/LL	16f#/LL	.	.	.	.	.	.	.	.	.	8d/L	8d/L	.	.
.	.	16ccn\	16ee\	.	.	.	.	.	.	.	.	.	.	.	.	.
8DD/J	.	16b\	16dd\	.	.	.	.	.	.	.	.	.	8d/J	8d/J	8a/	8cc\
.	.	16a\JJ	16ccn\JJ	.	.	.	.	.	.	.	.	.	.	.	.	.
!	!	!	!	!	!	!	!	!	!LO:LB:g=original	!	!	!	!	!	!	!
=40	=40	=40	=40	=40	=40	=40	=40	=40	=40	=40	=40	=40	=40	=40	=40	=40
!LO:TX:t=P:problem=mixed beam	!	!	!	!	!	!	!	!	!	!	!	!	!	!	!	!
8GG/L	.	8g|/L	8b|/L	.	4GG/	-am,	4G/	-am,	4d\	-am,	4b\	-am	4d/	4d/	4g/	4b/
16G\L	.	8d|/J	8d|/J	.	.	.	.	.	.	.	.	.	.	.	.	.
16A\JJ	.	.	.	.	.	.	.	.	.	.	.	.	.	.	.	.
16B|\LL	.	4b 4d 4G/	4gg 4b 4d 4G/	.	4r	.	4r	.	4r	.	4r	.	4r	4r	4r	4r
16A|\	.	.	.	.	.	.	.	.	.	.	.	.	.	.	.	.
16G|\	.	.	.	.	.	.	.	.	.	.	.	.	.	.	.	.
16F#|\JJ	.	.	.	.	.	.	.	.	.	.	.	.	.	.	.	.
=41	=41	=41	=41	=41	=41	=41	=41	=41	=41	=41	=41	=41	=41	=41	=41	=41
!LO:TX:t=P:problem=mixed beam	!	!	!	!	!	!	!	!	!	!	!	!	!	!	!	!
16E\LL	.	8ee 8b 8e/	8gg 8b 8e/	.	4E\	&	4e\	et	4g\	&	4b\	et	1r	1r	(32g/LLL	(32b/LLL
.	.	.	.	.	.	.	.	.	.	.	.	.	.	.	32a/JJ)	32ccn/JJ)
16D#X\	.	.	.	.	.	.	.	.	.	.	.	.	.	.	8.g/J	8.b/J
16E\	.	(32gg\LLL	(32bb\LLL	.	.	.	.	.	.	.	.	.	.	.	.	.
.	.	32ff#\	32aa\	.	.	.	.	.	.	.	.	.	.	.	.	.
16EE/JJ	.	32ee\	32gg\	.	.	.	.	.	.	.	.	.	.	.	.	.
.	.	32dd#X\JJJ)	32ff#\JJJ)	.	.	.	.	.	.	.	.	.	.	.	.	.
!LO:TX:t=P:problem=mixed beam	!	!	!LO:LB:g=original	!	!	!	!	!	!	!	!	!	!	!	!	!
16E\LL	.	8ee 8b 8e/	8gg 8b 8e/	.	8E\	a-	8e\	a-	8g\	a-	8b\	a-	.	.	(32g/LLL	(32b/LLL
.	.	.	.	.	.	.	.	.	.	.	.	.	.	.	32a/JJ)	32ccn/JJ)
16D#X\	.	.	.	.	.	.	.	.	.	.	.	.	.	.	8.g/J	8.b/J
16E\	.	(32bb\LLL	(32gg\LLL	.	8E\	-ver-	8e\	-ver-	8g\	-ver-	8b\	-ver-	.	.	.	.
.	.	32aa\	32ff#\	.	.	.	.	.	.	.	.	.	.	.	.	.
16EE/JJ	.	32gg\	32ee\	.	.	.	.	.	.	.	.	.	.	.	.	.
.	.	32ff#\JJJ)	32dd#X\JJJ)	.	.	.	.	.	.	.	.	.	.	.	.	.
=42	=42	=42	=42	=42	=42	=42	=42	=42	=42	=42	=42	=42	=42	=42	=42	=42
!LO:TX:t=P:problem=mixed beam	!	!	!	!	!	!	!	!	!	!	!	!	!	!	!	!
16E\LL	.	8ee 8b 8e/	8gg 8b 8e/	.	4E\	-tis-	4e\	-tis-	4g\	-tis-	4b\	-tis-	.	.	2gT/	2bT/
16D#X\	.	.	.	.	.	.	.	.	.	.	.	.	.	.	.	.
16E\	.	(32gg\LLL	(32bb\LLL	.	.	.	.	.	.	.	.	.	.	.	.	.
.	.	32ff#\	32aa\	.	.	.	.	.	.	.	.	.	.	.	.	.
16EE/JJ	.	32ee\	32gg\	.	.	.	.	.	.	.	.	.	.	.	.	.
.	.	32dd#X\JJJ)	32ff#\JJJ)	.	.	.	.	.	.	.	.	.	.	.	.	.
!LO:TX:t=P:problem=mixed beam	!	!	!	!	!	!	!	!	!	!	!	!	!	!	!	!
16E\LL	.	8ee 8b 8e/	8gg 8b 8e/	.	4E\	-ti	4e\	-ti	4g\	-ti	4b\	-ti	.	.	.	.
16D#X\	.	.	.	.	.	.	.	.	.	.	.	.	.	.	.	.
16E\	.	(32bb\LLL	(32gg\LLL	.	.	.	.	.	.	.	.	.	.	.	.	.
.	.	32aa\	32ff#\	.	.	.	.	.	.	.	.	.	.	.	.	.
16EE/JJ	.	32gg\	32ee\	.	.	.	.	.	.	.	.	.	.	.	.	.
.	.	32ff#\JJJ)	32dd#X\JJJ)	.	.	.	.	.	.	.	.	.	.	.	.	.
=43	=43	=43	=43	=43	=43	=43	=43	=43	=43	=43	=43	=43	=43	=43	=43	=43
!LO:TX:t=P:problem=mixed beam	!	!	!	!	!	!	!	!	!	!	!	!	!	!	!	!
8EE/L	.	16ee 16b 16e/	16gg 16b 16e/	.	4E\	cap-	4e\	Cap-	4g\	cap-	4b\	cap-	8ee\L	8ee\L	8r	8r
.	.	16gg\LL	16bb\LL	.	.	.	.	.	.	.	.	.	.	.	.	.
8E\	.	16gg\	16bb\	.	.	.	.	.	.	.	.	.	16ee\L	16ee\L	8b/	8gg\
.	.	16gg\JJ	16bb\JJ	.	.	.	.	.	.	.	.	.	16ee\JJ	16ee\JJ	.	.
.	.	.	.	.	.	.	.	.	.	.	.	.	.	.	.	8qqgg/
8Cn\	6	16aa\LL	16cccn\LL	.	8Cn/	-ti-	8e\	-ti-	8a\	-ti-	8ccn\	-ti-	8ee\L	8ee\L	4ccn\	4aa\
.	.	16aa\	16ccc\	.	.	.	.	.	.	.	.	.	.	.	.	.
8AA\J	.	16aa\	16ccc\	.	8AA/	-vi-	8e\	-vi-	8a\	-vi-	8cc\	-vi-	8ee\J	8ee\J	.	.
.	.	16aa\JJ	16ccc\JJ	.	.	.	.	.	.	.	.	.	.	.	.	.
!LO:LB:g=original	!	!LO:LB:g=original	!	!	!	!	!	!	!	!	!	!	!	!	!	!
=44	=44	=44	=44	=44	=44	=44	=44	=44	=44	=44	=44	=44	=44	=44	=44	=44
!LO:TX:t=P:problem=mixed beam	!	!	!	!	!	!	!	!	!	!	!	!	!	!	!	!
8EE/L	.	16gg\LL	16bb\LL	.	4E\	-ta-	4e\	-ta-	4g\	-ta-	4b\	-ta-	8ee\L	8ee\L	8r	8r
.	.	16gg\	16bb\	.	.	.	.	.	.	.	.	.	.	.	.	.
8E\	.	16gg\	16bb\	.	.	.	.	.	.	.	.	.	16ee\L	16ee\L	8b/	8gg\
.	.	16gg\JJ	16bb\JJ	.	.	.	.	.	.	.	.	.	16ee\JJ	16ee\JJ	.	.
.	.	.	.	.	.	.	.	.	.	.	.	.	.	.	8qqb/	8qqgg/
8Cn\	6	16aa\LL	16cccn\LL	.	8Cn/	.	4e\	-tem	4a\	-tem	4ccn\	-tem	8ee\L	8ee\L	4ccn\	4aa\
.	.	16aa\	16ccc\	.	.	.	.	.	.	.	.	.	.	.	.	.
8AA\J	.	16aa\	16ccc\	.	8AA/	-tem	.	.	.	.	.	.	8ee\J	8ee\J	.	.
.	.	16aa\JJ	16ccc\JJ	.	.	.	.	.	.	.	.	.	.	.	.	.
=45	=45	=45	=45	=45	=45	=45	=45	=45	=45	=45	=45	=45	=45	=45	=45	=45
.	.	.	.	.	.	.	.	.	8qqg/	.	8qqb/	.	.	.	.	.
8BB/L	7 #	16ff#\LL	16aa\LL	.	2BB/	Ja-	2d#X\	Ja-	2f#\	Ja-	2a\	Ja-	0r	0r	2a/	2ff#\
.	.	16ee\	16gg\	.	.	.	.	.	.	.	.	.	.	.	.	.
8BB/	.	16dd#X\	16ff#\	.	.	.	.	.	.	.	.	.	.	.	.	.
.	.	16cc#\JJ	16ee\JJ	.	.	.	.	.	.	.	.	.	.	.	.	.
8BB/	.	16b\LL	16dd#X\LL	.	.	.	.	.	.	.	.	.	.	.	.	.
.	.	16aa\	16cccn\	.	.	.	.	.	.	.	.	.	.	.	.	.
8BB/J	.	16gg\	16bb\	.	.	.	.	.	.	.	.	.	.	.	.	.
.	.	16ff#\JJ	16aa\JJ	.	.	.	.	.	.	.	.	.	.	.	.	.
!	!	!	!LO:LB:g=original	!	!	!	!	!	!	!	!	!	!	!	!	!
=46	=46	=46	=46	=46	=46	=46	=46	=46	=46	=46	=46	=46	=46	=46	=46	=46
4E\	.	4ee\	16gg\LL	.	4E\	-cob.	4B\	-cob	4e\	-cob	4g/	-cob	.	.	4g/	4ee\
.	.	.	16aa\	.	.	.	.	.	.	.	.	.	.	.	.	.
.	.	.	16bb\	.	.	.	.	.	.	.	.	.	.	.	.	.
.	.	.	16aa\JJ	.	.	.	.	.	.	.	.	.	.	.	.	.
4r	.	4r	16gg\LL	.	4r	.	4r	.	4r	.	4r	.	.	.	4r	4r
.	.	.	16ff#\	.	.	.	.	.	.	.	.	.	.	.	.	.
.	.	.	16ee\	.	.	.	.	.	.	.	.	.	.	.	.	.
.	.	.	16dd\JJ	.	.	.	.	.	.	.	.	.	.	.	.	.
!	!	!	!	!	!LO:LB:g=original	!	!LO:LB:g=original	!	!	!	!	!	!	!	!	!
=47	=47	=47	=47	=47	=47	=47	=47	=47	=47	=47	=47	=47	=47	=47	=47	=47
!	!	!	!	!	!	!	!	!	!	!	!LO:TX:a:t=2	!	!	!	!	!
4E\	.	16gg\LL	16ee\LL	.	1r	.	1r	.	1r	.	1r	.	.	.	1r	1r
.	.	16aa\	16ff#\	.	.	.	.	.	.	.	.	.	.	.	.	.
.	.	16bb\	16gg\	.	.	.	.	.	.	.	.	.	.	.	.	.
.	.	16aa\JJ	16ff#\JJ	.	.	.	.	.	.	.	.	.	.	.	.	.
4r	.	16gg\LL	16ee\LL	.	.	.	.	.	.	.	.	.	.	.	.	.
.	.	16ff#\	16dd\	.	.	.	.	.	.	.	.	.	.	.	.	.
.	.	16ee\	16cc#X\	.	.	.	.	.	.	.	.	.	.	.	.	.
.	.	16dd\JJ	16b\JJ	.	.	.	.	.	.	.	.	.	.	.	.	.
=48	=48	=48	=48	=48	=48	=48	=48	=48	=48	=48	=48	=48	=48	=48	=48	=48
4E\	6\	16ee\LL	16cc#\LL	.	.	.	.	.	.	.	.	.	.	.	.	.
.	.	16ff#\	16dd\	.	.	.	.	.	.	.	.	.	.	.	.	.
.	.	16gg\	16ee\	.	.	.	.	.	.	.	.	.	.	.	.	.
.	.	16ff#\JJ	16dd\JJ	.	.	.	.	.	.	.	.	.	.	.	.	.
4r	.	16ee\LL	16cc#\LL	.	.	.	.	.	.	.	.	.	.	.	.	.
.	.	16dd\	16b\	.	.	.	.	.	.	.	.	.	.	.	.	.
.	.	16cc#\	16a#X\	.	.	.	.	.	.	.	.	.	.	.	.	.
.	.	16b\JJ	16g#X\JJ	.	.	.	.	.	.	.	.	.	.	.	.	.
=49	=49	=49	=49	=49	=49	=49	=49	=49	=49	=49	=49	=49	=49	=49	=49	=49
4F#\	#	4a#X/	8f#\L	.	4r	.	2r	.	4r	.	4r	.	8f#/L	8f#/L	2r	4r
.	.	.	8cc#\J	.	.	.	.	.	.	.	.	.	16f#/L	16f#/L	.	.
.	.	.	.	.	.	.	.	.	.	.	.	.	16f#/JJ	16f#/JJ	.	.
8r	.	4r	[4ff#\	.	4F#\	a-	.	.	4a#X\	a-	[4ff#\	a-	4f#/	4f#/	.	[4ff#\
8F#\	#	.	.	.	.	.	.	.	.	.	.	.	.	.	.	.
!	!	!	!	!	!	!	!	!	!LO:LB:g=original	!	!LO:LB:g=original	!	!LO:LB:g=original	!	!	!
=50	=50	=50	=50	=50	=50	=50	=50	=50	=50	=50	=50	=50	=50	=50	=50	=50
!LO:TX:t=P:problem=mixed beam	!	!	!	!	!	!	!	!	!	!	!	!	!	!	!	!
8G\L	7	[4b/	8ff#\L]	.	(16G\LL	.	2g\	a-	2b\	.	4ff#\]	.	1r	1r	4.b\	8ff#\L]
.	.	.	.	.	16F#\J)	.	.	.	.	.	.	.	.	.	.	.
8G\	.	.	(64g\LLL	.	8G\J	.	.	.	.	.	.	.	.	.	.	8bb\J
.	.	.	64a\J	.	.	.	.	.	.	.	.	.	.	.	.	.
.	.	.	32b\	.	.	.	.	.	.	.	.	.	.	.	.	.
.	.	.	32cc#\	.	.	.	.	.	.	.	.	.	.	.	.	.
.	.	.	32dd\JJJ)	.	.	.	.	.	.	.	.	.	.	.	.	.
8C#/	7	8b/L]	8ee\L	.	(16C#/LL	.	.	.	.	.	[4ee\	.	.	.	.	[4ee\
.	.	.	.	.	16BB/J)	.	.	.	.	.	.	.	.	.	.	.
8C#/J	.	(64c#/LLL	[8ee\J	.	8C#/J	.	.	.	.	.	.	.	.	.	8ee\	.
.	.	64d/J	.	.	.	.	.	.	.	.	.	.	.	.	.	.
.	.	32e/	.	.	.	.	.	.	.	.	.	.	.	.	.	.
.	.	32f#/	.	.	.	.	.	.	.	.	.	.	.	.	.	.
.	.	32g/JJJ)	.	.	.	.	.	.	.	.	.	.	.	.	.	.
!	!	!	!	!	!	!	!	!	!	!	!	!	!	!	!LO:LB:g=original	!
=51	=51	=51	=51	=51	=51	=51	=51	=51	=51	=51	=51	=51	=51	=51	=51	=51
8F#\L	7	8a/L	8ee\L]	.	4F#\	.	2f#\	.	2a\	.	4ee\]	.	.	.	4.a/	8ee\L]
8F#\	.	[8a/J	(64f#\LLL	.	.	.	.	.	.	.	.	.	.	.	.	8aa\J
.	.	.	64g\J	.	.	.	.	.	.	.	.	.	.	.	.	.
.	.	.	32a\	.	.	.	.	.	.	.	.	.	.	.	.	.
.	.	.	32b\	.	.	.	.	.	.	.	.	.	.	.	.	.
.	.	.	32cc#\JJJ)	.	.	.	.	.	.	.	.	.	.	.	.	.
8BB\	7	8a/L]	8dd\L	.	4BB/	.	.	.	.	.	[4dd\	.	.	.	.	[4dd\
8BB\J	.	(64B/LLL	[8dd\J	.	.	.	.	.	.	.	.	.	.	.	8dd\	.
.	.	64c#/J	.	.	.	.	.	.	.	.	.	.	.	.	.	.
.	.	32d/	.	.	.	.	.	.	.	.	.	.	.	.	.	.
.	.	32e/	.	.	.	.	.	.	.	.	.	.	.	.	.	.
.	.	32f#/JJJ)	.	.	.	.	.	.	.	.	.	.	.	.	.	.
!	!	!LO:LB:g=original	!LO:LB:g=original	!	!	!	!	!	!	!	!	!	!	!	!	!LO:LB:g=original
=52	=52	=52	=52	=52	=52	=52	=52	=52	=52	=52	=52	=52	=52	=52	=52	=52
!LO:TX:t=P:problem=mixed beam	!	!	!	!	!	!	!	!	!	!	!	!	!	!	!	!
8E\L	7	8g/L	8dd/L]	.	4E\	.	2e\	-ver-	4g\	.	4dd\]	.	2r	2r	4.g/	8dd\L]
8E\	.	[8g/J	(64e/LLL	.	.	.	.	.	.	.	.	.	.	.	.	8gg\J
.	.	.	64f#/J	.	.	.	.	.	.	.	.	.	.	.	.	.
.	.	.	32g/	.	.	.	.	.	.	.	.	.	.	.	.	.
.	.	.	32a/	.	.	.	.	.	.	.	.	.	.	.	.	.
.	.	.	32b/JJJ)	.	.	.	.	.	.	.	.	.	.	.	.	.
8AA#X/	7	8g/L]	8cc#\L	.	4AA#X/	-ver-	.	.	4g\	-ver-	4cc#\	-ver-	.	.	.	[4cc#\
8AA#/J	.	(64A#X/LLL	[8cc#\J	.	.	.	.	.	.	.	.	.	.	.	8cc#\	.
.	.	64B/J	.	.	.	.	.	.	.	.	.	.	.	.	.	.
.	.	32c#/	.	.	.	.	.	.	.	.	.	.	.	.	.	.
.	.	32d/	.	.	.	.	.	.	.	.	.	.	.	.	.	.
.	.	32e/JJJ)	.	.	.	.	.	.	.	.	.	.	.	.	.	.
!	!	!	!	!	!	!	!	!	!	!	!	!	!	!LO:LB:g=original	!	!
=53	=53	=53	=53	=53	=53	=53	=53	=53	=53	=53	=53	=53	=53	=53	=53	=53
!	!	!	!	!	!	!	!	!	!	!	!	!	!	!	!	!LO:TX:t=P:problem=mixed beam
8BB/L	9	8d/L	8cc#/L]	.	4BB/	-tis-	4d\	-tis-	4f#\	-tis-	4cc#\	-tis-	8f#/L	8f#/L	4.f#/	8cc#\L]
8BB/	.	[8d/J	(64d/LLL	.	.	.	.	.	.	.	.	.	16f#/L	16f#/L	.	8f#/J
.	.	.	64e/J	.	.	.	.	.	.	.	.	.	.	.	.	.
.	.	.	32f#/	.	.	.	.	.	.	.	.	.	.	.	.	.
.	.	.	32g#X/	.	.	.	.	.	.	.	.	.	16f#/JJ	16f#/JJ	.	.
.	.	.	32a#X/JJJ)	.	.	.	.	.	.	.	.	.	.	.	.	.
8D/	6	8d/L]	8b/L	.	4D/	-ti	4d\	-ti	4f#\	-ti	4b\	-ti	8f#/L	8f#/L	.	4b/
8D/J	.	(64e/LLL	8b/J	.	.	.	.	.	.	.	.	.	8f#/J	8f#/J	8b/	.
.	.	64f#/J	.	.	.	.	.	.	.	.	.	.	.	.	.	.
.	.	32g#X/	.	.	.	.	.	.	.	.	.	.	.	.	.	.
.	.	32a#X/	.	.	.	.	.	.	.	.	.	.	.	.	.	.
.	.	32b/JJJ)	.	.	.	.	.	.	.	.	.	.	.	.	.	.
!LO:LB:g=original	!	!	!	!	!	!	!	!	!	!	!	!	!	!	!	!
=54	=54	=54	=54	=54	=54	=54	=54	=54	=54	=54	=54	=54	=54	=54	=54	=54
8E\L	6 5	4r	(16cc#\LL	.	4E\	cap-	4c#\	cap-	4g\	cap-	4b\	cap-	1r	1r	[2cc#\	[2bb\
.	.	.	16b\	.	.	.	.	.	.	.	.	.	.	.	.	.
8E\	.	.	16cc#\)	.	.	.	.	.	.	.	.	.	.	.	.	.
.	.	.	16bb|\JJ	.	.	.	.	.	.	.	.	.	.	.	.	.
8F#\	5 4	(16cc#\LL	[4cc#t\	.	8F#\	-ti-	8c#\	-ti-	8f#\	-ti-	8b\	-ti-	.	.	.	.
.	.	16b\	.	.	.	.	.	.	.	.	.	.	.	.	.	.
8F#\J	.	16cc#\)	.	.	8F#\	-vi-	8c#\	-vi-	8f#\	-vi-	8b\	-vi-	.	.	.	.
.	.	16bb|\JJ	.	.	.	.	.	.	.	.	.	.	.	.	.	.
=55	=55	=55	=55	=55	=55	=55	=55	=55	=55	=55	=55	=55	=55	=55	=55	=55
8G\L	4 3	[4cc#t\	(16cc#\LL]	.	4G\	-ta-	4.c#\	-ta-	4e\	-ta-	4b\	-ta-	.	.	2cc#\_	2bb\_
.	.	.	16b\	.	.	.	.	.	.	.	.	.	.	.	.	.
8G\	.	.	16cc#\)	.	.	.	.	.	.	.	.	.	.	.	.	.
.	.	.	16bb|\JJ	.	.	.	.	.	.	.	.	.	.	.	.	.
8E#X\	6 5	(16cc#\LL]	[4cc#t\	.	4E#X\	-tem	.	.	4g#X\	-tem	4b\	-tem	.	.	.	.
.	.	16b\	.	.	.	.	.	.	.	.	.	.	.	.	.	.
8E#\J	.	16cc#\)	.	.	.	.	8d\	-tem	.	.	.	.	.	.	.	.
.	.	16bb|\JJ	.	.	.	.	.	.	.	.	.	.	.	.	.	.
=56	=56	=56	=56	=56	=56	=56	=56	=56	=56	=56	=56	=56	=56	=56	=56	=56
!LO:TX:t=P:problem=mixed beam	!	!	!	!	!	!	!	!	!	!	!	!	!	!	!	!
8F#\L	5 4	(4b/	(16cc#\LL]	.	2F#\	Ja-	2c#t\	Ja-	2f#\	Ja-	(4b\	Ja-	8f#/L	8f#/L	4cc#\]	4bb\]
.	.	.	16b\	.	.	.	.	.	.	.	.	.	.	.	.	.
8F#\	.	.	16cc#\)	.	.	.	.	.	.	.	.	.	16f#/L	16f#/L	.	.
.	.	.	16bb\JJ	.	.	.	.	.	.	.	.	.	16f#/JJ	16f#/JJ	.	.
8FF#/	7 #	8a#X/L)	(16cc#t\LL	.	.	.	.	.	.	.	4a#Xt\)	.	8f#/L	8f#/L	4cc#t\	4aa#Xt\
.	.	.	16b\	.	.	.	.	.	.	.	.	.	.	.	.	.
8FF#/J	.	8ee|/J	16cc#\)	.	.	.	.	.	.	.	.	.	8f#/J	8f#/J	.	.
.	.	.	16aa#X\JJ	.	.	.	.	.	.	.	.	.	.	.	.	.
*	*	*	*	*	*custos:BB	*	*	*	*	*	*	*	*	*	*	*
!	!	!	!	!	!LO:LB:g=original	!	!	!	!	!	!	!	!	!	!	!
=57	=57	=57	=57	=57	=57	=57	=57	=57	=57	=57	=57	=57	=57	=57	=57	=57
.	.	8qqee/	.	.	.	.	.	.	.	.	.	.	.	.	.	.
4BB/	.	4dd\	4b/	.	4BB/	-cob,	8B,<\	-cob,	4f#\	-cob	4b\	-cob	4f#/	4f#/	4b/	4bb\
.	.	.	.	.	.	.	8B\	Be-	.	.	.	.	.	.	.	.
!LO:TX:b:i:t=Solo.	!	!	!	!	!	!	!	!	!	!	!	!	!	!	!	!
4D#X/	6 5	4r	4r	.	4r	.	8F#/	-ne-	4r	.	4r	.	4r	4r	4r	4r
.	.	.	.	.	.	.	8A/	-di-	.	.	.	.	.	.	.	.
!	!	!	!	!	!	!	!LO:LB:g=original	!	!	!	!	!	!	!	!	!
=58	=58	=58	=58	=58	=58	=58	=58	=58	=58	=58	=58	=58	=58	=58	=58	=58
!	!	!LO:TX:a:t=3.	!LO:TX:a:t=3.	!	!LO:TX:a:t=6.	!	!	!	!	!	!	!	!	!	!LO:TX:a:t=14.	!LO:TX:a:t=14.
4BB/	7 #	1r	1r	.	0r	.	4D#X/	-xi-	8r	.	0r	.	0r	0r	0r	0r
.	.	.	.	.	.	.	.	.	8b\	Be-	.	.	.	.	.	.
4r	.	.	.	.	.	.	4D#/	-sti	8f#\	-ne-	.	.	.	.	.	.
.	.	.	.	.	.	.	.	.	8a\	-di-	.	.	.	.	.	.
!	!	!	!	!	!	!	!	!	!LO:LB:g=original	!	!	!	!	!	!	!
=59	=59	=59	=59	=59	=59	=59	=59	=59	=59	=59	=59	=59	=59	=59	=59	=59
4BB/	7 #	.	.	.	.	.	8r	.	4d#X\	-xi-	.	.	.	.	.	.
.	.	.	.	.	.	.	8B\	Be-	.	.	.	.	.	.	.	.
4r	.	.	.	.	.	.	8F#/	-ne-	4d#\	-sti	.	.	.	.	.	.
.	.	.	.	.	.	.	8A/	-di-	.	.	.	.	.	.	.	.
=60	=60	=60	=60	=60	=60	=60	=60	=60	=60	=60	=60	=60	=60	=60	=60	=60
4BB/	7 #	2r	2r	.	.	.	4D#X/	-xi-	16r	.	.	.	.	.	.	.
.	.	.	.	.	.	.	.	.	16b\	Be-	.	.	.	.	.	.
.	.	.	.	.	.	.	.	.	16b\	-ne-	.	.	.	.	.	.
.	.	.	.	.	.	.	.	.	16b\	-di-	.	.	.	.	.	.
4r	.	.	.	.	.	.	4D#/	-sti	8f#\	-xi-	.	.	.	.	.	.
.	.	.	.	.	.	.	.	.	8a\	-sti	.	.	.	.	.	.
!	!	!	!LO:LB:g=original	!	!	!	!	!	!	!	!	!	!	!	!	!
=61	=61	=61	=61	=61	=61	=61	=61	=61	=61	=61	=61	=61	=61	=61	=61	=61
!	!	!	!	!LO:DY:t=po	!	!	!	!	!	!	!	!	!	!	!	!
4E\	.	4g/	4ee\	p	.	.	8.B\	Do-	8.g\	Do-	.	.	.	.	.	.
.	.	.	.	.	.	.	16B\	-mi-	16g\	-mi-	.	.	.	.	.	.
8r	.	8r	8r	.	.	.	4cn\	-ne	4a\	-ne	.	.	.	.	.	.
8D#X\	-7r 5	8a/	8ff#\	.	.	.	.	.	.	.	.	.	.	.	.	.
=62	=62	=62	=62	=62	=62	=62	=62	=62	=62	=62	=62	=62	=62	=62	=62	=62
4E\	.	4g/	4ee\	.	1r	.	8.B\	Do-	8.g\	Do-	1r	.	0r	0r	0r	0r
.	.	.	.	.	.	.	16B\	-mi-	16g\	-mi-	.	.	.	.	.	.
8r	.	8r	8r	.	.	.	4cn\	-ne	4a\	-ne	.	.	.	.	.	.
8D#X\	-7r 5	8a/	8ff#\	.	.	.	.	.	.	.	.	.	.	.	.	.
!LO:LB:g=original	!	!	!	!	!	!	!	!	!	!	!	!	!	!	!	!
=63	=63	=63	=63	=63	=63	=63	=63	=63	=63	=63	=63	=63	=63	=63	=63	=63
!LO:TX:t=P:problem=mixed beam	!	!	!	!	!	!	!	!	!	!	!	!	!	!	!	!
8E\L	.	8g/	8ee\	.	.	.	8B\	ter-	8g\	ter-	.	.	.	.	.	.
8AA/	6 n	8r	8r	.	.	.	(16A/LL	-ram	(16f#\LL	-ram	.	.	.	.	.	.
.	.	.	.	.	.	.	16G/JJ)	.	16e\JJ)	.	.	.	.	.	.	.
.	.	.	.	.	.	.	8qqG/	.	8qqe/	.	.	.	.	.	.	.
8BB/	#	4r	4r	.	.	.	4F#t/	tu-	4d#X\	tu-	.	.	.	.	.	.
8BB/J	7	.	.	.	.	.	.	.	.	.	.	.	.	.	.	.
!	!	!LO:LB:g=original	!	!	!	!	!	!	!	!	!	!	!	!	!	!
=64	=64	=64	=64	=64	=64	=64	=64	=64	=64	=64	=64	=64	=64	=64	=64	=64
!	!	!LO:TX:a:t=4.	!LO:TX:a:t=4.	!	!	!	!	!	!	!	!	!	!	!	!	!
4EE/	.	0r	0r	.	8r	.	4E/	-am	4e\	-am	2r	.	.	.	.	.
.	.	.	.	.	8E\	Be-	.	.	.	.	.	.	.	.	.	.
4GG#X/	6 5	.	.	.	8BB/	-ne-	4r	.	4r	.	.	.	.	.	.	.
.	.	.	.	.	8D/	-di-	.	.	.	.	.	.	.	.	.	.
!	!	!	!	!	!	!	!LO:LB:g=original	!	!LO:LB:g=original	!	!	!	!	!	!	!
=65	=65	=65	=65	=65	=65	=65	=65	=65	=65	=65	=65	=65	=65	=65	=65	=65
!	!	!	!	!	!	!	!LO:TX:a:t=7.	!	!LO:TX:a:t=7.	!	!	!	!	!	!	!
4EE/	7 #	.	.	.	4GG#X/	-xi-	0r	.	0r	.	8r	.	.	.	.	.
.	.	.	.	.	.	.	.	.	.	.	8dd\	Be-	.	.	.	.
4r	.	.	.	.	4GG#/	-sti	.	.	.	.	8b\	-ne-	.	.	.	.
.	.	.	.	.	.	.	.	.	.	.	8dd\	-di-	.	.	.	.
!	!	!	!	!	!	!	!	!	!	!	!LO:LB:g=original	!	!	!	!	!
=66	=66	=66	=66	=66	=66	=66	=66	=66	=66	=66	=66	=66	=66	=66	=66	=66
4E\	7 #	.	.	.	8r	.	.	.	.	.	4g#X/	-xi-	0r	0r	0r	0r
.	.	.	.	.	8e\	Be-	.	.	.	.	.	.	.	.	.	.
4r	.	.	.	.	8B\	-ne-	.	.	.	.	4g#/	-sti	.	.	.	.
.	.	.	.	.	8d\	-di-	.	.	.	.	.	.	.	.	.	.
=67	=67	=67	=67	=67	=67	=67	=67	=67	=67	=67	=67	=67	=67	=67	=67	=67
4E\	7 #	.	.	.	4G#X\	-xi-	.	.	.	.	16r	.	.	.	.	.
.	.	.	.	.	.	.	.	.	.	.	16ee\	Be-	.	.	.	.
.	.	.	.	.	.	.	.	.	.	.	16ee\	-ne-	.	.	.	.
.	.	.	.	.	.	.	.	.	.	.	16ee\	-di-	.	.	.	.
4r	.	.	.	.	4G#\	-sti	.	.	.	.	8b\	-xi-	.	.	.	.
.	.	.	.	.	.	.	.	.	.	.	8dd\	-sti	.	.	.	.
=68	=68	=68	=68	=68	=68	=68	=68	=68	=68	=68	=68	=68	=68	=68	=68	=68
!	!	!	!	!LO:DY:t=piano.	!	!	!	!	!	!	!	!	!	!	!	!
4AA/	#	4e/	4cc#\	p	(16A\LL	Do-	.	.	.	.	(16cc#\LL	Do-	.	.	.	.
.	.	.	.	.	16B\J)	.	.	.	.	.	16b\J)	.	.	.	.	.
.	.	.	.	.	8.c#\J	.	.	.	.	.	8.a\J	.	.	.	.	.
4r	.	4r	4r	.	.	.	.	.	.	.	.	.	.	.	.	.
.	.	.	.	.	16A\LL	.	.	.	.	.	16cc#\LL	.	.	.	.	.
.	.	.	.	.	16G#X\	.	.	.	.	.	16b\	.	.	.	.	.
.	.	.	.	.	16B\JJ	.	.	.	.	.	16dd\JJ	.	.	.	.	.
=69	=69	=69	=69	=69	=69	=69	=69	=69	=69	=69	=69	=69	=69	=69	=69	=69
4AA/	.	4e/	4cc#\	.	(16A\LL	.	1r	.	1r	.	16cc#\LL	.	.	.	.	.
.	.	.	.	.	16B\J)	.	.	.	.	.	16b\J	.	.	.	.	.
.	.	.	.	.	8.c#\J	.	.	.	.	.	8.a\J	.	.	.	.	.
4r	.	4r	4r	.	.	.	.	.	.	.	.	.	.	.	.	.
.	.	.	.	.	16A\LL	.	.	.	.	.	16cc#\LL	.	.	.	.	.
.	.	.	.	.	16G#X\	.	.	.	.	.	16b\	.	.	.	.	.
.	.	.	.	.	16B\JJ	.	.	.	.	.	16dd\JJ	.	.	.	.	.
!	!	!	!	!	!LO:LB:g=original	!	!	!	!	!	!	!	!	!	!	!
=70	=70	=70	=70	=70	=70	=70	=70	=70	=70	=70	=70	=70	=70	=70	=70	=70
!	!	!LO:TX:a:t=2.	!LO:TX:a:t=2.	!	!	!	!	!	!	!	!	!	!	!	!	!
4AA/	5 3	1r	1r	.	8A\L	.	.	.	.	.	(16cc#\LL	.	1r	1r	1r	1r
.	.	.	.	.	.	.	.	.	.	.	16ee\)	.	.	.	.	.
.	6 4	.	.	.	8F#\J	.	.	.	.	.	(16dd\	.	.	.	.	.
.	.	.	.	.	.	.	.	.	.	.	16ff#\JJ)	.	.	.	.	.
4AA/	5 3	.	.	.	8C#/L	.	.	.	.	.	16ee\LL	.	.	.	.	.
.	.	.	.	.	.	.	.	.	.	.	16gg\	.	.	.	.	.
.	6 4	.	.	.	8D/J	.	.	.	.	.	16ff#\	.	.	.	.	.
.	.	.	.	.	.	.	.	.	.	.	16aa\JJ	.	.	.	.	.
=71	=71	=71	=71	=71	=71	=71	=71	=71	=71	=71	=71	=71	=71	=71	=71	=71
!	!	!	!LO:TX:b:i:t=Volti Subito	!	!	!	!	!	!	!	!	!	!	!	!	!
16r	.	.	.	.	8.A\	.	2r	.	2r	.	8.gg\	.	.	.	.	.
16AA/LL	7 3	.	.	.	.	.	.	.	.	.	.	.	.	.	.	.
16C#/	.	.	.	.	.	.	.	.	.	.	.	.	.	.	.	.
16E/JJ	.	.	.	.	16A\	-mi-	.	.	.	.	16gg\	-mi-	.	.	.	.
16A\LL	.	.	.	.	4A\	-ne	.	.	.	.	4gg\	-ne	.	.	.	.
16G\	.	.	.	.	.	.	.	.	.	.	.	.	.	.	.	.
16F#\	.	.	.	.	.	.	.	.	.	.	.	.	.	.	.	.
16E\JJ	.	.	.	.	.	.	.	.	.	.	.	.	.	.	.	.
*	*	*	*	*	*	*	*	*	*	*	*custos:ff	*	*	*	*	*
!	!	!	!LO:PB:g=original	!	!	!	!	!	!	!	!LO:LB:g=original	!	!	!	!	!
=72	=72	=72	=72	=72	=72	=72	=72	=72	=72	=72	=72	=72	=72	=72	=72	=72
!	!	!	!	!	!LO:TX:t=P:problem=mixed beam	!	!	!	!	!	!	!	!	!	!	!
8D\L	.	(16dd\LL	(16ff#\LL	.	(8D/L	Be-	4.d\	Be-	(4a\	Be-	2ff#\	Be-	4.dd\	4.ff#\	8r	4r
.	.	16ee\)	16gg\	.	.	.	.	.	.	.	.	.	.	.	.	.
!LO:TX:b:i:t=Tutti.	!	!	!	!	!	!	!	!	!	!	!	!	!	!	!	!
8d\	.	16ff#|\	16aa\)	.	8d\J)	.	.	.	.	.	.	.	.	.	8ff#\	.
.	.	16ff#|\JJ	16aa|\JJ	.	.	.	.	.	.	.	.	.	.	.	.	.
8B\	6 5	(16gg\LL	(16bb\LL	.	8B\L	.	.	.	4g\)	.	.	.	.	.	8dd\L	8r
.	.	16aa\)	16ccc#\	.	.	.	.	.	.	.	.	.	.	.	.	.
8G\J	.	16bb|\	16ddd\)	.	8G\J	.	8B\	-ne-	.	.	.	.	8dd\	8ff#\	8b\J	8gg\
.	.	16bb|\JJ	16ddd|\JJ	.	.	.	.	.	.	.	.	.	.	.	.	.
!LO:LB:g=original	!	!	!	!	!	!	!	!	!	!	!	!	!	!	!	!
=73	=73	=73	=73	=73	=73	=73	=73	=73	=73	=73	=73	=73	=73	=73	=73	=73
8C#\L	.	(16cc#\LL	(16ee\LL	.	8C#/	-ne-	4.c#\	-di-	4g\	-ne-	4ee\	-ne-	4a/	4ee\	8r	8ee\L
.	.	16dd\)	16ff#\	.	.	.	.	.	.	.	.	.	.	.	.	.
8c#\	.	16ee|\	16gg\)	.	8c#\	-di-	.	.	.	.	.	.	.	.	8ee|\	8cc#\J
.	.	16ee|\JJ	16gg|\JJ	.	.	.	.	.	.	.	.	.	.	.	.	.
8A\	6 5	(16ff#\LL	(16aa\LL	.	8A\	-xi-	.	.	4f#\	-di-	4ee\	-di-	4r	4r	8cc#\L	8r
.	.	16gg\)	16bb\	.	.	.	.	.	.	.	.	.	.	.	.	.
8F#\J	.	16aa|\	16ccc#\)	.	8F#\	-sti	8A\	.	.	.	.	.	.	.	8a\J	8ff#\
.	.	16aa|\JJ	16ccc#|\JJ	.	.	.	.	.	.	.	.	.	.	.	.	.
=74	=74	=74	=74	=74	=74	=74	=74	=74	=74	=74	=74	=74	=74	=74	=74	=74
8BB\L	.	(16b\LL	(16dd\LL	.	8BB/	Be-	4.B\	-xi-	4f#\	-xi-	4dd\	-xi-	8r	8r	8r	8dd\L
.	.	16cc#\)	16ee\	.	.	.	.	.	.	.	.	.	.	.	.	.
8B\	.	16dd|\	16ff#\)	.	16B\	-ne-	.	.	.	.	.	.	8dd\	8ff#\	8dd\	8b\J
.	.	16dd|\JJ	16ff#|\JJ	.	16B\	-di-	.	.	.	.	.	.	.	.	.	.
8G\	6 5	(16ee\LL	(16gg\LL	.	8G\	-xi-	.	.	4e\	-sti	4dd\	-sti	4ee\	4gg\	8b/L	8r
.	.	16ff#\)	16aa\	.	.	.	.	.	.	.	.	.	.	.	.	.
8E\J	.	16gg|\	16bb\)	.	8E\	-sti	8G/	-sti	.	.	.	.	.	.	8g/J	8ee\
.	.	16gg|\JJ	16bb|\JJ	.	.	.	.	.	.	.	.	.	.	.	.	.
=75	=75	=75	=75	=75	=75	=75	=75	=75	=75	=75	=75	=75	=75	=75	=75	=75
!	!	!	!	!	!LO:TX:t=P:problem=mixed beam	!	!	!	!	!	!	!	!	!	!	!
8AA\L	.	(16a\LL	(16cc#\LL	.	(8AA/L	Do-	[>4A/	Do-	8.e\	Do-	8.cc#\	Do-	8r	8r	8r	8cc#\L
.	.	16b\)	16dd\	.	.	.	.	.	.	.	.	.	.	.	.	.
8A\	.	16cc#|\	16ee\)	.	8A\J)	.	.	.	.	.	.	.	8a/	8ee\	8cc#\	8a\J
.	.	16cc#|\JJ	16ee|\JJ	.	.	.	.	.	16d\	-mi-	16cc#\	-mi-	.	.	.	.
8F#\	6 -5	(16dd\LL	(16ff#\LL	.	16F#\	.	16A/]	.	4d\	-ne	4ccn\	-ne	4dd\	4ff#\	8a/L	8r
.	.	16ee\)	16gg\	.	16F#\	-mi-	16A/	-mi-	.	.	.	.	.	.	.	.
8D\J	.	16ff#|\	16aa\)	.	8D/	-ne	8F#/	-ne	.	.	.	.	.	.	8f#/J	8dd\
.	.	16ff#|\JJ	16aa|\JJ	.	.	.	.	.	.	.	.	.	.	.	.	.
!	!	!	!	!	!LO:LB:g=original	!	!	!	!	!	!	!	!	!	!	!LO:LB:g=original
=76	=76	=76	=76	=76	=76	=76	=76	=76	=76	=76	=76	=76	=76	=76	=76	=76
8G\L	.	4r	8b|\L	.	4G\	ter-	4G/	ter-	4d\	ter-	4b\	ter-	4d/	4d/	4dd\	4b\
8G\	.	.	(32cc#\LL	.	.	.	.	.	.	.	.	.	.	.	.	.
.	.	.	32dd\	.	.	.	.	.	.	.	.	.	.	.	.	.
.	.	.	32ee\	.	.	.	.	.	.	.	.	.	.	.	.	.
.	.	.	32ff#\JJJ)	.	.	.	.	.	.	.	.	.	.	.	.	.
8E\	.	8r	8gg\L	.	4E\	.	4B\	.	4g\	.	[4gg\	.	4r	4r	4ee\	[4gg\
8E\J	.	(32b/LLL	[8gg\J	.	.	.	.	.	.	.	.	.	.	.	.	.
.	.	32a/	.	.	.	.	.	.	.	.	.	.	.	.	.	.
.	.	32g/	.	.	.	.	.	.	.	.	.	.	.	.	.	.
.	.	32f#/JJJ)	.	.	.	.	.	.	.	.	.	.	.	.	.	.
!	!	!	!	!	!	!	!	!	!	!	!	!	!LO:LB:g=original	!	!	!
=77	=77	=77	=77	=77	=77	=77	=77	=77	=77	=77	=77	=77	=77	=77	=77	=77
!	!	!LO:TX:t=P:problem=mixed beam	!	!	!	!	!	!	!	!	!	!	!	!	!	!LO:TX:t=P:problem=mixed beam
8C#/L	6 5	8e/L	8gg\L]	.	4C#/	.	4.e\	.	2a\	.	4gg\]	.	8r	8r	2a/	8gg\L]
8C#/	.	8ee\J	(64a\LLL	.	.	.	.	.	.	.	.	.	16a/LL	16a/LL	.	8a/J
.	.	.	64b\J	.	.	.	.	.	.	.	.	.	.	.	.	.
.	.	.	32cc#\	.	.	.	.	.	.	.	.	.	.	.	.	.
.	.	.	32dd\	.	.	.	.	.	.	.	.	.	16a/JJ	16a/JJ	.	.
.	.	.	32ee\JJJ)	.	.	.	.	.	.	.	.	.	.	.	.	.
8D/	9	8r	8ff#\L	.	4D/	.	.	.	.	.	[4ff#\	.	8a/L	8a/L	.	[4ff#\
8D/J	8	(32a/LLL	[8ff#\J	.	.	.	8d\	.	.	.	.	.	8a/J	8a/J	.	.
.	.	32g/	.	.	.	.	.	.	.	.	.	.	.	.	.	.
.	.	32f#/	.	.	.	.	.	.	.	.	.	.	.	.	.	.
.	.	32e/JJJ)	.	.	.	.	.	.	.	.	.	.	.	.	.	.
!	!	!LO:LB:g=original	!	!	!	!	!	!	!	!	!	!	!	!LO:LB:g=original	!	!
=78	=78	=78	=78	=78	=78	=78	=78	=78	=78	=78	=78	=78	=78	=78	=78	=78
!	!	!LO:TX:t=P:problem=mixed beam	!	!	!	!	!	!	!	!	!	!	!	!	!	!LO:TX:t=P:problem=mixed beam
8BB/L	6 5	8d/L	8ff#\L]	.	4BB/	.	4d\	.	2g\	-ram	4ff#\]	.	4r	4r	2g/	8ff#\L]
8BB/	.	8dd\J	(64g\LLL	.	.	.	.	.	.	.	.	.	.	.	.	8g/J
.	.	.	64a\J	.	.	.	.	.	.	.	.	.	.	.	.	.
.	.	.	32b\	.	.	.	.	.	.	.	.	.	.	.	.	.
.	.	.	32cc#\	.	.	.	.	.	.	.	.	.	.	.	.	.
.	.	.	32dd\JJJ)	.	.	.	.	.	.	.	.	.	.	.	.	.
8C#/	6 5	8r	8ee\L	.	4C#/	-ram	4A/	-ram	.	.	4ee\	-ram	16a/LL	16a/LL	.	[4ee\
.	.	.	.	.	.	.	.	.	.	.	.	.	16a/	16a/	.	.
8C#/J	.	(32cc#\LLL	[8ee\J	.	.	.	.	.	.	.	.	.	16a/	16a/	.	.
.	.	32b\	.	.	.	.	.	.	.	.	.	.	.	.	.	.
.	.	32a\	.	.	.	.	.	.	.	.	.	.	16a/JJ	16a/JJ	.	.
.	.	32g\JJJ)	.	.	.	.	.	.	.	.	.	.	.	.	.	.
!	!	!	!LO:LB:g=original	!	!	!	!LO:LB:g=original	!	!	!	!	!	!	!	!LO:LB:g=original	!
=79	=79	=79	=79	=79	=79	=79	=79	=79	=79	=79	=79	=79	=79	=79	=79	=79
8D\L	9	8f#/L	8ee\L]	.	8D\L	tu-	4.A/	tu-	4f#\	tu-	4ee\	tu-	4a/	4a/	2f#/	4ee\]
8E\	.	8g/	(64f#\LLL	.	8E\J	.	.	.	.	.	.	.	.	.	.	.
.	.	.	64g\J	.	.	.	.	.	.	.	.	.	.	.	.	.
.	.	.	32a\	.	.	.	.	.	.	.	.	.	.	.	.	.
.	.	.	32b\	.	.	.	.	.	.	.	.	.	.	.	.	.
.	.	.	32cc#\JJJ)	.	.	.	.	.	.	.	.	.	.	.	.	.
8F#\	6	8a/	8dd\L	.	8F#\L	-am	.	.	4f#\	-am	4dd\	-am	4r	4r	.	4dd\
8G\J	.	8b/J	8dd\J	.	8G\J	.	8B/	-am	.	.	.	.	.	.	.	.
!	!	!	!	!	!	!	!	!	!LO:LB:g=original	!	!	!	!	!	!	!
=80	=80	=80	=80	=80	=80	=80	=80	=80	=80	=80	=80	=80	=80	=80	=80	=80
!	!	!	!	!	!LO:TX:a:t=1.	!	!LO:TX:a:t=1.	!	!	!	!LO:TX:a:t=1	!	!	!	!	!
4A\	.	16e/LL	16cc#\LL	.	2r	.	2r	.	2r	.	2r	.	4a/	4a/	4e/	4cc#\
.	.	16a/	16a\	.	.	.	.	.	.	.	.	.	.	.	.	.
.	.	16b/	16b\	.	.	.	.	.	.	.	.	.	.	.	.	.
.	.	16cc#/JJ	16cc#\JJ	.	.	.	.	.	.	.	.	.	.	.	.	.
4r	.	16dd\LL	16dd\LL	.	.	.	.	.	.	.	.	.	4r	4r	4r	4r
.	.	16ee\	16ee\	.	.	.	.	.	.	.	.	.	.	.	.	.
.	.	16ff#\	16ff#\	.	.	.	.	.	.	.	.	.	.	.	.	.
.	.	16gg#X\JJ	16gg#X\JJ	.	.	.	.	.	.	.	.	.	.	.	.	.
=81	=81	=81	=81	=81	=81	=81	=81	=81	=81	=81	=81	=81	=81	=81	=81	=81
8r	.	8aa\L	8aa\L	.	8r	.	8r	.	8r	.	8r	.	8r	8r	8r	8r
8A\L	.	8cc#\	8ee\	.	8A\	a-	8A/	a-	8e\	a-	8cc#\	a-	8a/L	8a/L	8cc#\	8ee\
8F#\	6	8dd\	8ff#\	.	8F#\	-ver-	8A/	-ver-	8f#\	-ver-	8dd\	-ver-	8f#/	8f#/	4dd\	4ff#\
8D\J	.	8dd\J	8ff#\J	.	8D/	-tis-	8A/	-tis-	8f#\	-tis-	8dd\	-tis-	8d/J	8d/J	.	.
*custos:AA	*	*	*	*	*	*	*	*	*	*	*	*	*	*	*	*
!LO:LB:g=original	!	!	!	!	!	!	!	!	!	!	!LO:LB:g=original	!	!	!	!	!
=82	=82	=82	=82	=82	=82	=82	=82	=82	=82	=82	=82	=82	=82	=82	=82	=82
.	.	.	.	.	.	.	.	.	8qqf#/	.	8qqdd/	.	.	.	.	.
4AA/	.	16cc#\LL	16ee\LL	.	4AA/	-ti	4A/	-ti	4e\	-ti	4cc#\	-ti	4a/	4a/	4cc#\	4ee\
.	.	16a\	16a\	.	.	.	.	.	.	.	.	.	.	.	.	.
.	.	16b\	16b\	.	.	.	.	.	.	.	.	.	.	.	.	.
.	.	16cc#\JJ	16cc#\JJ	.	.	.	.	.	.	.	.	.	.	.	.	.
4r	.	16dd\LL	16dd\LL	.	4r	.	4r	.	4r	.	4r	.	4r	4r	4r	4r
.	.	16ee\	16ee\	.	.	.	.	.	.	.	.	.	.	.	.	.
.	.	16ff#\	16ff#\	.	.	.	.	.	.	.	.	.	.	.	.	.
.	.	16gg#X\JJ	16gg#X\JJ	.	.	.	.	.	.	.	.	.	.	.	.	.
=83	=83	=83	=83	=83	=83	=83	=83	=83	=83	=83	=83	=83	=83	=83	=83	=83
8r	.	8aa\L	8aa\L	.	8r	.	8r	.	8r	.	8r	.	8r	8r	8r	8r
8A\L	.	8cc#\	8ee\	.	8A\	a-	8c#\	a-	8a\	a-	8ee\	a-	8a/L	8a/L	8cc#\L	8ee\
8F#\	6	8dd\	8ff#\	.	8F#\	-ver-	8d\	-ver-	8a\	-ver-	8ff#\	-ver-	8f#/	8f#/	8dd\	8ff#\L
8D\J	.	8dd\J	8ff#\J	.	8D\	-tis-	8d\	-tis-	8a\	-tis-	8ff#\	-tis-	8d/J	8d/J	8dd\J	8ff#\J
=84	=84	=84	=84	=84	=84	=84	=84	=84	=84	=84	=84	=84	=84	=84	=84	=84
.	.	8qqee/	8qqgg/	.	.	.	.	.	.	.	.	.	.	.	8qqee/	.
!LO:TX:t=P:problem=mixed beam	!	!	!	!	!	!	!	!	!	!	!	!	!	!	!	!
8AA/L	.	8dd\L	8ff#\L	.	4AA/	-ti	(8d\L	-ti	4a\	-ti	(8ff#\L	-ti	4a/	4a/	8dd\L	8ff#\L
8A\	.	8cc#\J	8ee\J	.	.	.	8c#\J)	.	.	.	8ee\J)	.	.	.	8cc#\J	8ee\J
8E|\	.	4r	8r	.	4r	.	4r	.	4r	.	8r	.	4r	4r	4r	8r
8C#|\J	.	.	8aa\	.	.	.	.	.	.	.	8aa\	cap-	.	.	.	8aa\
!	!	!	!	!	!LO:LB:g=original	!	!	!	!	!	!	!	!	!	!	!
=85	=85	=85	=85	=85	=85	=85	=85	=85	=85	=85	=85	=85	=85	=85	=85	=85
!LO:TX:b:i:t=Tasto Solo.	!	!	!	!	!LO:TX:a:t=1	!	!	!	!	!	!	!	!	!	!	!
[2AA/	.	8r	8ee\L	.	2r	.	4r	.	8r	.	8ee\	-ti-	8r	8r	8r	8ee\L
.	.	8aa\	8ff#\J	.	.	.	.	.	8a\	Cap-	8ff#\	-vi-	16a/LL	16a/LL	8aa\	8ff#\J
.	.	.	.	.	.	.	.	.	.	.	.	.	16a/JJ	16a/JJ	.	.
.	.	8ee\L	8cc#\L	.	.	.	8r	.	8e\	-ti-	8cc#\	-ta-	8a/L	8a/L	8ee\L	8cc#\L
.	.	8ff#\J	8dd\J	.	.	.	8A/	Cap-	8f#\	-vi-	8dd\	-tem	8a/J	8a/J	8ff#\J	8dd\J
=86	=86	=86	=86	=86	=86	=86	=86	=86	=86	=86	=86	=86	=86	=86	=86	=86
2AA/_	.	(8cc#\L	8ee\L	.	8r	.	8e\	-ti-	(8c#\L	-ta-	8ee\	Ja-	4a|/	4a/	(8cc#\L	8ee\L
.	.	8dd\J)	[8a\J	.	8A\	cap-	8f#\	-vi-	8d\J)	.	4a\	-cob	.	.	8dd\J)	[8a\J
.	.	8ee\	16a\LL]	.	8E\	-ti-	8c#\	-ta-	8e\	-tem	.	.	4a|/	4a/	8ee\	16a\LL]
.	.	.	16aa\J	.	.	.	.	.	.	.	.	.	.	.	.	16aa\J
.	.	8r	8aaT\J	.	8F#\	-vi-	8d\	-tem	8r	.	8aa\	cap-	.	.	8r	8aaT\J
!	!	!LO:LB:g=original	!LO:LB:g=original	!	!	!	!LO:LB:g=original	!	!LO:LB:g=original	!	!	!	!	!	!	!LO:LB:g=original
=87	=87	=87	=87	=87	=87	=87	=87	=87	=87	=87	=87	=87	=87	=87	=87	=87
2AA/_	.	16r	16ee\LL	.	8C#/	-ta-	(8e\L	Ja-	8a\	Ja-	8ee\	-ti-	8a/L	8a/L	16r	16ee\LL
.	.	16aa\KL	16ff#\J	.	.	.	.	.	.	.	.	.	.	.	16aa\KL	16ff#\J
.	.	8aaT\J	8ff#t\J	.	8D/	-tem	8A\J)	.	(8e\L	.	8ff#\	-vi-	8a/	8a/	8aaT\J	8ff#t\J
.	.	16ee\LL	16cc#\LL	.	4A\	Ja-	4A/	.	8f#\J)	.	8cc#\	-ta-	8a/	8a/	16ee\LL	16cc#\LL
.	.	16ff#\J	16dd\J	.	.	.	.	.	.	.	.	.	.	.	16ff#\J	16dd\J
.	.	8ff#t\J	8ddT\J	.	.	.	.	.	8r	.	8dd\	-tem	8a/J	8a/J	8ff#t\J	8ddT\J
=88	=88	=88	=88	=88	=88	=88	=88	=88	=88	=88	=88	=88	=88	=88	=88	=88
!LO:TX:t=P:problem=mixed beam	!	!	!	!	!	!	!	!	!	!	!	!	!	!	!	!
8AA/L]	.	8cc#\	16ee\LL	.	2AA/	-cob.	2A/	-cob	8c#/	.	(16ee\LL	Ja-	4a/	4a/	8cc#\	16ee\LL
.	.	.	16cc#\JJ	.	.	.	.	.	.	.	16cc#\JJ)	.	.	.	.	16cc#\JJ
.	.	.	8qqb/	.	.	.	.	.	.	.	.	.	.	.	.	8qqb/
8A|\	.	4cc#\	4a/	.	.	.	.	.	4.c#/	-cob	4.a\	-cob	.	.	4cc#\	4a/
8E|\	.	.	.	.	.	.	.	.	.	.	.	.	4r	4r	.	.
8G|\J	.	16cc#\LL	16ee\LL	.	.	.	.	.	.	.	.	.	.	.	16cc#\LL	16ee\LL
.	.	16dd\JJ	16ff#\JJ	.	.	.	.	.	.	.	.	.	.	.	16dd\JJ	16ff#\JJ
!	!	!	!	!	!	!	!	!	!	!	!LO:LB:g=original	!	!LO:LB:g=original	!	!	!
=89	=89	=89	=89	=89	=89	=89	=89	=89	=89	=89	=89	=89	=89	=89	=89	=89
8C#/L	6 5	16ee\LL	16gg\LL	.	(8C#/L	cap-	(8e\L	Cap-	4a\	Cap-	(8gg\L	cap-	4a|/	4a|/	8ee\L	8gg\L
.	.	16a\	16a\	.	.	.	.	.	.	.	.	.	.	.	.	.
8D/	5	16dd\	16ff#\	.	8D/J)	.	8d\J)	.	.	.	8ff#\J)	.	.	.	8dd\	8ff#\
.	.	16a\JJ	16a\JJ	.	.	.	.	.	.	.	.	.	.	.	.	.
8E/	6	16cc#\LL	16ee\LL	.	8E\	-ti-	8c#\	-ti-	8a\	-ti-	8ee\	-ti-	4a|/	4a|/	8cc#\	8ee\
.	.	16a\	16a\	.	.	.	.	.	.	.	.	.	.	.	.	.
8D/J	5	16dd\	16ff#\	.	8D\	-vi-	8d\	-vi-	8a\	-vi-	8ff#\	-vi-	.	.	8dd\J	8ff#\J
.	.	16a\JJ	16a\JJ	.	.	.	.	.	.	.	.	.	.	.	.	.
!	!	!	!	!	!	!	!	!	!	!	!	!	!	!LO:LB:g=original	!	!
=90	=90	=90	=90	=90	=90	=90	=90	=90	=90	=90	=90	=90	=90	=90	=90	=90
8C#/L	6 5	16ee\LL	16gg\LL	.	(8C#/L	-ta-	(8e\L	-ta-	4.a\	-ta-	(8gg\L	-ta-	4a|/	4a|/	8ee\L	8gg\L
.	.	16a\	16a\	.	.	.	.	.	.	.	.	.	.	.	.	.
8D/	5	16dd\	16ff#\	.	8D/J)	.	8d\J)	.	.	.	8ff#\J)	.	.	.	8dd\	8ff#\
.	.	16a\JJ	16a\JJ	.	.	.	.	.	.	.	.	.	.	.	.	.
8E/	6	16cc#\LL	16ee\LL	.	8E\	.	8c#\	.	.	.	(8ee\L	-tem	4a|/	4a|/	8cc#\	8ee\
.	.	16a\	16a\	.	.	.	.	.	.	.	.	.	.	.	.	.
8D/J	5	16dd\	16ff#\	.	8D\	-tem	8d\	-tem	8a\	-tem	8ff#\J)	.	.	.	8dd\J	8ff#\J
.	.	16a\JJ	16a\JJ	.	.	.	.	.	.	.	.	.	.	.	.	.
=91	=91	=91	=91	=91	=91	=91	=91	=91	=91	=91	=91	=91	=91	=91	=91	=91
4G|\	.	4b 4d 4G/	4gg 4b 4d 4G/	.	(4G\	Ja-	(4d\	Ja-	(4b\	Ja-	4gg\	Ja-	4ee\	4gg\	4ee\	4gg\
4A|\	.	4cc#t\	4eeT\	.	4A\)	.	4c#t\)	.	4a\)	.	4eeT\	.	4a/	4eeT\	4cc#t\	4eeT\
!	!	!	!	!	!	!	!	!	!	!	!	!	!	!	!LO:LB:g=original	!
=92	=92	=92	=92	=92	=92	=92	=92	=92	=92	=92	=92	=92	=92	=92	=92	=92
4B\	5	16dd\LL	16dd\LL	.	4B\	-cob	4d\	-cob	4g\	-cob	4dd\	-cob	4f#/	4dd\	4dd\	4dd\
.	.	16cc#\	16ee\	.	.	.	.	.	.	.	.	.	.	.	.	.
.	.	16b\	16ff#\	.	.	.	.	.	.	.	.	.	.	.	.	.
.	.	16a\JJ	16gg\JJ	.	.	.	.	.	.	.	.	.	.	.	.	.
4r	.	16g/LL	16aa\LL	.	4r	.	4r	.	4r	.	4r	.	4r	4r	4r	4r
.	.	16f#/	16bb\	.	.	.	.	.	.	.	.	.	.	.	.	.
.	.	16e/	16ccc#\	.	.	.	.	.	.	.	.	.	.	.	.	.
.	.	16d/JJ	16ddd\JJ	.	.	.	.	.	.	.	.	.	.	.	.	.
!	!	!	!	!	!LO:LB:g=original	!	!	!	!	!	!	!	!	!	!	!
=93	=93	=93	=93	=93	=93	=93	=93	=93	=93	=93	=93	=93	=93	=93	=93	=93
8C#/L	6 5	16ee\LL	16gg\LL	.	(8C#/L	a-	4A/	a-	(8g\L	a-	(8ee\L	a-	8ee\L	8gg\L	[2a/	[2aa\
.	.	16a\	16a\	.	.	.	.	.	.	.	.	.	.	.	.	.
8D/	5	16dd\	16ff#\	.	8D/J)	.	.	.	8f#\J)	.	8dd\J)	.	8dd\J	8ff#\	.	.
.	.	16a\JJ	16a\JJ	.	.	.	.	.	.	.	.	.	.	.	.	.
8E/	6	16cc#\LL	16ee\LL	.	(8E/L	-ver-	4A/	-ver-	(8e\L	-ver-	(8cc#\L	-ver-	8a\L	8ee\	.	.
.	.	16a\	16a\	.	.	.	.	.	.	.	.	.	.	.	.	.
8D/J	5	16dd\	16ff#\	.	8D/J)	.	.	.	8f#\J)	.	8dd\J)	.	8dd\J	8ff#\J	.	.
.	.	16a\JJ	16a\JJ	.	.	.	.	.	.	.	.	.	.	.	.	.
!LO:LB:g=original	!	!	!	!	!	!	!	!	!	!	!	!	!	!	!	!
=94	=94	=94	=94	=94	=94	=94	=94	=94	=94	=94	=94	=94	=94	=94	=94	=94
8C#/L	6 5	16ee\LL	16gg\LL	.	(8C#/L	-tis-	4A/	-tis-	(8g\L	-tis-	(8ee\L	-tis-	8ee\L	8gg\L	2aT/]	2aa\]
.	.	16a\	16a\	.	.	.	.	.	.	.	.	.	.	.	.	.
8D/	5	16dd\	16ff#\	.	8D/J)	.	.	.	8f#\J)	.	8dd\J)	.	8dd\J	8ff#\	.	.
.	.	16a\JJ	16a\JJ	.	.	.	.	.	.	.	.	.	.	.	.	.
8E/	6	16cc#\LL	16ee\LL	.	(8E/L	-ti	4A/	-ti	(8e\L	-ti	(8cc#\L	-ti	8a\L	8ee\	.	.
.	.	16a\	16a\	.	.	.	.	.	.	.	.	.	.	.	.	.
8D/J	5	16dd\	16ff#\	.	8D/J)	.	.	.	8f#\J)	.	8dd\J)	.	8dd\J	8ff#\J	.	.
.	.	16a\JJ	16a\JJ	.	.	.	.	.	.	.	.	.	.	.	.	.
!	!	!	!LO:LB:g=original	!	!	!	!LO:LB:g=original	!	!LO:LB:g=original	!	!	!	!	!	!	!
=95	=95	=95	=95	=95	=95	=95	=95	=95	=95	=95	=95	=95	=95	=95	=95	=95
2AA/	7	16ee\LL	16gg\LL	.	2A\	cap-	2c#\	cap-	2g\	Cap-	2ee\	cap-	4a/	4a/	8ee\L	8gg\L
.	.	16a\	16a\	.	.	.	.	.	.	.	.	.	.	.	.	.
.	.	16ff#\	16aa\	.	.	.	.	.	.	.	.	.	.	.	8ff#\	8aa\
.	.	16a\JJ	16a\JJ	.	.	.	.	.	.	.	.	.	.	.	.	.
.	.	16gg\LL	16bb\LL	.	.	.	.	.	.	.	.	.	8.a/L	8.a/L	8gg\	8bb\
.	.	16a\	16a\	.	.	.	.	.	.	.	.	.	.	.	.	.
.	.	16aa\	16ccc#\	.	.	.	.	.	.	.	.	.	.	.	8ee\J	8ccc#\J
.	.	16a\JJ	16a\JJ	.	.	.	.	.	.	.	.	.	16a/Jk	16a/Jk	.	.
=96	=96	=96	=96	=96	=96	=96	=96	=96	=96	=96	=96	=96	=96	=96	=96	=96
8D\L	.	8ff# 8a 8d/	8ff# 8a 8d/	.	(8D\L	-ti-	4A/	-ti-	4f#\	-ti-	4dd\	-ti-	4a/	4a/	8ff#\L	[2ddd\
8E\	.	4ff#\	4ddd\	.	8E\J)	.	.	.	.	.	.	.	.	.	8gg\	.
8F#\	6	.	.	.	(8F#\L	-vi-	4A/	-vi-	4f#\	-vi-	4dd\	-vi-	4a/	4a/	8aa\	.
8G\J	.	[8ff#\	[8ddd\	.	8G\J)	.	.	.	.	.	.	.	.	.	8bb\J	.
!	!	!LO:LB:g=original	!	!	!	!	!	!	!	!	!	!	!	!	!	!
=97	=97	=97	=97	=97	=97	=97	=97	=97	=97	=97	=97	=97	=97	=97	=97	=97
8F#\L	6	8ff#\L]	8ddd\L]	.	(8F#\L	-ta-	4.A/	-ta-	4f#\	-ta-	4dd\	-ta-	4a/	4a/	8aa\L	8ddd\L]
8E\	.	16aa\L	16ccc#\L	.	8E\J)	.	.	.	.	.	.	.	.	.	8gg\	16ccc#\L
.	.	16gg\JJ	16bb\JJ	.	.	.	.	.	.	.	.	.	.	.	.	16bb\JJ
8F#\	.	16ff#\LL	16aa\LL	.	(8F#\L	-tem	.	.	4f#\	-tem	4dd\	-tem	8r	8r	8aa\	16aa\LL
.	.	16ee\J	16gg\	.	.	.	.	.	.	.	.	.	.	.	.	16gg\
8G\J	.	8dd\J	16ff#\	.	8G\J)	.	8B\	-tem	.	.	.	.	8ee\	8gg\	8bb\J	16ff#\
.	.	.	16ee\JJ	.	.	.	.	.	.	.	.	.	.	.	.	16ee\JJ
!	!	!	!	!	!	!	!	!	!	!	!LO:LB:g=original	!	!	!	!	!
=98	=98	=98	=98	=98	=98	=98	=98	=98	=98	=98	=98	=98	=98	=98	=98	=98
16A\LL	6 4	4dd\	4ff#\	.	4A\	Ja-	2A/	Ja-	(4f#\	Ja-	(4dd\	Ja-	4dd\	4ff#\	4dd\	4ff#\
16G\	.	.	.	.	.	.	.	.	.	.	.	.	.	.	.	.
16F#\	.	.	.	.	.	.	.	.	.	.	.	.	.	.	.	.
16G\JJ	.	.	.	.	.	.	.	.	.	.	.	.	.	.	.	.
!LO:TX:t=P:problem=mixed beam	!	!LO:TX:t=P:problem=skreślony takt	!	!	!	!	!	!	!	!	!	!	!	!	!	!
8A\L	5 3	4cc#t\	4eeT\	.	4AA/	.	.	.	4eT\)	.	4cc#t\)	.	4a/	4eeT\	4cc#t\	4eeT\
8AA/J	.	.	.	.	.	.	.	.	.	.	.	.	.	.	.	.
!	!	!	!	!	!	!	!	!	!	!	!	!	!	!	!	!LO:LB:g=original
=99	=99	=99	=99	=99	=99	=99	=99	=99	=99	=99	=99	=99	=99	=99	=99	=99
!LO:TX:t=P:problem=mixed beam	!	!	!	!	!	!	!	!	!	!	!	!	!	!	!	!
16d\LL	.	8dd 8f# 8A/	8ff# 8a 8d/	.	4D/	-cob.	4A/	-cob	4f#\	-cob	4dd\	-cob.	8dd\L	8ff#\L	(32dd\LLL	(32ff#\LLL
.	.	.	.	.	.	.	.	.	.	.	.	.	.	.	32ee\JJ)	32gg\JJ)
16c#\	.	.	.	.	.	.	.	.	.	.	.	.	.	.	8.dd\J	8.ff#\J
16d\	.	(32f#/LLL	(32a/LLL	.	.	.	.	.	.	.	.	.	8ff#\	8aa\	.	.
.	.	32e/	32g/	.	.	.	.	.	.	.	.	.	.	.	.	.
16D/JJ	.	32d/	32f#/	.	.	.	.	.	.	.	.	.	.	.	.	.
.	.	32c#/JJJ)	32e/JJJ)	.	.	.	.	.	.	.	.	.	.	.	.	.
!LO:TX:t=P:problem=mixed beam	!	!	!	!	!	!	!	!	!	!	!	!	!	!	!	!
16d\LL	.	8dd 8f# 8A/	8ff# 8a 8d/	.	4r	.	4r	.	4r	.	4r	.	8ff#\	8aa\	(32dd\LLL	(32ff#\LLL
.	.	.	.	.	.	.	.	.	.	.	.	.	.	.	32ee\JJ)	32gg\JJ)
16c#\	.	.	.	.	.	.	.	.	.	.	.	.	.	.	8.dd\J	8.ff#\J
16d\	.	(32a/LLL	(32f#/LLL	.	.	.	.	.	.	.	.	.	8ff#\J	8aa\J	.	.
.	.	32g/	32e/	.	.	.	.	.	.	.	.	.	.	.	.	.
16D/JJ	.	32f#/	32d/	.	.	.	.	.	.	.	.	.	.	.	.	.
.	.	32e/JJJ)	32c#/JJJ)	.	.	.	.	.	.	.	.	.	.	.	.	.
=100	=100	=100	=100	=100	=100	=100	=100	=100	=100	=100	=100	=100	=100	=100	=100	=100
!LO:TX:t=P:problem=mixed beam	!	!	!	!	!LO:TX:a:t=5.	!	!	!	!	!	!LO:TX:a:t=6.	!	!	!	!	!
16d\LL	.	8dd 8f# 8A/	8ff# 8a 8d/	.	0r	.	0r	.	0r	.	0r	.	16ff#\LL	16aa\LL	2ddT\	2ff#t\
16c#\	.	.	.	.	.	.	.	.	.	.	.	.	16dd\J	16ff#\J	.	.
16d\	.	(32f#/LLL	(32a/LLL	.	.	.	.	.	.	.	.	.	8ff#\J	8aa\J	.	.
.	.	32e/	32g/	.	.	.	.	.	.	.	.	.	.	.	.	.
16D/JJ	.	32d/	32f#/	.	.	.	.	.	.	.	.	.	.	.	.	.
.	.	32c#/JJJ)	32e/JJJ)	.	.	.	.	.	.	.	.	.	.	.	.	.
!LO:TX:t=P:problem=mixed beam	!	!	!	!	!	!	!	!	!	!	!	!	!	!	!	!
16d\LL	.	8dd 8f# 8A/	8ff# 8a 8d/	.	.	.	.	.	.	.	.	.	16ff#\LL	16aa\LL	.	.
16c#\	.	.	.	.	.	.	.	.	.	.	.	.	16dd\J	16ff#\J	.	.
16d\	.	(32a/LLL	(32f#/LLL	.	.	.	.	.	.	.	.	.	8ff#\J	8aa\J	.	.
.	.	32g/	32e/	.	.	.	.	.	.	.	.	.	.	.	.	.
16D/JJ	.	32f#/	32d/	.	.	.	.	.	.	.	.	.	.	.	.	.
.	.	32e/JJJ)	32c#/JJJ)	.	.	.	.	.	.	.	.	.	.	.	.	.
*	*	*	*custos:dd	*	*	*	*	*	*	*	*	*	*	*	*	*
!	!	!	!LO:LB:g=original	!	!	!	!	!	!	!	!	!	!	!	!	!
=101	=101	=101	=101	=101	=101	=101	=101	=101	=101	=101	=101	=101	=101	=101	=101	=101
*	*	*	*tuplet	*	*	*	*	*	*	*	*	*	*	*	*	*
!	!	!LO:TX:a:i:t=Rep&colon; bis	!	!	!	!	!	!	!	!	!	!	!	!	!	!
!	!	!LO:TUP:a:problem=klamra łukowa	!LO:TUP:a:problem=klamra łukowa	!	!	!	!	!	!	!	!	!	!	!	!	!
8d|\L	.	24dd\LL	24dd\LL	.	.	.	.	.	.	.	.	.	8dd|\L	8dd|\L	8dd|\L	8dd|\L
.	.	24cc#\	24cc#\	.	.	.	.	.	.	.	.	.	.	.	.	.
.	.	24dd\JJ	24dd\JJ	.	.	.	.	.	.	.	.	.	.	.	.	.
!	!	!LO:TUP:b:problem=klamra łukowa	!LO:TUP:b:problem=klamra łukowa	!	!	!	!	!	!	!	!	!	!	!	!	!
8A|\	.	24a/LL	24a/LL	.	.	.	.	.	.	.	.	.	8a|\J	8a|\J	8a|\J	8a|\
.	.	24g/	24g/	.	.	.	.	.	.	.	.	.	.	.	.	.
.	.	24a/JJ	24a/JJ	.	.	.	.	.	.	.	.	.	.	.	.	.
!	!	!LO:TUP:b:problem=klamra łukowa	!LO:TUP:b:problem=klamra łukowa	!	!	!	!	!	!	!	!	!	!	!	!	!
8F#|\	.	24f#/LL	24f#/LL	.	.	.	.	.	.	.	.	.	8f#|/L	8f#|/L	8f#|/L	8f#|\
.	.	24e/	24e/	.	.	.	.	.	.	.	.	.	.	.	.	.
.	.	24f#/JJ	24f#/JJ	.	.	.	.	.	.	.	.	.	.	.	.	.
!	!	!LO:TUP:b:problem=klamra łukowa	!LO:TUP:b:problem=klamra łukowa	!	!	!	!	!	!	!	!	!	!	!	!	!
8D|\J	.	24d/LL	24d/LL	.	.	.	.	.	.	.	.	.	8d|/J	8d|/J	8d|/J	8d|\J
.	.	24c#/	24c#/	.	.	.	.	.	.	.	.	.	.	.	.	.
.	.	24d/JJ	24d/JJ	.	.	.	.	.	.	.	.	.	.	.	.	.
!LO:PB:g=original	!	!	!	!	!	!	!	!	!	!	!	!	!LO:LB:g=original	!LO:LB:g=original	!	!
=102	=102	=102	=102	=102	=102	=102	=102	=102	=102	=102	=102	=102	=102	=102	=102	=102
!	!	!LO:TUP:a:problem=klamra łukowa	!	!	!	!	!	!	!	!	!	!	!	!	!	!
!	!	!LO:TX:t=P:problem=takt nr 102 zapisany repetycją	!LO:TUP:a:problem=klamra łukowa	!	!	!	!	!	!	!	!	!	!	!	!	!
8d|\L	.	24dd\LLyy	24dd\LL	.	.	.	.	.	.	.	.	.	8dd|\L	8dd|\L	8dd|\L	8dd|\L
.	.	24cc#\yy	24cc#\	.	.	.	.	.	.	.	.	.	.	.	.	.
.	.	24dd\JJyy	24dd\JJ	.	.	.	.	.	.	.	.	.	.	.	.	.
!	!	!LO:TUP:b:problem=klamra łukowa	!LO:TUP:b:problem=klamra łukowa	!	!	!	!	!	!	!	!	!	!	!	!	!
8A|\	.	24a/LLyy	24a/LL	.	.	.	.	.	.	.	.	.	8a|\J	8a|\J	8a|\J	8a|\
.	.	24g/yy	24g/	.	.	.	.	.	.	.	.	.	.	.	.	.
.	.	24a/JJyy	24a/JJ	.	.	.	.	.	.	.	.	.	.	.	.	.
!	!	!LO:TUP:b:problem=klamra łukowa	!LO:TUP:b:problem=klamra łukowa	!	!	!	!	!	!	!	!	!	!	!	!	!
8F#|\	.	24f#/LLyy	24f#/LL	.	.	.	.	.	.	.	.	.	8f#|/L	8f#|/L	8f#|/L	8f#|\
.	.	24e/yy	24e/	.	.	.	.	.	.	.	.	.	.	.	.	.
.	.	24f#/JJyy	24f#/JJ	.	.	.	.	.	.	.	.	.	.	.	.	.
!	!	!LO:TUP:b:problem=klamra łukowa	!LO:TUP:b:problem=klamra łukowa	!	!	!	!	!	!	!	!	!	!	!	!	!
8D|\J	.	24d/LLyy	24d/LL	.	.	.	.	.	.	.	.	.	8d|/J	8d|/J	8d|/J	8d|\J
.	.	24c#/yy	24c#/	.	.	.	.	.	.	.	.	.	.	.	.	.
!	!	!LO:TX:b:i:t=Volti Subito	!	!	!	!	!	!	!	!	!	!	!	!	!	!
.	.	24d/JJyy	24d/JJ	.	.	.	.	.	.	.	.	.	.	.	.	.
!	!	!LO:PB:g=original	!	!	!	!	!	!	!	!	!	!	!	!	!	!
=103	=103	=103	=103	=103	=103	=103	=103	=103	=103	=103	=103	=103	=103	=103	=103	=103
4G\	6	8r	16bb\LL	.	.	.	.	.	.	.	.	.	4.ee\	4.gg\	16r	(16bb\LL
.	.	.	16gg\	.	.	.	.	.	.	.	.	.	.	.	16b/LL	16gg\
*	*	*Xtuplet	*	*	*	*	*	*	*	*	*	*	*	*	*	*
.	.	24b/LL	16ff#\	.	.	.	.	.	.	.	.	.	.	.	16a/	16ff#\
.	.	24a/	.	.	.	.	.	.	.	.	.	.	.	.	.	.
.	.	.	16ee\JJ	.	.	.	.	.	.	.	.	.	.	.	16g/JJ	16ee\JJ)
.	.	24g/JJ	.	.	.	.	.	.	.	.	.	.	.	.	.	.
4A\	6 4	8f#/L	8dd\L	.	.	.	.	.	.	.	.	.	.	.	8f#/L	8dd\L
.	5 3	8eT/J	8cc#t\J	.	.	.	.	.	.	.	.	.	8ee\	8gg\	8e/J	8cc#t\J
=104	=104	=104	=104	=104	=104	=104	=104	=104	=104	=104	=104	=104	=104	=104	=104	=104
.	.	.	8qqcc#/	.	.	.	.	.	.	.	.	.	.	.	.	8qqcc#/
8B\L	.	4d/	4dd\	.	2r	.	1r	.	1r	.	1r	.	4dd\	4ff#\	4d/	4dd\
8A\	.	.	.	.	.	.	.	.	.	.	.	.	.	.	.	.
8F#\	6	[4dd\	4aa\	.	.	.	.	.	.	.	.	.	4ff#\	4aa\	[4dd\	4aa\
8F#\J	.	.	.	.	.	.	.	.	.	.	.	.	.	.	.	.
!	!	!	!	!	!LO:LB:g=original	!	!	!	!	!	!	!	!	!	!	!
=105	=105	=105	=105	=105	=105	=105	=105	=105	=105	=105	=105	=105	=105	=105	=105	=105
!LO:TX:t=P:problem=mixed beam	!	!	!	!	!LO:TX:t=P:problem=brak taktu nr 105	!	!	!	!	!	!	!	!	!	!	!
8G\L	6	16dd\LL]	(16bb\LL	.	2ryy	.	.	.	.	.	.	.	8ee\L	8gg\L	16dd\LL]	(16bb\LL
.	.	16b\	16gg\	.	.	.	.	.	.	.	.	.	.	.	16b\	16gg\
8G\	.	16a\	16ff#\	.	.	.	.	.	.	.	.	.	8ee\	8gg\	16a\	16ff#\
.	.	16g\JJ	16ee\JJ)	.	.	.	.	.	.	.	.	.	.	.	16g\JJ	16ee\JJ)
!	!	!	!	!	!	!	!	!	!	!	!	!	!	!	!LO:LB:g=original	!
8A\	6 4	8f#/L	8dd\L	.	.	.	.	.	.	.	.	.	8dd\	8ff#\	8f#/L	8dd\L
8AA/J	7 3	8eT/J	8cc#t\J	.	.	.	.	.	.	.	.	.	8a\J	8ee\J	8eT/J	8cc#t\J
=106	=106	=106	=106	=106	=106	=106	=106	=106	=106	=106	=106	=106	=106	=106	=106	=106
*M2/2	*	*M2/2	*M2/2	*	*M2/2	*	*M2/2	*	*M2/2	*	*M2/2	*	*M2/2	*M2/2	*M2/2	*M2/2
*met(c|)	*	*met(c|)	*met(c|)	*	*met(c|)	*	*met(c|)	*	*met(c|)	*	*met(c|)	*	*met(c|)	*met(c|)	*met(c|)	*met(c|)
*^	*	*	*	*	*	*	*	*	*	*	*	*	*	*	*	*
!	!	!	!	!	!	!	!	!	!	!	!	!	!	!LO:TX:b:i:t=Rorate	!	!LO:TX:b:i:t=Rorate.	!LO:TX:b:i:t=Rorate
!LO:TX:a:i:t=Allebreve.	!	!	!LO:TX:a:Bi:t=Allab&colon; Allo aſsai.	!LO:TX:a:Bi:t=Allab&colon; Allo aſsai.	!	!LO:TX:a:Bi:t=Allab&colon;	!	!LO:TX:a:Bi:t=Allabreve	!	!LO:TX:a:Bi:t=Allab&colon;	!	!	!	!LO:TX:a:Bi:t=Allab&colon;	!LO:TX:a:Bi:t=Allab&colon;	!LO:TX:a:Bi:t=Allab&colon;	!LO:TX:a:Bi:t=Allab.
2D|/	2ryy	.	4d/	[1dd	.	00r	.	00r	.	4r	.	1dd	Ro-	2f#/	2ff#\	2f#/	2dd\
!	!	!	!	!	!	!	!	!	!	!LO:TX:a:Bi:t=Allo aſsai.	!	!	!	!	!	!	!
.	.	.	4d/	.	.	.	.	.	.	4d\	Ro-	.	.	.	.	.	.
*clefC1	*	*	*	*	*	*	*	*	*	*	*	*	*	*	*	*	*
!LO:TX:a:Bi:t=Allo aſsai.	!	!	!	!	!	!	!	!	!	!	!	!	!	!	!	!	!LO:TX:a:Bi:t=Allo aſsai.
[2dd/	4f#\	.	4f#/	.	.	.	.	.	.	4f#\	-ra-	.	.	2r	2r	2r	2r
.	4d\	.	4d/	.	.	.	.	.	.	4d\	-te	.	.	.	.	.	.
=107	=107	=107	=107	=107	=107	=107	=107	=107	=107	=107	=107	=107	=107	=107	=107	=107	=107
*2\right	*	*	*	*2\right	*	*	*	*	*	*	*	*	*	*	*	*	*
!	!	!	!	!	!	!	!	!	!	!	!	!	!	!LO:TX:a:Bi:t=Allo aſsai	!	!	!
2dd/]	4e\	.	4e/	2dd\]	.	.	.	.	.	(4e\	Cae-	2dd\	-ra-	00r	00r	00r	00r
.	4A\	.	4A/	.	.	.	.	.	.	4A/)	.	.	.	.	.	.	.
2cc#/	[2a\	.	[2a/	2cc#\	.	.	.	.	.	[2a\	.	2cc#\	-te	.	.	.	.
=108	=108	=108	=108	=108	=108	=108	=108	=108	=108	=108	=108	=108	=108	=108	=108	=108	=108
4b/	2a\]	.	2a/]	4b/	.	.	.	.	.	2a\]	.	4b\	Cae-	.	.	.	.
!	!	!	!	!	!	!	!	!	!	!	!	!LO:TX:a:t=e	!	!	!	!	!
4e/	.	.	.	4e/	.	.	.	.	.	.	.	4e/	.	.	.	.	.
[2ee/	2g\	.	2g/	[2ee\	.	.	.	.	.	2g\	-li	[2ee\	.	.	.	.	.
!	!	!	!	!LO:LB:g=original	!	!	!	!	!	!LO:LB:g=original	!	!	!	!	!	!	!
=109	=109	=109	=109	=109	=109	=109	=109	=109	=109	=109	=109	=109	=109	=109	=109	=109	=109
4ee/]	2.f#\	.	2.f#/	4ee\]	.	.	.	.	.	2.f#\	de-	4ee\]	.	.	.	.	.
4a/	.	.	.	4a\	.	.	.	.	.	.	.	4a\	.	.	.	.	.
!LO:LB:g=original	!	!	!	!	!	!	!	!	!	!	!	!	!	!	!	!	!
[2dd/	.	.	.	[2dd\	.	.	.	.	.	.	.	2dd\	-li	.	.	.	.
.	8e\L	.	8e/L	.	.	.	.	.	.	(8e\L	.	.	.	.	.	.	.
.	8d\J	.	8d/J	.	.	.	.	.	.	8d\J)	.	.	.	.	.	.	.
=110	=110	=110	=110	=110	=110	=110	=110	=110	=110	=110	=110	=110	=110	=110	=110	=110	=110
4dd/]	1e	.	1e	4dd\]	.	00r	.	00r	.	1e	-su-	4dd\	de-	.	.	.	.
8cc#/L	.	.	.	8cc#\L	.	.	.	.	.	.	.	8cc#\L	.	.	.	.	.
8b/J	.	.	.	8b\J	.	.	.	.	.	.	.	8b\J	.	.	.	.	.
2cc#/	.	.	.	2cc#\	.	.	.	.	.	.	.	2cc#\	.	.	.	.	.
!	!	!	!LO:LB:g=original	!	!	!	!	!	!	!	!	!	!	!	!	!	!
=111	=111	=111	=111	=111	=111	=111	=111	=111	=111	=111	=111	=111	=111	=111	=111	=111	=111
2.dd/	4d\	.	4d/	2.dd\	.	.	.	.	.	4d,<\	-per,	2.dd\	.	00r	00r	00r	00r
.	4e\	.	4e/	.	.	.	.	.	.	4e\	Ro-	.	.	.	.	.	.
.	4f#\	.	4f#/	.	.	.	.	.	.	4f#\	-ra-	.	.	.	.	.	.
8cc#/L	4g#X\	.	4g#X/	8cc#\L	.	.	.	.	.	4g#X\	.	8cc#\L	-Su-	.	.	.	.
8b/J	.	.	.	8b\J	.	.	.	.	.	.	.	8b\J	.	.	.	.	.
!	!	!	!	!	!	!	!	!	!	!	!	!LO:LB:g=original	!	!	!	!	!
=112	=112	=112	=112	=112	=112	=112	=112	=112	=112	=112	=112	=112	=112	=112	=112	=112	=112
4cc#/	[1a	.	[1a	4cc#\	.	.	.	.	.	1a	.	4cc#\	-per	.	.	.	.
4a/	.	.	.	4a/	.	.	.	.	.	.	.	4a\	ro-	.	.	.	.
4cc#/	.	.	.	4cc#\	.	.	.	.	.	.	.	4cc#\	-ra-	.	.	.	.
4a/	.	.	.	4a/	.	.	.	.	.	.	.	4a\	-te,	.	.	.	.
=113	=113	=113	=113	=113	=113	=113	=113	=113	=113	=113	=113	=113	=113	=113	=113	=113	=113
4b/	2a\]	.	2a/]	4b/	.	.	.	.	.	2a\	.	4b\	cae-	.	.	.	.
4e/	.	.	.	4e/	.	.	.	.	.	.	.	4e/	.	.	.	.	.
[2ee/	2g#X\	.	2g#X/	[2ee\	.	.	.	.	.	2g#X\	-te	[2ee\	.	.	.	.	.
=114	=114	=114	=114	=114	=114	=114	=114	=114	=114	=114	=114	=114	=114	=114	=114	=114	=114
2ee/]	4f#\	.	4f#/	2ee\]	.	00r	.	00r	.	(4f#\	Cae-	2ee\]	.	.	.	.	.
.	4B\	.	4B/	.	.	.	.	.	.	4B/)	.	.	.	.	.	.	.
2dd/	[2b\	.	[2b/	2dd\	.	.	.	.	.	2b\	.	2dd\	-li	.	.	.	.
=115	=115	=115	=115	=115	=115	=115	=115	=115	=115	=115	=115	=115	=115	=115	=115	=115	=115
2.cc#/	4b\]	.	4b/]	2.cc#\	.	.	.	.	.	(4b\	.	2.cc#\	de-	0r	0r	0r	0r
.	4e\	.	4e/	.	.	.	.	.	.	4e\)	.	.	.	.	.	.	.
.	[2a\	.	[2a/	.	.	.	.	.	.	2a\	-li	.	.	.	.	.	.
8b/L	.	.	.	8b/L	.	.	.	.	.	.	.	8b\L	.	.	.	.	.
8a/J	.	.	.	8a/J	.	.	.	.	.	.	.	8a\J	.	.	.	.	.
!LO:LB:g=original	!	!	!	!	!	!	!	!	!	!	!	!	!	!	!	!	!
=116	=116	=116	=116	=116	=116	=116	=116	=116	=116	=116	=116	=116	=116	=116	=116	=116	=116
1b	4a\]	.	4a/]	1b	.	.	.	.	.	4a\	de	1b	-su-	.	.	.	.
.	8g#X\L	.	8g#X/L	.	.	.	.	.	.	8g#X\L	.	.	.	.	.	.	.
.	8f#\J	.	8f#X/J	.	.	.	.	.	.	8f#\J	.	.	.	.	.	.	.
.	2g#\	.	2g#X/	.	.	.	.	.	.	2g#X\	su-	.	.	.	.	.	.
!	!	!	!	!	!	!	!	!	!	!LO:PB:g=original	!	!	!	!	!	!	!
=117	=117	=117	=117	=117	=117	=117	=117	=117	=117	=117	=117	=117	=117	=117	=117	=117	=117
4a/	4a\	.	4a/	4a/	.	.	.	.	.	4a\	-per	4a,<\	-per	1r	1r	1r	1r
4a/	4gn\	.	4gn/	4a/	.	.	.	.	.	4gn\	Ro-	4a\	ro-	.	.	.	.
4b/	4f#\	.	4f#/	4b/	.	.	.	.	.	(4f#\	-ra-	(4b\	-ra-	.	.	.	.
4cc#/	4e\	.	4e/	4cc#/	.	.	.	.	.	4e\)	.	4cc#\)	.	.	.	.	.
!	!	!	!LO:LB:g=original	!	!	!	!	!	!	!	!	!	!	!	!	!	!
=118	=118	=118	=118	=118	=118	=118	=118	=118	=118	=118	=118	=118	=118	=118	=118	=118	=118
!	!	!	!	!	!	!	!	!LO:TX:a:Bi:t=Allo. aſsai.	!	!	!	!	!	!	!	!	!
4dd/	4d\	.	2d/	4dd\	.	4r	.	1d	Ro-	4f#,<\	-te	2dd\	-te	4r	4r	2r	4r
*clefF4	*	*	*2\right	*	*	*	*	*	*	*	*	*	*	*	*	*	*
4D\	4ryy	.	.	4ff#\	.	4D\	Ro-	.	.	4f#\	Ro-	.	.	4d/	4d/	.	4ff#\
4F#\	2ryy	6	[2dd\	4aa\	.	4F#\	-ra-	.	.	4a\	-ra-	2r	.	4f#/	4f#/	[2dd\	4aa\
4D\	.	.	.	4ff#\	.	4D\	-te	.	.	4f#\	-te	.	.	4d/	4d/	.	4ff#\
*v	*v	*	*	*	*	*	*	*	*	*	*	*	*	*	*	*	*
!	!	!	!LO:LB:g=original	!	!	!	!	!	!	!	!	!	!	!	!	!LO:LB:g=original
=119	=119	=119	=119	=119	=119	=119	=119	=119	=119	=119	=119	=119	=119	=119	=119	=119
!	!	!	!	!	!	!	!	!	!	!	!LO:TX:a:t=11.	!	!	!	!	!
4E\	7	2dd\]	2gg\	.	4E\	Cae-	2d\	-ra-	2g\	Cae-	00r	.	2a/	2a/	2dd\]	2gg\
4AA/	.	.	.	.	4AA/	.	.	.	.	.	.	.	.	.	.	.
[2A\	3	2cc#\	2ee\	.	[2A\	.	2c#\	-te	2e\	-li	.	.	2r	2r	2cc#\	2ee\
!	!	!	!	!	!	!	!LO:LB:g=original	!	!	!	!	!	!	!	!	!
=120	=120	=120	=120	=120	=120	=120	=120	=120	=120	=120	=120	=120	=120	=120	=120	=120
*	*	*	*	*	*	*	*	*	*	*ij	*	*	*	*	*	*
2A\]	2	4b/	2dd\	.	2A\]	.	(<4B\	Cae-	2d\	Cae-	.	.	2ff#\	2ff#\	4b/	2dd\
.	.	4e/	.	.	.	.	4E/)	.	.	.	.	.	.	.	4e/	.
2G\	6	[2ee\	2bb\	.	2G\	-li	[2e\	.	2b\	-li	.	.	[2ee\	[2ee\	[2ee\	2bb\
*	*	*	*	*	*	*	*	*	*	*Xij	*	*	*	*	*	*
=121	=121	=121	=121	=121	=121	=121	=121	=121	=121	=121	=121	=121	=121	=121	=121	=121
2.F#\	7	4ee\]	2.aa\	.	2.F#\	de-	4e\]	.	2.a\	de-	.	.	2ee\]	2ee\]	4ee\]	2.aa\
.	.	4a/	.	.	.	.	4A/	.	.	.	.	.	.	.	4a\	.
.	6	[2dd\	.	.	.	.	2d\	-li	.	.	.	.	2dd\	2dd\	[2dd\	.
8E\L	.	.	8gg\L	.	8E\L	.	.	.	(8g\L	.	.	.	.	.	.	8gg\L
8D\J	.	.	8ff#\J	.	8D\J	.	.	.	8f#\J)	.	.	.	.	.	.	8ff#\J
=122	=122	=122	=122	=122	=122	=122	=122	=122	=122	=122	=122	=122	=122	=122	=122	=122
1E	7	4dd\]	1gg	.	1E	-su-	4d\	de-	1g	-su-	.	.	2.ee\	2.gg\	4dd\]	1gg
.	.	8cc#\L	.	.	.	.	8c#\L	.	.	.	.	.	.	.	8cc#\L	.
.	.	8b\J	.	.	.	.	8B\J	.	.	.	.	.	.	.	8b\J	.
.	6	2cc#\	.	.	.	.	2c#\	-su-	.	.	.	.	.	.	2cc#\	.
.	.	.	.	.	.	.	.	.	.	.	.	.	4ee\	4gg\	.	.
=123	=123	=123	=123	=123	=123	=123	=123	=123	=123	=123	=123	=123	=123	=123	=123	=123
*	*	*	*	*	*	*	*	*	*	*	*	*	*	*^	*	*
*	*	*	*	*	*	*	*	*	*	*	*	*	*	*	*2\left	*	*
4D\	.	2.dd\	4ff#\	.	(4D/	-per	2.d\	.	4f#\	.	00r	.	2a/	2.ff#/	2.ff#\	2.dd\	4ff#\
4E\	.	.	4gg\	.	4E\)	.	.	.	4g\	.	.	.	.	.	.	.	4gg\
4F#\	6	.	4aa\	.	(4F#\	[[per]]	.	.	4a\	.	.	.	2dd\	.	.	.	4aa\
4G#X\	.	8cc#\L	4bb\	.	4G#X\)	.	8c#\L	.	4b\	.	.	.	.	4ff#/	4rdyy	8cc#\L	4bb\
.	.	8b\J	.	.	.	.	8B\J	.	.	.	.	.	.	.	.	8b\J	.
*	*	*	*	*	*	*	*	*	*	*	*	*	*	*v	*v	*	*
!LO:LB:g=original	!	!	!	!	!	!	!	!	!	!	!	!	!LO:LB:g=original	!	!	!
=124	=124	=124	=124	=124	=124	=124	=124	=124	=124	=124	=124	=124	=124	=124	=124	=124
*	*	*	*	*	*	*	*	*	*	*	*	*	*	*2\right	*	*
[1A	.	4cc#\	4ee\	.	1A	Ro-	4c#,<\	-per,	4e,<\	-per.	.	.	2a/	2ee\	4cc#\	4ee\
.	.	4a\	4cc#\	.	.	.	4A\	Ro-	4c#/	Ro-	.	.	.	.	4a\	4cc#\
!	!	!	!	!	!LO:TX:b:i:t=V&colon; S&colon;	!	!	!	!LO:LB:g=original	!	!	!	!	!	!	!
.	.	4cc#\	4ee\	.	.	.	4c#\	-ra-	4e\	-ra-	.	.	2r	2r	4cc#\	4ee\
.	.	4a\	4cc#\	.	.	.	4A\	-te	4c#/	-te	.	.	.	.	4a\	4cc#\
*	*	*	*	*	*custos:A	*	*	*	*	*	*	*	*	*	*	*
!	!	!LO:LB:g=original	!	!	!LO:PB:g=original	!	!	!	!	!	!	!	!	!LO:LB:g=original	!	!
=125	=125	=125	=125	=125	=125	=125	=125	=125	=125	=125	=125	=125	=125	=125	=125	=125
!	!	!	!	!	!	!	!	!	!	!	!	!	!	!LO:TX:a:t=5.	!	!
2A\]	2	4b/	2dd\	.	2A\	-ra-	(4B\	Cae-	2d\	Cae-	.	.	00r	00r	4b/	2dd\
.	.	4e/	.	.	.	.	4G/)	.	.	.	.	.	.	.	4e/	.
2G#X\	6	[2ee\	2bb\	.	2G#X\	-te	[2e\	.	2b\	-li	.	.	.	.	[2ee\	2bb\
!	!	!	!	!	!	!	!LO:PB:g=original	!	!	!	!	!	!	!	!LO:LB:g=original	!
=126	=126	=126	=126	=126	=126	=126	=126	=126	=126	=126	=126	=126	=126	=126	=126	=126
4F#\	7	2ee\]	2aa\	.	(4F#\	Cae-	2e\]	.	2a\	de-	.	.	.	.	2ee\]	2aa\
4BB/	.	.	.	.	4BB/)	.	.	.	.	.	.	.	.	.	.	.
[2B\	3	2dd\	2ff#\	.	[2B\	.	2d\	-li	2f#\	-su-	.	.	.	.	2dd\	2ff#\
=127	=127	=127	=127	=127	=127	=127	=127	=127	=127	=127	=127	=127	=127	=127	=127	=127
4B\]	2	2.cc#\	2.ee\	.	4B\]	.	2.c#\	de-	2e\	-per	0r	.	.	.	2.cc#\	2.ee\
4E\	.	.	.	.	4E\	-li	.	.	.	.	.	.	.	.	.	.
[2A\	5	.	.	.	[2A\	.	.	.	2e\	de	.	.	.	.	.	.
.	.	8b/L	8dd\L	.	.	.	8B\L	.	.	.	.	.	.	.	8b/L	8dd\L
.	.	8a/J	8cc#\J	.	.	.	8A\J	.	.	.	.	.	.	.	8a/J	8cc#\J
=128	=128	=128	=128	=128	=128	=128	=128	=128	=128	=128	=128	=128	=128	=128	=128	=128
2A\]	2	1b	2.dd\	.	2A\]	de-	1B	-su-	2.d\	su-	.	.	.	.	1b	2.dd\
2G#X\	6 5	.	.	.	2G#X\	-su-	.	.	.	.	.	.	.	.	.	.
.	.	.	4ee\	.	.	.	.	.	4e\	.	.	.	.	.	.	4ee\
=129	=129	=129	=129	=129	=129	=129	=129	=129	=129	=129	=129	=129	=129	=129	=129	=129
4A\	.	4a/	4cc#\	.	4A\	-per	4A,<\	-per,	4c#,</	-per,	1r	.	1r	1r	4a/	4cc#\
4Gn\	4 2	4a/	4cc#\	.	4Gn\	ro-	4A\	ro-	4c#/	ro-	.	.	.	.	4a/	4cc#\
4F#\	6 4	4b/	4dd\	.	(4F#\	-ra-	(4B\	-ra-	(4d\	-ra-	.	.	.	.	4b/	4dd\
4E\	6	4cc#/	4ee\	.	4E\)	.	4c#\)	.	4e\)	.	.	.	.	.	4cc#/	4ee\
!	!	!	!LO:LB:g=original	!	!	!	!	!	!	!	!LO:PB:g=original	!	!	!	!	!LO:LB:g=original
=130	=130	=130	=130	=130	=130	=130	=130	=130	=130	=130	=130	=130	=130	=130	=130	=130
2.D\	.	[1dd	4ff#\	.	2.D,<\	-te	2.d\	-te	4g\	-te	1dd	&	4r	4r	[1dd	4ff#\
.	.	.	4dd\	.	.	.	.	.	4d\	et	.	.	8dd\L	8ff#\L	.	4dd\
.	.	.	.	.	.	.	.	.	.	.	.	.	8ee\J	8gg\J	.	.
.	.	.	4ff#\	.	.	.	.	.	4f#\	nu-	.	.	4dd\	4ff#\	.	4ff#\
4F#\	.	.	4dd\	.	4F#\	(et)	4d\	et	4d\	-bes	.	.	4dd\	4ff#\	.	4dd\
=131	=131	=131	=131	=131	=131	=131	=131	=131	=131	=131	=131	=131	=131	=131	=131	=131
2A\	4	2dd\]	4ee\	.	2A\	nu-	2A\	nu-	(4e\	plu-	2dd\	nu-	2a/	2ee\	2dd\]	4ee\
.	.	.	4a/	.	.	.	.	.	4c#\)	.	.	.	.	.	.	4a/
2AA/	3	2cc#\	[2aa\	.	2AA/	-bes,	2e\	-bes	[2a\	-ant	2cc#\	-bes	2r	2r	2cc#\	[2aa\
!	!	!	!	!	!	!	!	!	!LO:LB:g=original	!	!	!	!	!	!	!
=132	=132	=132	=132	=132	=132	=132	=132	=132	=132	=132	=132	=132	=132	=132	=132	=132
2.E\	4	4b/	4aa\]	.	(2.E\	et	2r	.	4a\]	.	4b\	plu-	1r	1r	4b/	4aa\]
.	.	4e/	4ee\	.	.	.	.	.	4e\	et	4e/	.	.	.	4e/	4ee\
.	3	[2ee\	4gg\	.	.	.	2e\	&	4g\	nu-	[2ee\	-ant	.	.	[2ee\	4gg\
4G\	.	.	4ee\	.	4G\)	.	.	.	4e\	-bes	.	.	.	.	.	4ee\
!	!	!LO:LB:g=original	!	!	!LO:LB:g=original	!	!	!	!	!	!	!	!	!	!	!
=133	=133	=133	=133	=133	=133	=133	=133	=133	=133	=133	=133	=133	=133	=133	=133	=133
2B\	4	2ee\]	4ff#\	.	2B\	nu-	2B\	nu-	(4f#\	plu-	2ee\]	.	4r	4r	2ee\]	4ff#\
.	.	.	4b/	.	.	.	.	.	4B/)	.	.	.	8f#/L	8f#/L	.	4b/
.	.	.	.	.	.	.	.	.	.	.	.	.	8f#/J	8f#/J	.	.
2BB/	3	2dd\	[2bb\	.	2BB/	-bes	2f#\	-bes	[2b\	-ant	2dd,<\	[[ant]]	4f#/	4f#/	2dd\	[2bb\
.	.	.	.	.	.	.	.	.	.	.	.	.	4f#/	4f#/	.	.
*custos:F	*	*	*	*	*	*	*	*	*	*	*	*	*	*	*	*
!LO:LB:g=original	!	!	!	!	!	!	!LO:LB:g=original	!	!	!	!	!	!	!	!	!
=134	=134	=134	=134	=134	=134	=134	=134	=134	=134	=134	=134	=134	=134	=134	=134	=134
2.F#\	.	4cc#\	4bb\]	.	2.F#\	plu-	2r	.	4b\]	.	4cc#\	plu-	2f#/	2f#/	4cc#\	4bb\]
.	.	4f#/	4ff#\	.	.	.	.	.	4f#\	et	4f#/	.	.	.	4f#/	4ff#\
.	3	[2ff#\	4aa\	.	.	.	2f#\	(et)	4a\	nu-	[2ff#\	-ant	2r	2r	[2ff#\	4aa\
4A\	.	.	4ff#\	.	4A\	-ant	.	.	4f#\	-bes	.	.	.	.	.	4ff#\
=135	=135	=135	=135	=135	=135	=135	=135	=135	=135	=135	=135	=135	=135	=135	=135	=135
2.c#\	5\ 4	2ff#\]	4gg#X\	.	2.c#\	Jus-	2c#\	nu-	4g#X\	plu-	2ff#\]	.	00r	00r	2ff#\]	4gg#X\
.	.	.	4ee\	.	.	.	.	.	4e\	.	.	.	.	.	.	4cc#\
.	3	[2ee\	[2ccc#\	.	.	.	2g#X\	-bes	[2cc#\	.	[2ee\	.	.	.	[2ee\	[2ccc#\
4B\	.	.	.	.	4B\	-tum	.	.	.	.	.	.	.	.	.	.
=136	=136	=136	=136	=136	=136	=136	=136	=136	=136	=136	=136	=136	=136	=136	=136	=136
4A#X\	6 5	2ee\]	4ccc#\]	.	4A#X\	plu-	1f#	plu-	4cc#\]	.	2ee\]	.	.	.	2ee\]	4ccc#\]
4F#\	.	.	4aa#X\	.	4F#\	-ant,	.	.	4a#X\	.	.	.	.	.	.	4aa#X\
4r	.	[2dd\	[2bb\	.	4r	.	.	.	[2b\	.	[2dd\	.	.	.	[2dd\	[2bb\
4B\	.	.	.	.	4B\	et	.	.	.	.	.	.	.	.	.	.
=137	=137	=137	=137	=137	=137	=137	=137	=137	=137	=137	=137	=137	=137	=137	=137	=137
4G#X\	6 5	2dd\]	4bb\]	.	4G#X\	nu-	1e	.	4b\]	.	2dd\]	.	.	.	2dd\]	4bb\]
4E\	.	.	4gg#X\	.	4E\	-bes,	.	.	4g#X\	.	.	.	.	.	.	4gg#X\
4r	.	[2ccn\	[2aan\	.	4r	.	.	.	[2an\	.	[2ccn\	.	.	.	[2ccn\	[2aan\
4A\	n	.	.	.	4A\	et	.	.	.	.	.	.	.	.	.	.
!	!	!	!	!	!	!	!	!	!LO:LB:g=original	!	!	!	!	!	!	!
=138	=138	=138	=138	=138	=138	=138	=138	=138	=138	=138	=138	=138	=138	=138	=138	=138
!	!	!	!	!	!	!	!	!	!LO:TX:a:t=P:problem=brak zakończenia ligatury	!	!	!	!	!	!	!
4F#\	6 n5	2cc\]	4aa\]	.	4F#\	nu-	1d	-ant	4a\]	.	2cc\]	.	.	.	2cc\]	4aa\]
4D\	.	.	4ff#\	.	4D\	-bes	.	.	4f#\	.	.	.	.	.	.	4ff#\
4G\	.	2b/	[2ggn\	.	4G\	plu-	.	.	2gn\	-ant	2b\	[[ant]]	.	.	2b\	[2ggn\
4BB/	.	.	.	.	4BB/	-ant	.	.	.	.	.	.	.	.	.	.
!	!	!	!	!	!	!	!	!	!	!	!LO:LB:g=original	!	!	!	!LO:LB:g=original	!
=139	=139	=139	=139	=139	=139	=139	=139	=139	=139	=139	=139	=139	=139	=139	=139	=139
2Cn/	6 5	1aT	2gg\]	.	2Cn/	Jus-	(2e\	Jus-	2g\	Jus-	1aT	Jus-	2r	2r	1aT	2gg\]
2D/	.	.	2ff#t\	.	2D/	.	2d\)	.	2f#t\	.	.	.	4d/	4d/	.	2ff#t\
.	.	.	.	.	.	.	.	.	.	.	.	.	4d/	4d/	.	.
!	!	!	!LO:LB:g=original	!	!LO:LB:g=original	!	!	!	!	!	!	!	!	!	!	!LO:LB:g=original
=140	=140	=140	=140	=140	=140	=140	=140	=140	=140	=140	=140	=140	=140	=140	=140	=140
4GG/	.	2g/	2gg\	.	2GG,</	-tum,	2d\	-tum	2g\	-tum	2g/	-tum	4d/	4d/	2g/	2gg\
4G\	.	.	.	.	.	.	.	.	.	.	.	.	8d/L	8d/L	.	.
.	.	.	.	.	.	.	.	.	.	.	.	.	8d/J	8d/J	.	.
4B\	6	2r	2r	.	2G\	a-	2r	.	2r	.	2r	.	4d/	4d/	2r	2r
4G\	.	.	.	.	.	.	.	.	.	.	.	.	4d/	4d/	.	.
=141	=141	=141	=141	=141	=141	=141	=141	=141	=141	=141	=141	=141	=141	=141	=141	=141
!	!	!LO:TX:a:t=11.	!LO:TX:a:t=17.	!	!	!	!	!	!	!	!LO:TX:a:t=17.	!	!	!	!	!LO:TX:a:t=17.
4A\	7 n	00r	00r	.	2G\	-pe-	00r	.	00r	.	00r	.	2d/	2d/	00r	00r
4F#\	.	.	.	.	.	.	.	.	.	.	.	.	.	.	.	.
[2d\	.	.	.	.	2F#\	-ri-	.	.	.	.	.	.	2r	2r	.	.
!	!	!	!	!	!	!	!	!	!	!	!	!	!LO:LB:g=original	!	!	!
=142	=142	=142	=142	=142	=142	=142	=142	=142	=142	=142	=142	=142	=142	=142	=142	=142
2d\]	2	.	.	.	4E\	-a-	.	.	.	.	.	.	00r	00r	.	.
.	.	.	.	.	4AA/	.	.	.	.	.	.	.	.	.	.	.
2cn\	6	.	.	.	[2A\	.	.	.	.	.	.	.	.	.	.	.
!LO:LB:g=original	!	!	!	!	!	!	!	!	!	!	!	!	!	!	!	!
=143	=143	=143	=143	=143	=143	=143	=143	=143	=143	=143	=143	=143	=143	=143	=143	=143
2.B\	6	.	.	.	4A\]	.	.	.	.	.	.	.	.	.	.	.
.	.	.	.	.	4D/	.	.	.	.	.	.	.	.	.	.	.
.	.	.	.	.	2G\	-tur	.	.	.	.	.	.	.	.	.	.
8A\L	.	.	.	.	.	.	.	.	.	.	.	.	.	.	.	.
8G\J	.	.	.	.	.	.	.	.	.	.	.	.	.	.	.	.
=144	=144	=144	=144	=144	=144	=144	=144	=144	=144	=144	=144	=144	=144	=144	=144	=144
2.A\	7 n3	.	.	.	4G\	ter-	.	.	.	.	.	.	.	.	.	.
.	.	.	.	.	8F#\L	.	.	.	.	.	.	.	.	.	.	.
.	.	.	.	.	8E\J	.	.	.	.	.	.	.	.	.	.	.
.	6	.	.	.	2F#\	.	.	.	.	.	.	.	.	.	.	.
4AA/	.	.	.	.	.	.	.	.	.	.	.	.	.	.	.	.
=145	=145	=145	=145	=145	=145	=145	=145	=145	=145	=145	=145	=145	=145	=145	=145	=145
4GG/	.	00r	00r	.	2.G\	.	1r	.	00r	.	00r	.	.	.	00r	00r
4AA/	.	.	.	.	.	.	.	.	.	.	.	.	.	.	.	.
4BB/	6	.	.	.	.	.	.	.	.	.	.	.	.	.	.	.
4C#X/	.	.	.	.	8F#\L	.	.	.	.	.	.	.	.	.	.	.
.	.	.	.	.	8E\J	.	.	.	.	.	.	.	.	.	.	.
=146	=146	=146	=146	=146	=146	=146	=146	=146	=146	=146	=146	=146	=146	=146	=146	=146
4D\	.	.	.	.	4F#,<\	-ra	1d	a-	.	.	.	.	00r	00r	.	.
4D\	.	.	.	.	4F#\	a-	.	.	.	.	.	.	.	.	.	.
4F#\	6	.	.	.	4A\	-pe-	.	.	.	.	.	.	.	.	.	.
4D\	.	.	.	.	4F#\	-ri-	.	.	.	.	.	.	.	.	.	.
!	!	!	!	!	!LO:LB:g=original	!	!	!	!	!	!	!	!	!	!	!
=147	=147	=147	=147	=147	=147	=147	=147	=147	=147	=147	=147	=147	=147	=147	=147	=147
1AA	4	.	.	.	4E\	-a-	2d\	-pe-	.	.	.	.	.	.	.	.
.	.	.	.	.	4AA/	.	.	.	.	.	.	.	.	.	.	.
.	#	.	.	.	[2A\	.	2c#X\	-ri-	.	.	.	.	.	.	.	.
!	!	!	!	!	!	!	!LO:LB:g=original	!	!	!	!	!	!	!	!	!
=148	=148	=148	=148	=148	=148	=148	=148	=148	=148	=148	=148	=148	=148	=148	=148	=148
1E	4	.	.	.	2A\]	.	(4B\	-a-	.	.	.	.	.	.	.	.
.	.	.	.	.	.	.	4E/)	.	.	.	.	.	.	.	.	.
.	3	.	.	.	2G\	.	[2e\	.	.	.	.	.	.	.	.	.
=149	=149	=149	=149	=149	=149	=149	=149	=149	=149	=149	=149	=149	=149	=149	=149	=149
2.F#\	7	0r	00r	.	2.A\	.	4e\]	.	0r	.	00r	.	.	.	0r	00r
.	.	.	.	.	.	.	4A/	.	.	.	.	.	.	.	.	.
.	6	.	.	.	.	.	2d\	-tur	.	.	.	.	.	.	.	.
8E\L	.	.	.	.	8G\L	-tur	.	.	.	.	.	.	.	.	.	.
8D\J	.	.	.	.	8F#\J	.	.	.	.	.	.	.	.	.	.	.
=150	=150	=150	=150	=150	=150	=150	=150	=150	=150	=150	=150	=150	=150	=150	=150	=150
1E	7	.	.	.	1G	ter-	4d\	ter-	.	.	.	.	1r	1r	.	.
.	.	.	.	.	.	.	8c#X\L	.	.	.	.	.	.	.	.	.
.	.	.	.	.	.	.	8B\J	.	.	.	.	.	.	.	.	.
.	6	.	.	.	.	.	2c#X\	.	.	.	.	.	.	.	.	.
=151	=151	=151	=151	=151	=151	=151	=151	=151	=151	=151	=151	=151	=151	=151	=151	=151
4D\	.	1r	.	.	4F#\	-ra	2.d\	.	1r	.	.	.	4r	4r	1r	.
4D\	.	.	.	.	4F#\	a-	.	.	.	.	.	.	8d/L	8d/L	.	.
.	.	.	.	.	.	.	.	.	.	.	.	.	8d/J	8d/J	.	.
4E\	7	.	.	.	4G\	-pe-	.	.	.	.	.	.	4d/	4d/	.	.
4F#\	6 -5	.	.	.	4A\	-ri-	4cn\	.	.	.	.	.	4d/	4d/	.	.
!	!	!LO:LB:g=original	!	!	!	!	!	!	!	!	!	!	!	!LO:LB:g=original	!	!
=152	=152	=152	=152	=152	=152	=152	=152	=152	=152	=152	=152	=152	=152	=152	=152	=152
1G	.	[1g	.	.	4G\	-a-	4B,<\	-ra,	1g	a-	.	.	2d|/	2d/	[1g	.
.	.	.	.	.	4G,<\	-tur	4B\	a-	.	.	.	.	.	.	.	.
.	.	.	.	.	4B\	ter-	4d\	-pe-	.	.	.	.	2d|/	2d/	.	.
.	.	.	.	.	4G\	-ra	4B\	-ri-	.	.	.	.	.	.	.	.
=153	=153	=153	=153	=153	=153	=153	=153	=153	=153	=153	=153	=153	=153	=153	=153	=153
1D	4	2g/]	00r	.	1D	a-	4A/	-a-	2g\	-pe-	00r	.	2d/	2d/	2g/]	00r
.	.	.	.	.	.	.	4D/	.	.	.	.	.	.	.	.	.
.	3	2f#/	.	.	.	.	[2d\	.	2f#\	-ri-	.	.	2r	2r	2f#/	.
*	*	*	*	*	*custos:A	*	*	*	*	*	*	*	*	*	*	*
!	!	!	!	!	!LO:LB:g=original	!	!	!	!	!	!	!	!	!	!	!
=154	=154	=154	=154	=154	=154	=154	=154	=154	=154	=154	=154	=154	=154	=154	=154	=154
1AA	4	4e/	.	.	2.A\	-pe-	2d\]	.	(4e\	-a-	.	.	00r	00r	2e/	.
.	.	4A/	.	.	.	.	.	.	4A/)	.	.	.	.	.	.	.
.	n	[2a/	.	.	.	.	2cn\	.	[2a\	.	.	.	.	.	[2a/	.
.	.	.	.	.	4A\	-ri-	.	.	.	.	.	.	.	.	.	.
!	!	!	!	!	!	!	!LO:LB:g=original	!	!	!	!	!	!	!	!	!
=155	=155	=155	=155	=155	=155	=155	=155	=155	=155	=155	=155	=155	=155	=155	=155	=155
2.BB/	7	4a/]	.	.	2.B\	-a-	2.d\	.	4a\]	.	.	.	.	.	4a/]	.
.	.	4e/	.	.	.	.	.	.	4d\	.	.	.	.	.	4d/	.
.	6	[2g/	.	.	.	.	.	.	2g\	-tur	.	.	.	.	[2g/	.
8AA/L	.	.	.	.	8A\L	-tur	(8cn\L	-tur	.	.	.	.	.	.	.	.
8GG/J	.	.	.	.	8G\J	.	8B\J)	.	.	.	.	.	.	.	.	.
!LO:LB:g=original	!	!	!	!	!	!	!	!	!LO:LB:g=original	!	!	!	!	!	!	!
=156	=156	=156	=156	=156	=156	=156	=156	=156	=156	=156	=156	=156	=156	=156	=156	=156
1AA	7	4g/]	.	.	1A	ter-	1cn	ter-	4g\	ter-	.	.	.	.	4g/]	.
.	.	8f#/L	.	.	.	.	.	.	8f#\L	.	.	.	.	.	8f#/L	.
.	.	8e/J	.	.	.	.	.	.	8e\J	.	.	.	.	.	8e/J	.
.	6 n	2f#/	.	.	.	.	.	.	2f#\	.	.	.	.	.	2f#/	.
=157	=157	=157	=157	=157	=157	=157	=157	=157	=157	=157	=157	=157	=157	=157	=157	=157
4GG/	.	2.g/	1r	.	4G,<\	-ra,	4B,<\	-ra,	2.g\	.	1r	.	.	.	2.g/	1r
4AA/	.	.	.	.	4A\	a-	4cn\	a-	.	.	.	.	.	.	.	.
4BB/	6	.	.	.	4B\	-pe-	4d\	-pe-	.	.	.	.	.	.	.	.
4C#X/	.	8f#/L	.	.	4c#X\	-ri-	4e\	-ri-	8f#\L	.	.	.	.	.	8f#/L	.
.	.	8e/J	.	.	.	.	.	.	8e\J	.	.	.	.	.	8e/J	.
=158	=158	=158	=158	=158	=158	=158	=158	=158	=158	=158	=158	=158	=158	=158	=158	=158
2.D\	.	4f#/	[1dd	.	2.D\	-a-	2B\	-a-	4f#,<\	-ra,	1dd	a-	2dd\	2ff#\	4f#/	[1dd
.	.	4dd\	.	.	.	.	.	.	4d\	a-	.	.	.	.	4dd\	.
.	.	4ff#\	.	.	.	.	2B\	-tur	4f#\	-pe-	.	.	4.dd\	4.ff#\	4ff#\	.
4F#\	.	4dd\	.	.	4F#\	-tur	.	.	4d\	-ri-	.	.	.	.	4dd\	.
.	.	.	.	.	.	.	.	.	.	.	.	.	8dd\	8ff#\	.	.
=159	=159	=159	=159	=159	=159	=159	=159	=159	=159	=159	=159	=159	=159	=159	=159	=159
2A\	4	4ee\	2dd\]	.	2A\	ter-	2B\	ter-	(4e\	-a-	2dd\	-pe-	2a/	2ff#\	4ee\	2dd\]
.	.	4a/	.	.	.	.	.	.	4A/)	.	.	.	.	.	4a/	.
2AA/	#	[2aa\	2cc#X\	.	2AA/	-ra	2e\	-ra	[2a\	.	2cc#X\	-ri-	2r	2r	[2aa\	2cc#X\
!	!	!LO:LB:g=original	!	!	!	!	!	!	!	!	!	!	!	!	!	!
=160	=160	=160	=160	=160	=160	=160	=160	=160	=160	=160	=160	=160	=160	=160	=160	=160
2.E\	4	2aa\]	4b/	.	2.E\	a-	2r	.	2a\]	.	4b\	-a-	1r	1r	2aa\]	4b/
.	.	.	4e/	.	.	.	.	.	.	.	4e/	.	.	.	.	4e/
.	3	2gg\	[2ee\	.	.	.	4r	.	2g\	.	[2ee\	.	.	.	2gg\	[2ee\
4C#X/	6 5	.	.	.	4C#X/	.	4A/	a-	.	.	.	.	.	.	.	.
=161	=161	=161	=161	=161	=161	=161	=161	=161	=161	=161	=161	=161	=161	=161	=161	=161
2D\	3 9	2.ff#\	4ee\]	.	2D/	-pe-	2A/	-pe-	2.f#\	.	4ee\]	.	2r	2r	2.ff#\	4ee\]
.	.	.	4a/	.	.	.	.	.	.	.	4a\	.	.	.	.	4a/
2B\	3	.	[2dd\	.	2B\	-ri-	2B\	-ri-	.	.	2dd\	-tur	2dd\	2ff#\	.	[2dd\
.	.	8ee\L	.	.	.	.	.	.	(8e\L	-tur	.	.	.	.	8ee\L	.
.	.	8dd\J	.	.	.	.	.	.	8d\J)	.	.	.	.	.	8dd\J	.
*	*	*	*	*	*custos:G	*	*	*	*	*	*	*	*	*	*	*
!	!	!	!	!	!LO:LB:g=original	!	!	!	!	!	!	!	!	!	!LO:LB:g=original	!
=162	=162	=162	=162	=162	=162	=162	=162	=162	=162	=162	=162	=162	=162	=162	=162	=162
2G\	6 5	1eeT	4dd\]	.	(2G\	-a-	2B\	-a-	1e	ter-	4dd\	ter-	2.ee\	2.gg\	1eeT	4dd\]
.	.	.	8cc#X\L	.	.	.	.	.	.	.	8cc#X\L	.	.	.	.	8cc#X\L
.	.	.	8b\J	.	.	.	.	.	.	.	8b\J	.	.	.	.	8b\J
2A\	#	.	2cc#Xt\	.	2A\)	.	2A/	.	.	.	2cc#Xt\	.	.	.	.	2cc#Xt\
.	.	.	.	.	.	.	.	.	.	.	.	.	4ee\	4gg\	.	.
!	!	!	!	!	!	!	!LO:LB:g=original	!	!	!	!	!	!	!	!	!
=163	=163	=163	=163	=163	=163	=163	=163	=163	=163	=163	=163	=163	=163	=163	=163	=163
4D\	.	1dd	2.dd\	.	4D,<\	-tur	4F#/	-tur	1d	.	2.dd\	.	4dd\	4ff#\	1dd	2.dd\
4D\	.	.	.	.	4D\	a-	4F#/	a-	.	.	.	.	8d/L	8d/L	.	.
.	.	.	.	.	.	.	.	.	.	.	.	.	8d/J	8d/J	.	.
4E\	7	.	.	.	4E\	-pe-	4G/	-pe-	.	.	.	.	4d/	4d/	.	.
4F#\	6 -5	.	4ccn\	.	4F#\	-ri-	4A/	-ri-	.	.	4ccn\	.	4d/	4d/	.	4ccn\
!	!	!	!	!	!	!	!	!	!LO:LB:g=original	!	!LO:LB:g=original	!	!LO:LB:g=original	!	!	!
=164	=164	=164	=164	=164	=164	=164	=164	=164	=164	=164	=164	=164	=164	=164	=164	=164
4G\	.	2dd\	2b/	.	2G\	-a-	2G/	-a-	2d\	-ra	2b\	-ra	2d/	2d/	2dd\	2b/
4GG/	.	.	.	.	.	.	.	.	.	.	.	.	.	.	.	.
4r	.	[2ccn\	[2ee\	.	2cn\	-tur	2g\	-tur	[2ccn\	ter-	[2ee\	ter-	2r	2r	[2ccn\	[2ee\
4cn\	.	.	.	.	.	.	.	.	.	.	.	.	.	.	.	.
=165	=165	=165	=165	=165	=165	=165	=165	=165	=165	=165	=165	=165	=165	=165	=165	=165
4A\	6 5 n	2cc\]	4ee\]	.	2A\	ter-	1f#	ter-	(4ccn\]	.	2ee\]	.	0r	0r	2cc\]	4ee\]
4F#\	.	.	4a/	.	.	.	.	.	4a\)	.	.	.	.	.	.	4a/
4r	.	[2b/	[2dd\	.	2B\	.	.	.	[2b\	.	[2dd\	.	.	.	[2b/	[2dd\
4B\	.	.	.	.	.	.	.	.	.	.	.	.	.	.	.	.
=166	=166	=166	=166	=166	=166	=166	=166	=166	=166	=166	=166	=166	=166	=166	=166	=166
4G#X\	6 5	4b/]	2dd\]	.	2G#X\	.	1e	.	4b\]	.	2dd\]	.	.	.	4b/]	2dd\]
4E\	.	4g#X/	.	.	.	.	.	.	4g#X\	.	.	.	.	.	4g#X/	.
!LO:LB:g=original	!	!	!	!	!	!	!	!	!	!	!	!	!	!	!	!
4r	.	2a/	[2ccn\	.	2A\	.	.	.	[2a\	.	[2ccn\	.	.	.	2a/	[2ccn\
4A\	n	.	.	.	.	.	.	.	.	.	.	.	.	.	.	.
!	!	!	!LO:LB:g=original	!	!	!	!	!	!	!	!	!	!	!	!	!LO:LB:g=original
=167	=167	=167	=167	=167	=167	=167	=167	=167	=167	=167	=167	=167	=167	=167	=167	=167
4F#\	6 -5	2a/	4cc\]	.	2F#\	.	1d	.	4a\]	.	2cc\]	.	1r	1r	2a/	4cc\]
4D\	.	.	4f#/	.	.	.	.	.	4f#\	.	.	.	.	.	.	4f#/
4r	.	[2gn/	[>2b/	.	2Gn\	.	.	.	[2gn\	.	[2b\	.	.	.	[2gn/	[>2b/
4Gn\	.	.	.	.	.	.	.	.	.	.	.	.	.	.	.	.
=168	=168	=168	=168	=168	=168	=168	=168	=168	=168	=168	=168	=168	=168	=168	=168	=168
2E\	6\ 5	2g/]	2b/]	.	2E\	.	1c#X	.	2g\]	.	2b\]	.	2r	2r	2g/]	2b/]
2F#\	#	2f#/	2a#X/	.	2F#\	.	.	.	2f#\	.	2a#Xt\	.	4f#/	4f#/	2f#/	2a#X/
.	.	.	.	.	.	.	.	.	.	.	.	.	8f#/L	8f#/L	.	.
.	.	.	.	.	.	.	.	.	.	.	.	.	8f#/J	8f#/J	.	.
!	!	!LO:LB:g=original	!	!	!	!	!	!	!	!	!	!	!	!LO:LB:g=original	!	!
=169	=169	=169	=169	=169	=169	=169	=169	=169	=169	=169	=169	=169	=169	=169	=169	=169
2BB/	.	4f#/	4b/	.	2BB/	-ra,	2d\	-ra	2f#\	-ra	4b,<\	-ra,	2f#/	2f#/	4f#/	4b/
.	.	4dd\	4b/	.	.	.	.	.	.	.	4b\	et	.	.	4dd\	4b/
[2B\	.	4ff#\	4dd/	.	2B\	et	2f#\	et	2f#\	et	4dd\	ger-	2r	2r	4ff#\	4dd/
.	.	4dd\	4b/	.	.	.	.	.	.	.	4b\	-mi-	.	.	4dd\	4b/
!	!	!	!	!	!LO:LB:g=original	!	!	!	!	!	!	!	!	!	!	!
=170	=170	=170	=170	=170	=170	=170	=170	=170	=170	=170	=170	=170	=170	=170	=170	=170
2B\]	5 2	2.cc#\	4cc#\	.	2B\	ger-	(1c#	ger-	2f#\	ger-	(4cc#\	-net	1r	0r	2.cc#\	4cc#\
.	.	.	4f#/	.	.	.	.	.	.	.	4f#/)	.	.	.	.	4f#/
[2A\	6	.	8ff#\L	.	2A\	-mi-	.	.	2cc#\	.	2ff#\	Sal-	.	.	.	2ff#\
.	.	.	8ee\	.	.	.	.	.	.	.	.	.	.	.	.	.
.	.	4ff#\	8dd\	.	.	.	.	.	.	.	.	.	.	.	4ff#\	.
.	.	.	8cc#\J	.	.	.	.	.	.	.	.	.	.	.	.	.
=171	=171	=171	=171	=171	=171	=171	=171	=171	=171	=171	=171	=171	=171	=171	=171	=171
2A\]	+4r 2	2.b\	8dd#X\L	.	2A\	-net	2f#\)	.	2.b\	.	4dd#X\	.	1r	.	2.b/	4dd#X\
.	.	.	8b\	.	.	.	.	.	.	.	.	.	.	.	.	.
.	.	.	8cc#\	.	.	.	.	.	.	.	4b\	.	.	.	.	4b\
.	.	.	8dd#X\J	.	.	.	.	.	.	.	.	.	.	.	.	.
[2G\	6	.	8ee\L	.	[2G\	Sal-	2B\	-mi-	.	.	2ee\	.	.	.	.	2ee\
.	.	.	8ddn\	.	.	.	.	.	.	.	.	.	.	.	.	.
.	.	4ee\	8cc#\	.	.	.	.	.	8cc#\L	-mi-	.	.	.	.	8cc#\L	.
.	.	.	8b\J	.	.	.	.	.	8b\J	.	.	.	.	.	8b\J	.
*	*	*	*	*	*	*	*	*	*	*	*custos:cc	*	*	*	*	*
!	!	!	!	!	!	!	!	!	!LO:LB:g=original	!	!LO:LB:g=original	!	!	!	!	!
=172	=172	=172	=172	=172	=172	=172	=172	=172	=172	=172	=172	=172	=172	=172	=172	=172
2G\]	4 2	2a/	8cc#\L	.	2G\]	.	2e\	-net	1a	-net	4cc#\	.	2r	2r	2a/	4cc#\
.	.	.	8a\	.	.	.	.	.	.	.	.	.	.	.	.	.
.	.	.	8cc#\	.	.	.	.	.	.	.	4a\	.	.	.	.	4a\
.	.	.	8ee\J	.	.	.	.	.	.	.	.	.	.	.	.	.
!	!	!	!	!	!	!	!LO:LB:g=original	!	!	!	!	!	!	!	!	!
2F#\	6	[2ff#\	[2aa\	.	2F#\	-va-	(4d\	Sal-	.	.	[2aa\	.	[2ff#\	[2aa\	[2ff#\	2aa\
.	.	.	.	.	.	.	[4f#\)	.	.	.	.	.	.	.	.	.
=173	=173	=173	=173	=173	=173	=173	=173	=173	=173	=173	=173	=173	=173	=173	=173	=173
2G\	9 7	2ff#\]	2aa\]	.	1G	.	2f#\]	.	2.b\	Sal-	2aa\]	.	2ff#\]	2aa\]	2ff#\]	2aa\
2GG/	8 6	4ee\	4gg\	.	.	.	(4e\	-va-	.	.	(4gg\	-va-	4ee\	4gg\	4ee\	4gg\
.	7 5	4dd\	4ff#\	.	.	.	4d\)	.	4dd\	-va-	4ff#\)	.	4dd\	4ff#\	4dd\	4ff#\
=174	=174	=174	=174	=174	=174	=174	=174	=174	=174	=174	=174	=174	=174	=174	=174	=174
[1AA	5 3	8cc#\L	8ee\L	.	[1A	-to-	2c#\	-to-	[1a	-to-	4ee\	-to-	4a/	4ee\	2cc#|\	2ee\|
.	.	8ee\	8cc#\	.	.	.	.	.	.	.	.	.	.	.	.	.
.	.	8cc#\	8a\	.	.	.	.	.	.	.	4a\	.	8a/L	8a/L	.	.
.	.	8a\J	8ee\J	.	.	.	.	.	.	.	.	.	8a/J	8a/J	.	.
.	6 4	8dd\L	8ff#\L	.	.	.	2d\	.	.	.	4ff#\	.	4a/	4a/	2dd|\	2ff#\|
.	.	8ff#\	8dd\	.	.	.	.	.	.	.	.	.	.	.	.	.
.	.	8dd\	8a\	.	.	.	.	.	.	.	4dd\	.	4a/	4a/	.	.
.	.	8a\J	8ff#\J	.	.	.	.	.	.	.	.	.	.	.	.	.
!	!	!	!	!	!	!	!	!	!	!	!	!	!	!	!LO:LB:g=original	!
=175	=175	=175	=175	=175	=175	=175	=175	=175	=175	=175	=175	=175	=175	=175	=175	=175
1AA_	7 5	8ee\L	8gg\L	.	1A_	.	4e\	.	1a_	.	4gg\	.	1a	1a	2ee|\	2gg\|
.	.	8gg\	8ee\	.	.	.	.	.	.	.	.	.	.	.	.	.
.	.	8ee\	8a\	.	.	.	4c#\	.	.	.	4ee\	.	.	.	.	.
.	.	8a\J	8gg\J	.	.	.	.	.	.	.	.	.	.	.	.	.
!	!	!	!LO:LB:g=original	!	!	!	!	!	!	!	!	!	!	!	!	!
.	6 4	8dd\L	8ff#\L	.	.	.	2d\	.	.	.	4ff#\	.	.	.	2dd|\	2ff#\|
.	.	8ff#\	8dd\	.	.	.	.	.	.	.	.	.	.	.	.	.
.	.	8dd\	8a\	.	.	.	.	.	.	.	4dd\	.	.	.	.	.
.	.	8a\J	8ff#\J	.	.	.	.	.	.	.	.	.	.	.	.	.
!	!	!LO:LB:g=original	!	!	!	!	!	!	!	!	!	!	!	!	!	!
=176	=176	=176	=176	=176	=176	=176	=176	=176	=176	=176	=176	=176	=176	=176	=176	=176
1AA_	5 3	8cc#\L	8ee\L	.	1A_	.	2c#\	.	1a_	.	4ee\	.	2a/	2ee|\	[1aT	1aa
.	.	8ee\	8cc#\	.	.	.	.	.	.	.	.	.	.	.	.	.
.	.	8cc#\	8a\	.	.	.	.	.	.	.	4a\	.	.	.	.	.
.	.	8a\J	8ee\J	.	.	.	.	.	.	.	.	.	.	.	.	.
.	6 4	8dd\L	8ff#\L	.	.	.	2d\	.	.	.	4ff#\	.	2dd\	2ff#|\	.	.
.	.	8ff#\	8dd\	.	.	.	.	.	.	.	.	.	.	.	.	.
.	.	8dd\	8a\	.	.	.	.	.	.	.	4dd\	.	.	.	.	.
.	.	8a\J	8ff#\J	.	.	.	.	.	.	.	.	.	.	.	.	.
=177	=177	=177	=177	=177	=177	=177	=177	=177	=177	=177	=177	=177	=177	=177	=177	=177
1AA_	7 5	8ee\L	8gg\L	.	1A_	.	4e\	.	1a_	.	4gg\	.	2ee\	2gg|\	1a]	1aa
.	.	8gg\	8ee\	.	.	.	.	.	.	.	.	.	.	.	.	.
.	.	8ee\	8a\	.	.	.	4c#\	.	.	.	4ee\	.	.	.	.	.
.	.	8a\J	8gg\J	.	.	.	.	.	.	.	.	.	.	.	.	.
.	6 4	8dd\L	8ff#\L	.	.	.	[2d\	.	.	.	4ff#\	.	2dd\	2ff#|\	.	.
.	.	8ff#\	8dd\	.	.	.	.	.	.	.	.	.	.	.	.	.
.	.	8dd\	8a\	.	.	.	.	.	.	.	4dd\	.	.	.	.	.
.	.	8a\J	8ff#\J	.	.	.	.	.	.	.	.	.	.	.	.	.
=178	=178	=178	=178	=178	=178	=178	=178	=178	=178	=178	=178	=178	=178	=178	=178	=178
1AA_	5 4	8a\L	8ee\L	.	1A_	.	(4d\]	.	1a_	.	4ee\	.	2a/	2ee\	4r	4r
.	.	8aa\	8a\	.	.	.	.	.	.	.	.	.	.	.	.	.
.	.	8ee\	8cc#\	.	.	.	4c#\)	.	.	.	4a\	.	.	.	4cc#\	4ee\
.	3	8cc#\J	8ee\J	.	.	.	.	.	.	.	.	.	.	.	.	.
*	*	*	*	*	*	*	*	*	*	*	*custos:ff	*	*	*	*	*
!	!	!	!	!	!	!	!	!	!	!	!LO:LB:g=original	!	!	!	!	!
.	6 4	4dd\	8ff#\L	.	.	.	2d\	.	.	.	4ff#\	.	4a/	4cc# 4a/	4dd\	4ff#\
.	.	.	8a\	.	.	.	.	.	.	.	.	.	.	.	.	.
.	.	4dd\	8dd\	.	.	.	.	.	.	.	4dd\	.	4a/	4a/	4dd\	4ff#\
.	.	.	8ff#\J	.	.	.	.	.	.	.	.	.	.	.	.	.
!	!	!	!	!	!	!	!	!	!	!	!	!	!LO:LB:g=original	!	!	!
=179	=179	=179	=179	=179	=179	=179	=179	=179	=179	=179	=179	=179	=179	=179	=179	=179
1AA_	5 3	4cc#\	8ee\L	.	1A_	.	2c#\	.	1a_	.	4ee\	.	2a/	2a/	4cc#\	2ee\
.	.	.	8a\	.	.	.	.	.	.	.	.	.	.	.	.	.
.	.	8b/L	8b\	.	.	.	.	.	.	.	4a\	.	.	.	4a/	.
.	.	8a/J	8cc#\J	.	.	.	.	.	.	.	.	.	.	.	.	.
.	6 4	2ff#\	[2dd\	.	.	.	2f#\	.	.	.	[2dd\	.	2dd\	2ff#\	4cc#\	[2dd\
.	.	.	.	.	.	.	.	.	.	.	.	.	.	.	4f#/	.
!LO:LB:g=original	!	!	!	!	!	!	!LO:LB:g=original	!	!	!	!	!	!	!	!	!
=180	=180	=180	=180	=180	=180	=180	=180	=180	=180	=180	=180	=180	=180	=180	=180	=180
2AA/]	5 4	1eeT	2dd\]	.	1A]	.	1eT	.	1a_	.	2dd\]	.	2.a/	2.eeT\	1eT	2dd\]
2AA|/	3	.	2cc#t\	.	.	.	.	.	.	.	2cc#t\	.	.	.	.	2cc#t\
.	.	.	.	.	.	.	.	.	.	.	.	.	4a/	4ee\	.	.
!	!	!	!	!	!LO:LB:g=original	!	!	!	!	!	!	!	!	!LO:LB:g=original	!	!LO:LB:g=original
=181	=181	=181	=181	=181	=181	=181	=181	=181	=181	=181	=181	=181	=181	=181	=181	=181
2DD/	.	2dd,<\	2dd\	.	2D,</	-rem	2f#,<\	-rem,	2a,<\]	-rem.	2dd\	-rem,	2f#/	2dd\	2f#,</	2dd,<\
!LO:TX:b:Bi:t=Adagio	!	!LO:TX:a:Bi:t=Adagio	!LO:TX:b:Bi:t=adagio	!	!	!	!LO:TX:a:Bi:t=Adagio.	!	!LO:TX:a:Bi:t=Adagio.	!	!LO:TX:a:Bi:t=Adagio.	!	!LO:TX:a:Bi:t=Adagio	!LO:TX:a:Bi:t=Adagio	!LO:TX:b:Bi:t=adagio	!LO:TX:b:Bi:t=Adagio
2D/	7 n	4ccn\	4aa\	.	4d\	Sal-	4f#\	Sal-	4a\	Sal-	4ccn\	Sal-	2d/	2d/	4ccn|\	4aa\
.	.	4cc\	[4aa\	.	4d\	-va-	4f#\	-va-	[4a\	-va-	4cc\	-va-	.	.	4cc|\	[4aa\
!	!	!LO:LB:g=original	!	!	!	!	!	!	!	!	!	!	!	!	!	!
=182	=182	=182	=182	=182	=182	=182	=182	=182	=182	=182	=182	=182	=182	=182	=182	=182
1G	10 9	[1b	2aa\]	.	1G	-to-	[1d	-to-	2a\]	-to-	[1b	-to-	4d/	4d/	[1b	2aa\]
.	.	.	.	.	.	.	.	.	.	.	.	.	4d/	4d/	.	.
!	!	!	!LO:LB:g=original	!	!	!	!	!	!LO:LB:g=original	!	!	!	!	!	!	!
.	.	.	4gg\	.	.	.	.	.	(4g\	.	.	.	4d/	4d/	.	4gg\
.	.	.	4ff#\	.	.	.	.	.	4f#\)	.	.	.	4d/	4d/	.	4ff#\
=183	=183	=183	=183	=183	=183	=183	=183	=183	=183	=183	=183	=183	=183	=183	=183	=183
1GG	8	2b/]	2gg\	.	1GG	.	2d\]	.	2g\	.	2b\]	.	4d/	4d/	2b/]	2gg\
.	.	.	.	.	.	.	.	.	.	.	.	.	8d/L	8d/L	.	.
.	.	.	.	.	.	.	.	.	.	.	.	.	8d/J	8d/J	.	.
.	6 +4r 2	2cc#Xt\	2eeT\	.	.	.	2e\	.	2a\	.	2cc#X\	.	8d/L	8d/L	2a/	2ee\
.	.	.	.	.	.	.	.	.	.	.	.	.	8d/	8d/	.	.
.	.	.	.	.	.	.	.	.	.	.	.	.	8d/	8d/	.	.
.	.	.	.	.	.	.	.	.	.	.	.	.	8d/J	8d/J	.	.
=184	=184	=184	=184	=184	=184	=184	=184	=184	=184	=184	=184	=184	=184	=184	=184	=184
!LO:TX:b:i:t=Fine	!	!LO:TX:b:i:t=Fine.	!LO:TX:b:i:t=Fine	!	!LO:TX:b:i:t=Fine.	!	!LO:TX:b:i:t=Fine	!	!LO:TX:b:i:t=Fine.	!	!LO:TX:b:i:t=Fine.	!	!LO:TX:b:i:t=Fine.	!LO:TX:b:i:t=Fine.	!LO:TX:b:i:t=Fine	!LO:TX:b:i:t=Fine
1DD;<	.	1dd 1f# 1A;	1ff# 1a 1d;	.	1D;	-rem.	1f#;	-rem.	1a;	-rem	1dd;	-rem	1d;<	1d;	1a;	1ff#;
==	==	==	==	==	==	==	==	==	==	==	==	==	==	==	==	==
*-	*-	*-	*-	*-	*-	*-	*-	*-	*-	*-	*-	*-	*-	*-	*-	*-
!!!system-decoration: [(g1)][(g2)][(g3)][(g4)]
!!!RDF**kern: > = above
!!!RDF**kern: < = below
!!!RDF**kern: | = vertical stroke
!!!ENC: Mateusz Solarz
!!!END: 2022-03-30
!!!ENC: Andrzej Kubiczek
!!!END: 2022-04-10
!!!YEC: Copyright 2022 Narodowy Instytut Fryderyka Chopina (https://polishscores.org)
!!!YEM: License CC-BY-4.0 (https://creativecommons.org/licenses/by/4.0)
